OCIO/ZaleTestOcioFoo.ocio
ocio_profile_version: 2.4

environment:
  {}
search_path: "../LUTs"
strictparsing: true
luma: [0.2126, 0.7152, 0.0722]
name: studio-config-all-views-v3.0.0_aces-v2.0_ocio-v2.4
description: |
  Academy Color Encoding System - Studio Config (All Views) [COLORSPACES v3.0.0] [ACES v2.0] [OCIO v2.4]
  ------------------------------------------------------------------------------------------------------

  This "OpenColorIO" config is geared toward studios requiring a config that includes a wide variety of camera colorspaces, displays and looks.

roles:
  aces_interchange: ACES2065-1
  cie_xyz_d65_interchange: CIE XYZ-D65 - Display-referred
  color_picking: sRGB Encoded Rec.709 (sRGB)
  color_timing: ACEScct
  compositing_log: ACEScct
  data: Raw
  matte_paint: ACEScct
  scene_linear: ACEScg
  texture_paint: sRGB Encoded Rec.709 (sRGB)

file_rules:
  - !<Rule> {name: Default, colorspace: ACES2065-1}

shared_views:
  - !<View> {name: ACES 2.0 - SDR 100 nits (Rec.709), view_transform: ACES 2.0 - SDR 100 nits (Rec.709), display_colorspace: <USE_DISPLAY_NAME>}
  - !<View> {name: ACES 2.0 - SDR 100 nits (Rec.709 D60 in Rec.709 D65), view_transform: ACES 2.0 - SDR 100 nits (Rec.709 D60 in Rec.709 D65), display_colorspace: <USE_DISPLAY_NAME>}
  - !<View> {name: ACES 2.0 - SDR 100 nits (P3 D65), view_transform: ACES 2.0 - SDR 100 nits (P3 D65), display_colorspace: <USE_DISPLAY_NAME>}
  - !<View> {name: ACES 2.0 - SDR 100 nits (P3 D60 in P3 D65), view_transform: ACES 2.0 - SDR 100 nits (P3 D60 in P3 D65), display_colorspace: <USE_DISPLAY_NAME>}
  - !<View> {name: ACES 2.0 - HDR 1000 nits (P3 D65), view_transform: ACES 2.0 - HDR 1000 nits (P3 D65), display_colorspace: <USE_DISPLAY_NAME>}
  - !<View> {name: ACES 2.0 - HDR 1000 nits (P3 D60 in P3 D65), view_transform: ACES 2.0 - HDR 1000 nits (P3 D60 in P3 D65), display_colorspace: <USE_DISPLAY_NAME>}
  - !<View> {name: ACES 2.0 - SDR 100 nits (Rec.709 D60 in P3 D65), view_transform: ACES 2.0 - SDR 100 nits (Rec.709 D60 in P3 D65), display_colorspace: <USE_DISPLAY_NAME>}
  - !<View> {name: ACES 2.0 - HDR 1000 nits (P3 D60 in Rec.2020 D65), view_transform: ACES 2.0 - HDR 1000 nits (P3 D60 in Rec.2020 D65), display_colorspace: <USE_DISPLAY_NAME>}
  - !<View> {name: ACES 2.0 - HDR 500 nits (P3 D65), view_transform: ACES 2.0 - HDR 500 nits (P3 D65), display_colorspace: <USE_DISPLAY_NAME>}
  - !<View> {name: ACES 2.0 - HDR 2000 nits (P3 D65), view_transform: ACES 2.0 - HDR 2000 nits (P3 D65), display_colorspace: <USE_DISPLAY_NAME>}
  - !<View> {name: ACES 2.0 - HDR 4000 nits (P3 D65), view_transform: ACES 2.0 - HDR 4000 nits (P3 D65), display_colorspace: <USE_DISPLAY_NAME>}
  - !<View> {name: ACES 2.0 - HDR 500 nits (P3 D60 in Rec.2020 D65), view_transform: ACES 2.0 - HDR 500 nits (P3 D60 in Rec.2020 D65), display_colorspace: <USE_DISPLAY_NAME>}
  - !<View> {name: ACES 2.0 - HDR 2000 nits (P3 D60 in Rec.2020 D65), view_transform: ACES 2.0 - HDR 2000 nits (P3 D60 in Rec.2020 D65), display_colorspace: <USE_DISPLAY_NAME>}
  - !<View> {name: ACES 2.0 - HDR 4000 nits (P3 D60 in Rec.2020 D65), view_transform: ACES 2.0 - HDR 4000 nits (P3 D60 in Rec.2020 D65), display_colorspace: <USE_DISPLAY_NAME>}
  - !<View> {name: ACES 2.0 - HDR 500 nits (Rec.2020), view_transform: ACES 2.0 - HDR 500 nits (Rec.2020), display_colorspace: <USE_DISPLAY_NAME>}
  - !<View> {name: ACES 2.0 - HDR 1000 nits (Rec.2020), view_transform: ACES 2.0 - HDR 1000 nits (Rec.2020), display_colorspace: <USE_DISPLAY_NAME>}
  - !<View> {name: ACES 2.0 - HDR 2000 nits (Rec.2020), view_transform: ACES 2.0 - HDR 2000 nits (Rec.2020), display_colorspace: <USE_DISPLAY_NAME>}
  - !<View> {name: ACES 2.0 - HDR 4000 nits (Rec.2020), view_transform: ACES 2.0 - HDR 4000 nits (Rec.2020), display_colorspace: <USE_DISPLAY_NAME>}
  - !<View> {name: ACES 2.0 - HDR 500 nits (Rec.2020 D60 in Rec.2020 D65), view_transform: ACES 2.0 - HDR 500 nits (Rec.2020 D60 in Rec.2020 D65), display_colorspace: <USE_DISPLAY_NAME>}
  - !<View> {name: ACES 2.0 - HDR 1000 nits (Rec.2020 D60 in Rec.2020 D65), view_transform: ACES 2.0 - HDR 1000 nits (Rec.2020 D60 in Rec.2020 D65), display_colorspace: <USE_DISPLAY_NAME>}
  - !<View> {name: ACES 2.0 - HDR 2000 nits (Rec.2020 D60 in Rec.2020 D65), view_transform: ACES 2.0 - HDR 2000 nits (Rec.2020 D60 in Rec.2020 D65), display_colorspace: <USE_DISPLAY_NAME>}
  - !<View> {name: ACES 2.0 - HDR 4000 nits (Rec.2020 D60 in Rec.2020 D65), view_transform: ACES 2.0 - HDR 4000 nits (Rec.2020 D60 in Rec.2020 D65), display_colorspace: <USE_DISPLAY_NAME>}
  - !<View> {name: ACES 2.0 - SDR 100 nits (Rec.709 D60 in Rec.2020 D65), view_transform: ACES 2.0 - SDR 100 nits (Rec.709 D60 in Rec.2020 D65), display_colorspace: <USE_DISPLAY_NAME>}
  - !<View> {name: ACES 2.0 - HDR 108 nits (P3 D65), view_transform: ACES 2.0 - HDR 108 nits (P3 D65), display_colorspace: <USE_DISPLAY_NAME>}
  - !<View> {name: ACES 2.0 - HDR 108 nits (P3 D60 in P3 D65), view_transform: ACES 2.0 - HDR 108 nits (P3 D60 in P3 D65), display_colorspace: <USE_DISPLAY_NAME>}
  - !<View> {name: ACES 2.0 - HDR 500 nits (P3 D60 in P3 D65), view_transform: ACES 2.0 - HDR 500 nits (P3 D60 in P3 D65), display_colorspace: <USE_DISPLAY_NAME>}
  - !<View> {name: ACES 2.0 - HDR 2000 nits (P3 D60 in P3 D65), view_transform: ACES 2.0 - HDR 2000 nits (P3 D60 in P3 D65), display_colorspace: <USE_DISPLAY_NAME>}
  - !<View> {name: ACES 2.0 - HDR 4000 nits (P3 D60 in P3 D65), view_transform: ACES 2.0 - HDR 4000 nits (P3 D60 in P3 D65), display_colorspace: <USE_DISPLAY_NAME>}
  - !<View> {name: Un-tone-mapped, view_transform: Un-tone-mapped, display_colorspace: <USE_DISPLAY_NAME>}

displays:
  sRGB - Display:
    - !<View> {name: Raw, colorspace: Raw}
    - !<Views> [ACES 2.0 - SDR 100 nits (Rec.709), ACES 2.0 - SDR 100 nits (Rec.709 D60 in Rec.709 D65), Un-tone-mapped]
  Display P3 - Display:
    - !<View> {name: Raw, colorspace: Raw}
    - !<Views> [ACES 2.0 - SDR 100 nits (P3 D65), ACES 2.0 - SDR 100 nits (P3 D60 in P3 D65), Un-tone-mapped]
  Display P3 HDR - Display:
    - !<View> {name: Raw, colorspace: Raw}
    - !<Views> [ACES 2.0 - HDR 1000 nits (P3 D65), ACES 2.0 - HDR 1000 nits (P3 D60 in P3 D65), ACES 2.0 - SDR 100 nits (Rec.709), ACES 2.0 - SDR 100 nits (Rec.709 D60 in P3 D65), Un-tone-mapped]
  P3-D65 - Display:
    - !<View> {name: Raw, colorspace: Raw}
    - !<Views> [ACES 2.0 - SDR 100 nits (P3 D65), ACES 2.0 - SDR 100 nits (P3 D60 in P3 D65), ACES 2.0 - SDR 100 nits (Rec.709), ACES 2.0 - SDR 100 nits (Rec.709 D60 in P3 D65), Un-tone-mapped]
  Rec.1886 Rec.709 - Display:
    - !<View> {name: Raw, colorspace: Raw}
    - !<Views> [ACES 2.0 - SDR 100 nits (Rec.709), ACES 2.0 - SDR 100 nits (Rec.709 D60 in Rec.709 D65), Un-tone-mapped]
  Rec.2100-HLG - Display:
    - !<View> {name: Raw, colorspace: Raw}
    - !<Views> [ACES 2.0 - HDR 1000 nits (P3 D65), ACES 2.0 - HDR 1000 nits (P3 D60 in Rec.2020 D65), Un-tone-mapped]
  Rec.2100-PQ - Display:
    - !<View> {name: Raw, colorspace: Raw}
    - !<Views> [ACES 2.0 - HDR 500 nits (P3 D65), ACES 2.0 - HDR 1000 nits (P3 D65), ACES 2.0 - HDR 2000 nits (P3 D65), ACES 2.0 - HDR 4000 nits (P3 D65), ACES 2.0 - HDR 500 nits (P3 D60 in Rec.2020 D65), ACES 2.0 - HDR 1000 nits (P3 D60 in Rec.2020 D65), ACES 2.0 - HDR 2000 nits (P3 D60 in Rec.2020 D65), ACES 2.0 - HDR 4000 nits (P3 D60 in Rec.2020 D65), ACES 2.0 - HDR 500 nits (Rec.2020), ACES 2.0 - HDR 1000 nits (Rec.2020), ACES 2.0 - HDR 2000 nits (Rec.2020), ACES 2.0 - HDR 4000 nits (Rec.2020), ACES 2.0 - HDR 500 nits (Rec.2020 D60 in Rec.2020 D65), ACES 2.0 - HDR 1000 nits (Rec.2020 D60 in Rec.2020 D65), ACES 2.0 - HDR 2000 nits (Rec.2020 D60 in Rec.2020 D65), ACES 2.0 - HDR 4000 nits (Rec.2020 D60 in Rec.2020 D65), ACES 2.0 - SDR 100 nits (Rec.709 D60 in Rec.2020 D65), ACES 2.0 - SDR 100 nits (Rec.709), Un-tone-mapped]
  ST2084-P3-D65 - Display:
    - !<View> {name: Raw, colorspace: Raw}
    - !<Views> [ACES 2.0 - HDR 108 nits (P3 D65), ACES 2.0 - HDR 500 nits (P3 D65), ACES 2.0 - HDR 1000 nits (P3 D65), ACES 2.0 - HDR 2000 nits (P3 D65), ACES 2.0 - HDR 4000 nits (P3 D65), ACES 2.0 - HDR 108 nits (P3 D60 in P3 D65), ACES 2.0 - HDR 500 nits (P3 D60 in P3 D65), ACES 2.0 - HDR 1000 nits (P3 D60 in P3 D65), ACES 2.0 - HDR 2000 nits (P3 D60 in P3 D65), ACES 2.0 - HDR 4000 nits (P3 D60 in P3 D65), ACES 2.0 - SDR 100 nits (Rec.709), ACES 2.0 - SDR 100 nits (Rec.709 D60 in Rec.2020 D65), Un-tone-mapped]

active_displays: [sRGB - Display, Display P3 - Display, Display P3 HDR - Display, P3-D65 - Display, Rec.1886 Rec.709 - Display, Rec.2100-HLG - Display, Rec.2100-PQ - Display, ST2084-P3-D65 - Display]
active_views: [ACES 2.0 - HDR 1000 nits (P3 D65), ACES 2.0 - HDR 1000 nits (Rec.2020), ACES 2.0 - HDR 1000 nits (P3 D60 in P3 D65), ACES 2.0 - HDR 1000 nits (P3 D60 in Rec.2020 D65), ACES 2.0 - HDR 1000 nits (Rec.2020 D60 in Rec.2020 D65), ACES 2.0 - HDR 2000 nits (P3 D65), ACES 2.0 - HDR 2000 nits (Rec.2020), ACES 2.0 - HDR 2000 nits (P3 D60 in P3 D65), ACES 2.0 - HDR 2000 nits (P3 D60 in Rec.2020 D65), ACES 2.0 - HDR 2000 nits (Rec.2020 D60 in Rec.2020 D65), ACES 2.0 - HDR 4000 nits (P3 D65), ACES 2.0 - HDR 4000 nits (Rec.2020), ACES 2.0 - HDR 4000 nits (P3 D60 in P3 D65), ACES 2.0 - HDR 4000 nits (P3 D60 in Rec.2020 D65), ACES 2.0 - HDR 4000 nits (Rec.2020 D60 in Rec.2020 D65), ACES 2.0 - HDR 500 nits (P3 D65), ACES 2.0 - HDR 500 nits (Rec.2020), ACES 2.0 - HDR 500 nits (P3 D60 in P3 D65), ACES 2.0 - HDR 500 nits (P3 D60 in Rec.2020 D65), ACES 2.0 - HDR 500 nits (Rec.2020 D60 in Rec.2020 D65), ACES 2.0 - HDR 108 nits (P3 D65), ACES 2.0 - HDR 108 nits (P3 D60 in P3 D65), ACES 2.0 - SDR 100 nits (P3 D65), ACES 2.0 - SDR 100 nits (P3 D60 in P3 D65), ACES 2.0 - SDR 100 nits (Rec.709), ACES 2.0 - SDR 100 nits (Rec.709 D60 in P3 D65), ACES 2.0 - SDR 100 nits (Rec.709 D60 in Rec.2020 D65), ACES 2.0 - SDR 100 nits (Rec.709 D60 in Rec.709 D65), Un-tone-mapped, Raw]
inactive_colorspaces: [CIE XYZ-D65 - Display-referred, CIE XYZ-D65 - Scene-referred]

looks:
  - !<Look>
    name: ACES 1.3 Reference Gamut Compression
    process_space: ACES2065-1
    description: |
      LMT (applied in ACES2065-1) to compress scene-referred values from common cameras into the AP1 gamut

      ACEStransformID: urn:ampas:aces:transformId:v2.0:Look.Academy.ReferenceGamutCompress.a2.v1

      AMF Components
      --------------
      ACEStransformID: urn:ampas:aces:transformId:v2.0:InvLook.Academy.ReferenceGamutCompress.a2.v1
    transform: !<BuiltinTransform> {style: ACES-LMT - ACES 1.3 Reference Gamut Compression}


default_view_transform: Un-tone-mapped

view_transforms:
  - !<ViewTransform>
    name: Un-tone-mapped
    from_scene_reference: !<BuiltinTransform> {style: UTILITY - ACES-AP0_to_CIE-XYZ-D65_BFD}

  - !<ViewTransform>
    name: ACES 2.0 - SDR 100 nits (Rec.709)
    description: |
      Component of ACES 2 Output Transforms for 100 nit SDR Rec709

      ACEStransformID: urn:ampas:aces:transformId:v2.0:Output.Academy.Rec709-D65_100nit_in_P3-D65_ST2084.a2.v1

      AMF Components
      --------------
      ACEStransformID: urn:ampas:aces:transformId:v2.0:InvOutput.Academy.Rec709-D65_100nit_in_P3-D65_ST2084.a2.v1
    from_scene_reference: !<BuiltinTransform> {style: ACES-OUTPUT - ACES2065-1_to_CIE-XYZ-D65 - SDR-100nit-REC709_2.0}

  - !<ViewTransform>
    name: ACES 2.0 - SDR 100 nits (Rec.709 D60 in Rec.709 D65)
    description: |
      Component of ACES 2 Output Transforms for 100 nit SDR Rec709 simulating D60 white in Rec709

      ACEStransformID: urn:ampas:aces:transformId:v2.0:Output.Academy.Rec709-D60_100nit_in_Rec709-D65_BT1886.a2.v1

      AMF Components
      --------------
      ACEStransformID: urn:ampas:aces:transformId:v2.0:InvOutput.Academy.Rec709-D60_100nit_in_Rec709-D65_BT1886.a2.v1
    from_scene_reference: !<BuiltinTransform> {style: ACES-OUTPUT - ACES2065-1_to_CIE-XYZ-D65 - SDR-100nit-REC709-D60-in-REC709-D65_2.0}

  - !<ViewTransform>
    name: ACES 2.0 - SDR 100 nits (P3 D65)
    description: |
      Component of ACES 2 Output Transforms for 100 nit SDR P3-D65

      ACEStransformID: urn:ampas:aces:transformId:v2.0:Output.Academy.P3-D65_48nit_in_P3-D65_Gamma2pt6.a2.v1

      AMF Components
      --------------
      ACEStransformID: urn:ampas:aces:transformId:v2.0:InvOutput.Academy.P3-D65_48nit_in_P3-D65_Gamma2pt6.a2.v1
    from_scene_reference: !<BuiltinTransform> {style: ACES-OUTPUT - ACES2065-1_to_CIE-XYZ-D65 - SDR-100nit-P3-D65_2.0}

  - !<ViewTransform>
    name: ACES 2.0 - SDR 100 nits (P3 D60 in P3 D65)
    description: |
      Component of ACES 2 Output Transforms for 100 nit SDR P3-D60 simulating D60 white in P3-D65

      ACEStransformID: urn:ampas:aces:transformId:v2.0:Output.Academy.P3-D60_48nit_in_P3-D65_Gamma2pt6.a2.v1

      AMF Components
      --------------
      ACEStransformID: urn:ampas:aces:transformId:v2.0:InvOutput.Academy.P3-D60_48nit_in_P3-D65_Gamma2pt6.a2.v1
    from_scene_reference: !<BuiltinTransform> {style: ACES-OUTPUT - ACES2065-1_to_CIE-XYZ-D65 - SDR-100nit-P3-D60-in-P3-D65_2.0}

  - !<ViewTransform>
    name: ACES 2.0 - HDR 1000 nits (P3 D65)
    description: |
      Component of ACES 2 Output Transforms for 1000 nit HDR P3-D65

      ACEStransformID: urn:ampas:aces:transformId:v2.0:Output.Academy.P3-D65_1000nit_in_P3-D65_ST2084.a2.v1

      AMF Components
      --------------
      ACEStransformID: urn:ampas:aces:transformId:v2.0:InvOutput.Academy.P3-D65_1000nit_in_P3-D65_ST2084.a2.v1
    from_scene_reference: !<BuiltinTransform> {style: ACES-OUTPUT - ACES2065-1_to_CIE-XYZ-D65 - HDR-1000nit-P3-D65_2.0}

  - !<ViewTransform>
    name: ACES 2.0 - HDR 1000 nits (P3 D60 in P3 D65)
    description: |
      Component of ACES 2 Output Transforms for 1000 nit HDR P3-D60 simulating D60 white in P3-D65

      ACEStransformID: urn:ampas:aces:transformId:v2.0:Output.Academy.P3-D60_1000nit_in_P3-D65_ST2084.a2.v1

      AMF Components
      --------------
      ACEStransformID: urn:ampas:aces:transformId:v2.0:InvOutput.Academy.P3-D60_1000nit_in_P3-D65_ST2084.a2.v1
    from_scene_reference: !<BuiltinTransform> {style: ACES-OUTPUT - ACES2065-1_to_CIE-XYZ-D65 - HDR-1000nit-P3-D60-in-P3-D65_2.0}

  - !<ViewTransform>
    name: ACES 2.0 - SDR 100 nits (Rec.709 D60 in P3 D65)
    description: |
      Component of ACES 2 Output Transforms for 100 nit SDR Rec709 simulating D60 white in P3-D65

      ACEStransformID: urn:ampas:aces:transformId:v2.0:Output.Academy.Rec709-D60_48nit_in_P3-D65_Gamma2pt6.a2.v1

      AMF Components
      --------------
      ACEStransformID: urn:ampas:aces:transformId:v2.0:InvOutput.Academy.Rec709-D60_48nit_in_P3-D65_Gamma2pt6.a2.v1
    from_scene_reference: !<BuiltinTransform> {style: ACES-OUTPUT - ACES2065-1_to_CIE-XYZ-D65 - SDR-100nit-REC709-D60-in-P3-D65_2.0}

  - !<ViewTransform>
    name: ACES 2.0 - HDR 1000 nits (P3 D60 in Rec.2020 D65)
    description: |
      Component of ACES 2 Output Transforms for 1000 nit HDR P3-D60 simulating D60 white in Rec2020

      ACEStransformID: urn:ampas:aces:transformId:v2.0:Output.Academy.P3-D60_1000nit_in_Rec2100-D65_ST2084.a2.v1

      AMF Components
      --------------
      ACEStransformID: urn:ampas:aces:transformId:v2.0:InvOutput.Academy.P3-D60_1000nit_in_Rec2100-D65_ST2084.a2.v1
    from_scene_reference: !<BuiltinTransform> {style: ACES-OUTPUT - ACES2065-1_to_CIE-XYZ-D65 - HDR-1000nit-P3-D60-in-REC2020-D65_2.0}

  - !<ViewTransform>
    name: ACES 2.0 - HDR 500 nits (P3 D65)
    description: |
      Component of ACES 2 Output Transforms for 500 nit HDR P3-D65

      ACEStransformID: urn:ampas:aces:transformId:v2.0:Output.Academy.P3-D65_500nit_in_P3-D65_ST2084.a2.v1

      AMF Components
      --------------
      ACEStransformID: urn:ampas:aces:transformId:v2.0:InvOutput.Academy.P3-D65_500nit_in_P3-D65_ST2084.a2.v1
    from_scene_reference: !<BuiltinTransform> {style: ACES-OUTPUT - ACES2065-1_to_CIE-XYZ-D65 - HDR-500nit-P3-D65_2.0}

  - !<ViewTransform>
    name: ACES 2.0 - HDR 2000 nits (P3 D65)
    description: |
      Component of ACES 2 Output Transforms for 2000 nit HDR P3-D65

      ACEStransformID: urn:ampas:aces:transformId:v2.0:Output.Academy.P3-D65_2000nit_in_P3-D65_ST2084.a2.v1

      AMF Components
      --------------
      ACEStransformID: urn:ampas:aces:transformId:v2.0:InvOutput.Academy.P3-D65_2000nit_in_P3-D65_ST2084.a2.v1
    from_scene_reference: !<BuiltinTransform> {style: ACES-OUTPUT - ACES2065-1_to_CIE-XYZ-D65 - HDR-2000nit-P3-D65_2.0}

  - !<ViewTransform>
    name: ACES 2.0 - HDR 4000 nits (P3 D65)
    description: |
      Component of ACES 2 Output Transforms for 4000 nit HDR P3-D65

      ACEStransformID: urn:ampas:aces:transformId:v2.0:Output.Academy.P3-D65_4000nit_in_P3-D65_ST2084.a2.v1

      AMF Components
      --------------
      ACEStransformID: urn:ampas:aces:transformId:v2.0:InvOutput.Academy.P3-D65_4000nit_in_P3-D65_ST2084.a2.v1
    from_scene_reference: !<BuiltinTransform> {style: ACES-OUTPUT - ACES2065-1_to_CIE-XYZ-D65 - HDR-4000nit-P3-D65_2.0}

  - !<ViewTransform>
    name: ACES 2.0 - HDR 500 nits (P3 D60 in Rec.2020 D65)
    description: |
      Component of ACES 2 Output Transforms for 500 nit HDR P3-D60 simulating D60 white in Rec2020

      ACEStransformID: urn:ampas:aces:transformId:v2.0:Output.Academy.P3-D60_500nit_in_Rec2100-D65_ST2084.a2.v1

      AMF Components
      --------------
      ACEStransformID: urn:ampas:aces:transformId:v2.0:InvOutput.Academy.P3-D60_500nit_in_Rec2100-D65_ST2084.a2.v1
    from_scene_reference: !<BuiltinTransform> {style: ACES-OUTPUT - ACES2065-1_to_CIE-XYZ-D65 - HDR-500nit-P3-D60-in-REC2020-D65_2.0}

  - !<ViewTransform>
    name: ACES 2.0 - HDR 2000 nits (P3 D60 in Rec.2020 D65)
    description: |
      Component of ACES 2 Output Transforms for 2000 nit HDR P3-D60 simulating D60 white in Rec2020

      ACEStransformID: urn:ampas:aces:transformId:v2.0:Output.Academy.P3-D60_2000nit_in_Rec2100-D65_ST2084.a2.v1

      AMF Components
      --------------
      ACEStransformID: urn:ampas:aces:transformId:v2.0:InvOutput.Academy.P3-D60_2000nit_in_Rec2100-D65_ST2084.a2.v1
    from_scene_reference: !<BuiltinTransform> {style: ACES-OUTPUT - ACES2065-1_to_CIE-XYZ-D65 - HDR-2000nit-P3-D60-in-REC2020-D65_2.0}

  - !<ViewTransform>
    name: ACES 2.0 - HDR 4000 nits (P3 D60 in Rec.2020 D65)
    description: |
      Component of ACES 2 Output Transforms for 4000 nit HDR P3-D60 simulating D60 white in Rec2020

      ACEStransformID: urn:ampas:aces:transformId:v2.0:Output.Academy.P3-D60_4000nit_in_Rec2100-D65_ST2084.a2.v1

      AMF Components
      --------------
      ACEStransformID: urn:ampas:aces:transformId:v2.0:InvOutput.Academy.P3-D60_4000nit_in_Rec2100-D65_ST2084.a2.v1
    from_scene_reference: !<BuiltinTransform> {style: ACES-OUTPUT - ACES2065-1_to_CIE-XYZ-D65 - HDR-4000nit-P3-D60-in-REC2020-D65_2.0}

  - !<ViewTransform>
    name: ACES 2.0 - HDR 500 nits (Rec.2020)
    description: |
      Component of ACES 2 Output Transforms for 500 nit HDR Rec2020

      ACEStransformID: urn:ampas:aces:transformId:v2.0:Output.Academy.Rec2100-D65_500nit_in_Rec2100-D65_ST2084.a2.v1

      AMF Components
      --------------
      ACEStransformID: urn:ampas:aces:transformId:v2.0:InvOutput.Academy.Rec2100-D65_500nit_in_Rec2100-D65_ST2084.a2.v1
    from_scene_reference: !<BuiltinTransform> {style: ACES-OUTPUT - ACES2065-1_to_CIE-XYZ-D65 - HDR-500nit-REC2020_2.0}

  - !<ViewTransform>
    name: ACES 2.0 - HDR 1000 nits (Rec.2020)
    description: |
      Component of ACES 2 Output Transforms for 1000 nit HDR Rec2020

      ACEStransformID: urn:ampas:aces:transformId:v2.0:Output.Academy.Rec2100-D65_1000nit_in_Rec2100-D65_ST2084.a2.v1

      AMF Components
      --------------
      ACEStransformID: urn:ampas:aces:transformId:v2.0:InvOutput.Academy.Rec2100-D65_1000nit_in_Rec2100-D65_ST2084.a2.v1
    from_scene_reference: !<BuiltinTransform> {style: ACES-OUTPUT - ACES2065-1_to_CIE-XYZ-D65 - HDR-1000nit-REC2020_2.0}

  - !<ViewTransform>
    name: ACES 2.0 - HDR 2000 nits (Rec.2020)
    description: |
      Component of ACES 2 Output Transforms for 2000 nit HDR Rec2020

      ACEStransformID: urn:ampas:aces:transformId:v2.0:Output.Academy.Rec2100-D65_2000nit_in_Rec2100-D65_ST2084.a2.v1

      AMF Components
      --------------
      ACEStransformID: urn:ampas:aces:transformId:v2.0:InvOutput.Academy.Rec2100-D65_2000nit_in_Rec2100-D65_ST2084.a2.v1
    from_scene_reference: !<BuiltinTransform> {style: ACES-OUTPUT - ACES2065-1_to_CIE-XYZ-D65 - HDR-2000nit-REC2020_2.0}

  - !<ViewTransform>
    name: ACES 2.0 - HDR 4000 nits (Rec.2020)
    description: |
      Component of ACES 2 Output Transforms for 4000 nit HDR Rec2020

      ACEStransformID: urn:ampas:aces:transformId:v2.0:Output.Academy.Rec2100-D65_4000nit_in_Rec2100-D65_ST2084.a2.v1

      AMF Components
      --------------
      ACEStransformID: urn:ampas:aces:transformId:v2.0:InvOutput.Academy.Rec2100-D65_4000nit_in_Rec2100-D65_ST2084.a2.v1
    from_scene_reference: !<BuiltinTransform> {style: ACES-OUTPUT - ACES2065-1_to_CIE-XYZ-D65 - HDR-4000nit-REC2020_2.0}

  - !<ViewTransform>
    name: ACES 2.0 - HDR 500 nits (Rec.2020 D60 in Rec.2020 D65)
    description: |
      Component of ACES 2 Output Transforms for 500 nit HDR Rec2020 simulating D60 white in Rec2020

      ACEStransformID: urn:ampas:aces:transformId:v2.0:Output.Academy.Rec2100-D60_500nit_in_Rec2100-D65_ST2084.a2.v1

      AMF Components
      --------------
      ACEStransformID: urn:ampas:aces:transformId:v2.0:InvOutput.Academy.Rec2100-D60_500nit_in_Rec2100-D65_ST2084.a2.v1
    from_scene_reference: !<BuiltinTransform> {style: ACES-OUTPUT - ACES2065-1_to_CIE-XYZ-D65 - HDR-500nit-REC2020-D60-in-REC2020-D65_2.0}

  - !<ViewTransform>
    name: ACES 2.0 - HDR 1000 nits (Rec.2020 D60 in Rec.2020 D65)
    description: |
      Component of ACES 2 Output Transforms for 1000 nit HDR Rec2020 simulating D60 white in Rec2020

      ACEStransformID: urn:ampas:aces:transformId:v2.0:Output.Academy.Rec2100-D60_1000nit_in_Rec2100-D65_ST2084.a2.v1

      AMF Components
      --------------
      ACEStransformID: urn:ampas:aces:transformId:v2.0:InvOutput.Academy.Rec2100-D60_1000nit_in_Rec2100-D65_ST2084.a2.v1
    from_scene_reference: !<BuiltinTransform> {style: ACES-OUTPUT - ACES2065-1_to_CIE-XYZ-D65 - HDR-1000nit-REC2020-D60-in-REC2020-D65_2.0}

  - !<ViewTransform>
    name: ACES 2.0 - HDR 2000 nits (Rec.2020 D60 in Rec.2020 D65)
    description: |
      Component of ACES 2 Output Transforms for 2000 nit HDR Rec2020 simulating D60 white in Rec2020

      ACEStransformID: urn:ampas:aces:transformId:v2.0:Output.Academy.Rec2100-D60_2000nit_in_Rec2100-D65_ST2084.a2.v1

      AMF Components
      --------------
      ACEStransformID: urn:ampas:aces:transformId:v2.0:InvOutput.Academy.Rec2100-D60_2000nit_in_Rec2100-D65_ST2084.a2.v1
    from_scene_reference: !<BuiltinTransform> {style: ACES-OUTPUT - ACES2065-1_to_CIE-XYZ-D65 - HDR-2000nit-REC2020-D60-in-REC2020-D65_2.0}

  - !<ViewTransform>
    name: ACES 2.0 - HDR 4000 nits (Rec.2020 D60 in Rec.2020 D65)
    description: |
      Component of ACES 2 Output Transforms for 4000 nit HDR Rec2020 simulating D60 white in Rec2020

      ACEStransformID: urn:ampas:aces:transformId:v2.0:Output.Academy.Rec2100-D60_4000nit_in_Rec2100-D65_ST2084.a2.v1

      AMF Components
      --------------
      ACEStransformID: urn:ampas:aces:transformId:v2.0:InvOutput.Academy.Rec2100-D60_4000nit_in_Rec2100-D65_ST2084.a2.v1
    from_scene_reference: !<BuiltinTransform> {style: ACES-OUTPUT - ACES2065-1_to_CIE-XYZ-D65 - HDR-4000nit-REC2020-D60-in-REC2020-D65_2.0}

  - !<ViewTransform>
    name: ACES 2.0 - SDR 100 nits (Rec.709 D60 in Rec.2020 D65)
    description: |
      Component of ACES 2 Output Transforms for 100 nit SDR Rec709 simulating D60 white in Rec2020

      ACEStransformID: urn:ampas:aces:transformId:v2.0:Output.Academy.Rec709-D60_100nit_in_P3-D65_ST2084.a2.v1

      AMF Components
      --------------
      ACEStransformID: urn:ampas:aces:transformId:v2.0:InvOutput.Academy.Rec709-D60_100nit_in_P3-D65_ST2084.a2.v1
