LUTs/2065_1_acesTrans_r709_bt1886_16.cube
TITLE "Generated by Resolve"
LUT_3D_SIZE 5
0 0 0
0.557046 0 0.0991684
0.778988 0 0.134356
0.909468 0 0.151446
0.997284 0.000167849 0.16878
0.000213626 0.458732 0.199817
0.505302 0.476036 0
0.735882 0.450797 0.000167849
0.883162 0.416846 0.000213626
0.989197 0.380697 0.000320439
0 0.61651 0.266697
0.377142 0.636179 0.000320439
0.660578 0.622415 0.000335698
0.813062 0.593454 0
0.924849 0.566369 0.000457771
0 0.703822 0.302434
0.115068 0.731624 0.000411994
0.569055 0.721813 0.000488289
0.746548 0.703487 0.000396735
0.863203 0.677424 0.000411994
0 0.762066 0.325658
0 0.779644 0.231312
0.467445 0.789364 0.000442512
0.672206 0.776104 0.000549325
0.804059 0.757763 0.00047303
0 0.106172 0.280385
0.539071 0 0.426932
0.757488 0.000381476 0.458015
0.886625 0 0.4654
0.977905 0.000457771 0.466453
0 0.450462 0.42884
0.44712 0.447105 0.44712
0.736278 0.409476 0.453559
0.908049 0.36228 0.45391
0.992813 0.343374 0.459648
0 0.60621 0.479759
0.204791 0.626368 0.441505
0.62501 0.599649 0.448936
0.797024 0.578622 0.460472
0.909331 0.562615 0.471565
0.000640879 0.695979 0.499046
0.099855 0.708705 0.47303
0.51931 0.708263 0.440833
0.721263 0.686885 0.449088
0.84741 0.668315 0.458351
0.000503548 0.755505 0.506981
0.000488289 0.761395 0.494774
0.402472 0.784421 0.43444
0.643565 0.764874 0.436164
0.784726 0.745373 0.444862
0 0.171435 0.451575
0.505913 0 0.569543
0.74165 0.000427253 0.587015
0.874907 0 0.58703
0.96788 0 0.583322
0 0.449516 0.528649
0.366842 0.427787 0.609995
0.708324 0.382528 0.607324
0.888441 0.329137 0.603571
0.983032 0.307042 0.593164
0 0.604349 0.575265
0.141772 0.609888 0.586236
0.58819 0.58819 0.58819
0.750881 0.577523 0.595941
0.872709 0.561547 0.598337
0 0.692973 0.590188
0 0.696437 0.588266
0.490501 0.694026 0.582025
0.689708 0.675013 0.596368
0.800748 0.665843 0.605249
0 0.752377 0.594751
0 0.75108 0.594141
0.336492 0.776532 0.566674
0.634363 0.744244 0.595682
0.754955 0.733104 0.600855
0.000366217 0.217075 0.57229
0.452934 0.000396735 0.6851
0.720439 0 0.690333
0.861845 0 0.681743
0.958022 0 0.672343
0 0.44828 0.606943
0.229206 0.403128 0.738857
0.674968 0.352468 0.724147
0.867979 0.289113 0.71487
0.974487 0.259541 0.694179
0 0.598398 0.642176
0.06421 0.595819 0.661387
0.558038 0.581521 0.66598
0.736553 0.565713 0.674876
0.862104 0.548211 0.676539
0.000244144 0.691142 0.657801
0 0.688502 0.65977
0.432517 0.689158 0.670924
0.668635 0.668635 0.668635
0.771725 0.664958 0.675471
0 0.75024 0.65922
0.000640879 0.74699 0.659739
0.271626 0.767437 0.659327
0.617273 0.736416 0.667323
0.735576 0.725948 0.67689
0 0.251453 0.664378
0.377066 0.000381476 0.786801
0.688884 0 0.776272
0.845716 0.00047303 0.763745
0.9467 0 0.748547
0 0.445548 0.673716
0.118853 0.404669 0.769055
0.635706 0.318135 0.822461
0.842039 0.247623 0.805768
0.96025 0.205051 0.779049
0 0.591272 0.695552
0 0.585 0.705058
0.516487 0.573037 0.743984
0.717906 0.554025 0.745953
0.851926 0.533028 0.745312
0 0.685756 0.709987
0 0.680476 0.709575
0.355184 0.683955 0.749233
0.652567 0.665263 0.713817
0.762966 0.658289 0.723232
0 0.748394 0.71223
0.000564584 0.745159 0.712856
0.220798 0.757656 0.728878
0.589868 0.733288 0.721614
0.721981 0.721981 0.721981
