LUTs/2065_1_acesTrans_r709_bt1886_16.cube
TITLE "Generated by Resolve"
LUT_3D_SIZE 33
0 0 0
0.120287 0 0.0210422
0.216175 0.000106813 0.038117
0.295766 0.000244144 0.0525368
0.363134 0.000106813 0.0647898
0.421164 0 0.075288
0.471885 0 0.0843519
0.516823 0.000320439 0.0922408
0.557046 0 0.0991684
0.593393 0.000320439 0.105303
0.62652 0.00047303 0.11078
0.656901 0 0.115709
0.684947 0 0.12015
0.710948 0.000503548 0.124193
0.73518 0.000411994 0.127886
0.757839 0 0.131273
0.778988 0 0.134356
0.798321 0 0.136995
0.816617 0.000289921 0.139467
0.833982 0 0.141772
0.850507 0 0.143938
0.866255 0.000488289 0.145983
0.881285 0 0.147906
0.895674 0.00077821 0.149722
0.909468 0 0.151446
0.922698 0.000289921 0.153079
0.935393 0 0.154635
0.947616 0 0.156115
0.959365 0.000564584 0.157549
0.970413 0.000549325 0.159258
0.980529 0 0.161563
0.989532 0 0.164691
0.997284 0.000167849 0.16878
0 0.107195 0.0467994
0.139773 0.131594 4.57771e-05
0.234394 0.143282 6.10361e-05
0.310857 0.1467 0.000122072
0.376394 0.144015 0.000122072
0.433875 0.136172 0
0.484916 0.123369 7.62951e-05
0.530816 0.104234 0.000106813
0.572519 0.0728161 0.000122072
0.608042 0.0349126 0.0415656
0.637308 0.0329137 0.0696117
0.664378 0 0.0861524
0.689494 0 0.0990463
0.712871 0.000503548 0.109926
0.734707 0.000534066 0.119387
0.755123 0.000427253 0.127855
0.775769 0 0.132723
0.79527 0 0.135424
0.813733 0.000701915 0.137957
0.831235 0.000488289 0.140322
0.847898 0.000671397 0.14255
0.863767 0 0.14464
0.87892 0 0.146609
0.893416 0 0.14847
0.907286 0.000503548 0.150225
0.920607 0.000366217 0.151888
0.933394 0.000656138 0.153475
0.945693 0 0.154986
0.957519 0 0.156435
0.968704 0 0.158099
0.978988 0.000854505 0.160311
0.98819 0.000381476 0.163333
0.996139 0 0.167285
9.15541e-05 0.189136 0.0825055
0.122316 0.207111 0.000122072
0.232563 0.218982 0.000106813
0.309239 0.225498 0.000106813
0.373297 0.228534 0.000137331
0.429099 0.228702 0.000137331
0.47863 0.22652 0.000122072
0.523293 0.222293 0.000213626
0.563806 0.216449 0.000106813
0.601038 0.208911 0.00015259
0.63537 0.199939 0
0.667185 0.189532 9.15541e-05
0.696971 0.177264 0.000183108
0.724865 0.163027 7.62951e-05
0.751049 0.14641 0
0.775647 0.125704 6.10361e-05
0.798703 0.0973678 0
0.820432 0.0471656 0
0.837613 0 0.0413214
0.852216 0 0.0683452
0.866041 0 0.0851148
0.879438 0.000411994 0.0974441
0.892622 0.000244144 0.10695
0.905196 0.000488289 0.115251
0.917189 0.000503548 0.122652
0.928679 0 0.129335
0.939681 0 0.135439
0.95021 0 0.141054
0.960266 0 0.146319
0.969711 0 0.151507
0.978469 0 0.15697
0.986801 0 0.161959
0.994949 0 0.165789
0.000122072 0.254948 0.111223
0.0403601 0.268284 0.000122072
0.219135 0.278126 0
0.301976 0.284398 0
0.366629 0.287495 7.62951e-05
0.42208 0.288853 0.000213626
0.471077 0.288609 0.00015259
0.515099 0.286946 0.00015259
0.555077 0.284077 0.000198367
0.591699 0.280156 0.000228885
0.625574 0.275257 0.000183108
0.656947 0.269642 0
0.686229 0.263264 0.000167849
0.713756 0.256107 6.10361e-05
0.739666 0.248249 0
0.76379 0.239658 0.000228885
0.786511 0.230259 0.000106813
0.808194 0.22005 0
0.828855 0.209033 0
0.848508 0.197223 0.000167849
0.867536 0.18378 0.000228885
0.885634 0.169207 0
0.902968 0.152804 0.000198367
0.919921 0.132464 0.000122072
0.936172 0.106935 0
0.951675 0.0691386 0.000274662
0.96614 0 9.15541e-05
0.975906 0 0.0335546
0.983673 0 0.069337
0.990448 0.000228885 0.0907607
0.99617 0.062562 0.108232
1 0.0883803 0.123674
1 0.106737 0.136873
0 0.309255 0.13492
0 0.316045 0.0984512
0.194003 0.327764 0.000198367
0.28864 0.333272 0.000183108
0.357244 0.336477 0.000183108
0.413291 0.337392 0.000122072
0.462318 0.337392 0
0.506172 0.336416 0.000167849
0.545937 0.334554 0.000167849
0.582345 0.331884 0.000244144
0.615915 0.328496 0.000213626
0.647074 0.324498 0.000198367
0.676112 0.319982 0.00015259
0.70338 0.314916 0.000259403
0.72903 0.309422 0.000167849
0.752941 0.303365 0
0.775494 0.29688 0.000335698
0.797055 0.289952 0.000137331
0.817517 0.282795 0.000122072
0.83714 0.275212 0
0.855909 0.267308 0.000183108
0.873991 0.258915 0.000350958
0.891157 0.250401 0.000244144
0.907988 0.24094 0.000167849
0.924071 0.231205 0
0.939406 0.221225 0.000198367
0.954559 0.209949 0.000106813
0.968582 0.199115 0.000244144
0.980941 0.190188 0.000244144
0.991226 0.184695 0.0205997
0.999359 0.183337 0.0612345
1 0.186069 0.0858015
1 0.191516 0.105959
0 0.355047 0.154879
0 0.357 0.139788
0.153323 0.370642 0.000183108
0.269398 0.375158 0.000274662
0.343938 0.378347 0.000122072
0.402991 0.379599 0.000244144
0.452552 0.379065 0.000183108
0.496559 0.378027 0.000137331
0.536339 0.376425 0.000289921
0.572686 0.374228 0.000320439
0.60618 0.371481 0.000274662
0.637232 0.368246 0.000213626
0.666194 0.364569 0.000228885
0.693324 0.360494 0.000228885
0.718822 0.356069 0
0.742657 0.351232 0.000122072
0.765164 0.346014 0.000289921
0.786572 0.340536 0
0.807034 0.334829 0
0.82652 0.328939 0.00015259
0.845151 0.322881 0.000198367
0.863157 0.316472 0.000259403
0.880278 0.310033 0.000259403
0.896986 0.303151 0.000198367
0.912917 0.296223 0.000335698
0.928344 0.289021 0.000183108
0.943358 0.281437 0.00030518
0.957626 0.273899 0.000183108
0.971008 0.266667 0.000320439
0.98291 0.2607 0.000198367
0.992721 0.257023 0.0125887
1 0.25626 0.0635386
1 0.257694 0.0892195
0 0.394339 0.171969
0.000183108 0.392538 0.169635
0.0662547 0.40827 0.000228885
0.244129 0.411994 0.000183108
0.326848 0.414603 0.000228885
0.389914 0.416388 0.000244144
0.441901 0.416266 0.000335698
0.486366 0.414725 0.000198367
0.526345 0.41294 0.000289921
0.562783 0.410803 0.000289921
0.596307 0.408286 0.000137331
0.627359 0.405402 0.000289921
0.656306 0.402167 0.000106813
0.683391 0.398611 0.000167849
0.708827 0.394781 0.000274662
0.732769 0.390585 0.000198367
0.755215 0.386099 0.000335698
0.776562 0.38143 9.15541e-05
0.796933 0.376562 0.000366217
0.816419 0.371527 0.000213626
0.835065 0.366339 0.000213626
0.852903 0.361044 0.000289921
0.870069 0.355596 0.000198367
0.886625 0.349966 0.000213626
0.902495 0.344274 0.00030518
0.917937 0.338338 0.00015259
0.932769 0.332341 0.000274662
0.947082 0.326238 0
0.961013 0.319905 0.00015259
0.973709 0.314275 0
0.984894 0.309712 0.000213626
0.994202 0.306752 0.0173495
1 0.305989 0.0666819
0 0.428565 0.186801
0.000274662 0.426459 0.185885
4.57771e-05 0.43917 0.098558
0.211261 0.444785 0.000137331
0.306386 0.446921 0.000183108
0.373922 0.448356 0.000244144
0.429175 0.44921 0.000350958
0.475624 0.448066 0
0.515999 0.445808 0.000106813
0.552651 0.443458 0.000259403
0.586297 0.440909 0.000198367
0.617426 0.438117 0.000183108
0.646403 0.435065 0.00015259
0.673503 0.431785 0.000228885
0.698985 0.42826 0.000228885
0.722972 0.424536 0.00015259
0.745495 0.420462 0.000228885
0.766842 0.416266 0.00030518
0.787228 0.411917 0.000106813
0.806668 0.407431 0
0.825254 0.402853 0.000213626
0.843122 0.398138 0.000228885
0.860304 0.393286 0.00015259
0.876783 0.388388 0.000244144
0.892622 0.383398 0
0.908019 0.378241 0.000259403
0.922728 0.373114 0
0.937163 0.367727 0.000320439
0.950957 0.362402 0.000198367
0.964309 0.356985 0
0.976532 0.352117 0.00015259
0.986984 0.348394 0.000366217
0.995712 0.345922 0.0268559
0.000213626 0.458732 0.199817
0 0.45687 0.199023
0 0.466011 0.144732
0.165972 0.47425 0.000244144
0.282216 0.47602 0.000381476
0.355795 0.47715 0.000137331
0.413886 0.477791 0
0.46334 0.477989 0.000289921
0.505302 0.476036 0
0.54229 0.473274 0.000183108
0.576135 0.470497 0.000259403
0.607401 0.467628 0.000183108
0.636484 0.464607 0.000244144
0.663661 0.461418 0.000350958
0.689174 0.458061 0.000198367
0.713237 0.454536 0.000183108
0.735882 0.450797 0.000167849
0.757305 0.446891 0.000289921
0.777722 0.442878 0.000274662
0.797223 0.438758 0.000213626
0.815839 0.434531 0.00030518
0.833707 0.430228 0.000167849
0.850828 0.425834 0.000167849
0.867277 0.421393 0.000122072
0.883162 0.416846 0.000213626
0.898512 0.412192 0
0.913237 0.407553 0.000198367
0.927596 0.402762 0
0.941375 0.397971 0
0.954849 0.393042 0.000320439
0.967529 0.388327 0.000274662
0.979263 0.383978 0.000366217
0.989197 0.380697 0.000320439
0 0.485588 0.211368
0 0.48394 0.210651
0 0.49012 0.17557
0.0827802 0.500954 0.000228885
0.253559 0.502403 0.000259403
0.335454 0.503288 0.000289921
0.397192 0.503731 0.000259403
0.448569 0.503807 0.00030518
0.493507 0.503548 0.000198367
0.531716 0.500938 0.000320439
0.565866 0.497795 0
0.597314 0.494697 0.00030518
0.626535 0.491585 0.00015259
0.653803 0.48838 0
0.679408 0.485069 0.000259403
0.703532 0.481651 0.000320439
0.726314 0.478111 0.000244144
0.747845 0.474403 0.000213626
0.768322 0.470603 0
0.787869 0.466728 0.000289921
0.806516 0.462791 0.000289921
0.824399 0.458778 0.00015259
0.841566 0.454673 0.000335698
0.858061 0.450523 0.000198367
0.873976 0.446281 0
0.889311 0.442008 0.000106813
0.904067 0.43769 0.000289921
0.918349 0.43331 0.000274662
0.932219 0.428855 0.000274662
0.945525 0.42443 0
0.958602 0.419852 0.000274662
0.97081 0.415534 0.000213626
0.981933 0.411658 0.000381476
0 0.509728 0.221683
0 0.508232 0.221057
0 0.511894 0.199649
0 0.523278 0.0873579
0.21854 0.526513 0.000244144
0.312627 0.527199 0.000350958
0.379004 0.527474 0.000259403
0.432883 0.527428 0.000244144
0.479179 0.527092 0.000350958
0.520424 0.526482 0.000320439
0.555459 0.523308 0.000106813
0.587167 0.51989 0.00030518
0.616556 0.516564 0.000381476
0.643977 0.513237 0.000213626
0.669688 0.509896 0.000228885
0.693904 0.506493 0
0.716762 0.503014 0.000320439
0.738415 0.499458 0.000335698
0.758984 0.495811 0.000411994
0.778622 0.492103 0
0.79736 0.488334 0.00030518
0.81532 0.484504 0.000320439
0.832532 0.480629 0
0.849073 0.476707 0.000274662
0.865003 0.472724 0.000289921
0.880339 0.468696 0.000274662
0.895125 0.464622 0.000213626
0.909361 0.460548 0
0.923278 0.456367 0
0.93666 0.452186 6.10361e-05
0.94963 0.447974 0
0.962234 0.443702 0.000259403
0.973999 0.439704 0
0.000167849 0.531579 0.230991
0 0.530221 0.230411
0 0.531685 0.219608
0 0.54255 0.140002
0.172442 0.548638 0.000289921
0.286824 0.549172 0.000381476
0.359243 0.549325 0.000335698
0.416114 0.549157 0.000198367
0.464225 0.548745 0.000274662
0.506493 0.548089 0.000244144
0.544671 0.547204 0.000320439
0.576944 0.543572 0.000350958
0.606577 0.53994 0.000244144
0.63415 0.536431 0
0.659983 0.532967 0
0.684306 0.529519 0.000320439
0.707256 0.52604 0.000442512
0.729015 0.522515 0.000411994
0.749706 0.518975 0.000244144
0.769436 0.515373 0.000442512
0.788266 0.511742 0.000427253
0.806287 0.50808 0.000289921
0.823575 0.504356 0.00030518
0.840177 0.500587 0.00030518
0.856153 0.496788 0.000244144
0.871534 0.492943 0.000167849
0.886366 0.489067 0.00030518
0.900664 0.485176 0.000366217
0.914519 0.481239 0
0.927977 0.477256 0
0.940932 0.473289 0.000198367
0.953552 0.469261 0.000427253
0.965743 0.465232 0.000427253
0 0.551492 0.239429
0.000244144 0.550256 0.238911
0 0.549615 0.236454
0.000183108 0.560128 0.172656
0.0938582 0.56907 0.000198367
0.257115 0.569467 0.000350958
0.337713 0.569512 0.000228885
0.398276 0.569253 0.000274662
0.448493 0.568765 0.000396735
0.492103 0.568063 0.000350958
0.53109 0.567178 0.000274662
0.566629 0.566049 0
0.596551 0.562051 0.000289921
0.624323 0.558267 0.000335698
0.650324 0.55462 0.000350958
0.674754 0.551049 0.000167849
0.69781 0.547494 0
0.719646 0.543954 0.000183108
0.740444 0.540444 0.000320439
0.760281 0.536919 0.00030518
0.779217 0.533379 0.000213626
0.79733 0.529824 0.00015259
0.814694 0.526207 0.000259403
0.831342 0.522591 0.000335698
0.847395 0.518914 0.000335698
0.862837 0.515221 0
0.877714 0.511498 0.000274662
0.892073 0.507759 0.000274662
0.905943 0.50399 0.000381476
0.919417 0.500191 0.000183108
0.932464 0.496361 0.000457771
0.945052 0.492546 0.000381476
0.957336 0.48867 0.000320439
0.000411994 0.569741 0.247135
0.000122072 0.568597 0.246647
0 0.567452 0.246174
0 0.576272 0.19736
0 0.586404 0.0672313
0.221653 0.588296 0.000198367
0.314076 0.588251 0.000335698
0.379248 0.58793 0.000228885
0.431983 0.587381 0.000320439
0.477195 0.586633 0.000350958
0.517205 0.585718 0.000198367
0.553429 0.584619 0.000259403
0.586465 0.583093 0.00030518
0.614511 0.578973 0.000366217
0.640681 0.575097 0
0.665248 0.571344 0.000122072
0.688426 0.567681 0.00030518
0.710353 0.56408 0.000274662
0.731182 0.560494 0.00030518
0.751141 0.557015 0.000228885
0.770199 0.553536 0.000350958
0.788418 0.550042 0.000320439
0.805859 0.546532 6.10361e-05
0.822629 0.542992 0.000259403
0.838727 0.539437 0.000320439
0.854231 0.535851 0.000259403
0.869184 0.53225 0.000381476
0.883604 0.528618 0.000183108
0.897536 0.524987 0.000350958
0.911009 0.521324 0.000350958
0.924086 0.517647 0.000289921
0.936767 0.513939 0.000198367
0.94902 0.510262 0.000244144
0 0.586542 0.254185
0 0.585489 0.253742
0 0.584421 0.2533
0 0.591165 0.217487
0 0.600946 0.131014
0.175982 0.605829 0.000320439
0.287785 0.605707 0.000335698
0.358907 0.605325 0.000183108
0.414649 0.60473 0.000427253
0.461677 0.603937 0.000289921
0.502937 0.602991 0.000411994
0.539971 0.601907 0.000320439
0.573846 0.600671 0.000198367
0.604669 0.598764 0.000228885
0.631052 0.594583 0.000320439
0.655787 0.590616 0.000427253
0.679088 0.586801 0.000442512
0.701137 0.583078 0.000244144
0.722042 0.579416 4.57771e-05
0.742016 0.57586 0.000198367
0.761212 0.572412 0
0.779538 0.568963 0.000122072
0.797101 0.565515 0.000427253
0.813931 0.562051 0
0.830137 0.558572 0.000427253
0.845716 0.555077 0.000350958
0.860716 0.551568 0.000183108
0.875212 0.548043 0.000320439
0.889204 0.544518 0.000335698
0.902739 0.540963 0
0.915831 0.537408 0.000442512
0.928557 0.533822 0.000289921
0.940887 0.530236 0.000381476
0.000427253 0.602075 0.260685
0 0.601099 0.260273
0.000350958 0.600122 0.259876
0.000228885 0.604944 0.234562
0 0.614389 0.165896
0.10164 0.622217 0
0.257939 0.622019 0
0.337011 0.621592 0.000427253
0.396399 0.620951 0.000411994
0.445563 0.620142 0.000228885
0.488212 0.619165 0.000320439
0.526238 0.618067 0.000274662
0.560754 0.616846 0.000244144
0.592584 0.615488 0.000228885
0.621439 0.613245 0.000350958
0.646372 0.609018 0.000427253
0.66981 0.60499 0.000366217
0.691966 0.601129 0.000335698
0.712993 0.59736 7.62951e-05
0.732982 0.593668 0.000259403
0.752224 0.590188 0.000183108
0.770687 0.58677 0.00030518
0.788357 0.583352 0.00015259
0.805295 0.57995 0.000366217
0.821561 0.576532 0.000289921
0.837247 0.573098 0
0.852338 0.569665 0.00030518
0.86688 0.566232 0.000350958
0.880949 0.562783 0.00030518
0.89456 0.559319 0.000213626
0.907713 0.555856 0
0.920439 0.552377 0.000228885
0.932815 0.548882 0.000289921
0 0.61651 0.266697
0 0.615595 0.266316
0.000381476 0.614679 0.265934
0 0.617731 0.249439
0 0.626856 0.191577
0 0.636408 0.0151217
0.222705 0.637324 0.000289921
0.313222 0.636851 0.000411994
0.377142 0.636179 0.000320439
0.428809 0.63534 0.000396735
0.473045 0.634363 7.62951e-05
0.512184 0.633249 0.000335698
0.547494 0.632013 0.000274662
0.579858 0.630686 0
0.609888 0.629221 0.000381476
0.636973 0.626673 0
0.660578 0.622415 0.000335698
0.682887 0.618372 0
0.704005 0.614466 0.000381476
0.724086 0.610666 0.000381476
0.743282 0.607019 0.000335698
0.761852 0.603601 0.000411994
0.779629 0.600198 0.000213626
0.796689 0.596826 0.000350958
0.813062 0.593454 0
0.828809 0.590082 0
0.844007 0.586709 0.000457771
0.858625 0.583337 0.000427253
0.872755 0.57995 0.000274662
0.886427 0.576562 0.000366217
0.899657 0.573175 0.000457771
0.912459 0.569772 0.000289921
0.924849 0.566369 0.000457771
0 0.629953 0.272267
0 0.629099 0.271916
0.000732433 0.628244 0.271565
0.000549325 0.629664 0.262608
0.000442512 0.638498 0.212222
0 0.647745 0.118807
0.17792 0.651713 0.000366217
0.286976 0.651194 9.15541e-05
0.356695 0.650507 0.000259403
0.411337 0.649653 0
0.457404 0.648661 0.000427253
0.497765 0.647532 0.000411994
0.533989 0.646296 0.000244144
0.566995 0.644968 0.000244144
0.597482 0.643534 0.000350958
0.62591 0.642008 0.000320439
0.651392 0.63917 0.000427253
0.673838 0.634913 0.000427253
0.695079 0.630838 0.000396735
0.715251 0.626917 0.000106813
0.734493 0.623117 0.000427253
0.753048 0.619562 0.000274662
0.770947 0.616175 0.000411994
0.788098 0.612818 0.000350958
0.804578 0.609461 0
0.820432 0.606134 0.000228885
0.835691 0.602792 0.000442512
0.850416 0.599466 0
0.864607 0.596155 0.000411994
0.878355 0.592828 0.000167849
0.891646 0.589502 0.000137331
0.904524 0.58616 0.000213626
0.916991 0.582834 0
0.000259403 0.642512 0.277455
0 0.641718 0.277119
0.000122072 0.640925 0.276799
0 0.640772 0.274174
0 0.649348 0.229603
0 0.65832 0.156863
0.107332 0.665278 0.000137331
0.257343 0.664744 0.000396735
0.334813 0.664012 0.000106813
0.393057 0.663142 0.000411994
0.441245 0.662135 0.000366217
0.482994 0.661021 0.000274662
0.520211 0.659785 0.000442512
0.553979 0.658457 0
0.58497 0.657038 0.000411994
0.613809 0.655543 0.000167849
0.640818 0.653941 0.000289921
0.664836 0.650843 0.00047303
0.686213 0.646586 0.000350958
0.706508 0.642512 0.000335698
0.725826 0.638575 0
0.744274 0.634775 0.000381476
0.76228 0.631357 0.000198367
0.779553 0.628 0.000259403
0.796139 0.624674 0.000396735
0.812085 0.621363 0
0.827436 0.618067 0.000289921
0.842237 0.614771 0.00030518
0.856519 0.61149 0.000350958
0.870329 0.608225 0
0.883696 0.604944 0
0.896635 0.601678 0.000320439
0.909163 0.598398 0.000396735
0 0.654307 0.282292
0 0.653559 0.281987
0 0.652811 0.281682
0.000656138 0.652064 0.281376
0 0.659525 0.244709
0 0.668223 0.183917
0 0.677409 0.000381476
0.222614 0.677531 0.000381476
0.311162 0.676783 0.000274662
0.373846 0.675914 0.000335698
0.424506 0.674891 0.000274662
0.467842 0.673762 0.000198367
0.506157 0.672526 0.000320439
0.540734 0.671214 0.000457771
0.572381 0.66981 0
0.601648 0.66833 0.000198367
0.629007 0.666758 0
0.654734 0.66511 0
0.677409 0.661784 0
0.697826 0.657526 0.000411994
0.71725 0.653452 0.000534066
0.735775 0.649531 0.000366217
0.753643 0.645853 0.000396735
0.771023 0.642481 0.000366217
0.787732 0.639155 0.000274662
0.803769 0.635859 0.000457771
0.819211 0.632578 0.000350958
0.834104 0.629328 0.000488289
0.848478 0.626078 0.000274662
0.862348 0.622843 0
0.875792 0.619608 0.000396735
0.888792 0.616388 0.00030518
0.901381 0.613169 0.000289921
0.000183108 0.66537 0.286824
0.00047303 0.664668 0.286549
0 0.663966 0.286259
0 0.663264 0.285969
0 0.669093 0.257923
0 0.677516 0.205341
0 0.686442 0.103929
0.178897 0.689647 0.000366217
0.285191 0.688884 0.000274662
0.353521 0.687999 0.000427253
0.407095 0.686976 0.000411994
0.452262 0.685847 0.000381476
0.491814 0.684627 0.000381476
0.527276 0.683299 0
0.559625 0.68191 0.000427253
0.58941 0.680446 0.000335698
0.617151 0.678904 0.000167849
0.643183 0.677287 0.000381476
0.667765 0.675608 0.000381476
0.689204 0.672053 0
0.708736 0.667811 0.000198367
0.727352 0.663752 0.000213626
0.745159 0.659831 0.000183108
0.762539 0.656321 0.00015259
0.779339 0.652995 0.000381476
0.795483 0.649699 0.000350958
0.811017 0.646433 0.000213626
0.826001 0.643198 0.000274662
0.840467 0.639979 0.000381476
0.854414 0.636774 0
0.867933 0.63357 0.000335698
0.880995 0.630396 0.000350958
0.893645 0.627222 0.000396735
0.000747692 0.675807 0.291081
0 0.675151 0.290822
0 0.674479 0.290547
0.000534066 0.673823 0.290272
0 0.678096 0.26981
0 0.68629 0.223133
0 0.694942 0.146456
0.111666 0.701152 0.000366217
0.255985 0.700374 0.000411994
0.331853 0.699474 0.000457771
0.388968 0.698451 0.000289921
0.43621 0.697322 0.000396735
0.47715 0.696101 0.000503548
0.513603 0.694789 0.00015259
0.546685 0.693401 0.000228885
0.577081 0.691951 0.000137331
0.605249 0.690425 0.00030518
0.631617 0.688853 0.000396735
0.656458 0.68719 0
0.679973 0.685481 0.000213626
0.700282 0.681712 0.000381476
0.719005 0.677501 0.000350958
0.736889 0.673457 0.000289921
0.754055 0.669596 0.000350958
0.770977 0.666239 0.000427253
0.787228 0.662943 0.000411994
0.802869 0.659678 0.000457771
0.817945 0.656443 0.000396735
0.832486 0.653239 0.000381476
0.846525 0.650065 0.000167849
0.860105 0.646891 0.000335698
0.873259 0.643748 0.000381476
0.885985 0.640604 0.00047303
0 0.685664 0.295094
0 0.685039 0.294835
0 0.684413 0.294591
0 0.683787 0.294331
0 0.686595 0.280476
0 0.694545 0.238544
0 0.702953 0.175051
0 0.711879 0.00030518
0.221897 0.711299 0.000381476
0.308492 0.710384 0.000350958
0.36994 0.709361 0.000442512
0.419623 0.708232 0.00015259
0.462135 0.707012 0.000274662
0.499687 0.705715 0.000411994
0.533578 0.704341 0.00047303
0.564599 0.702892 0.000350958
0.593286 0.701381 0.000366217
0.62002 0.69984 0.000396735
0.645167 0.698207 0.000259403
0.668925 0.696529 0.000183108
0.691478 0.694789 0.000503548
0.710719 0.690822 0.000411994
0.728695 0.686641 0.00047303
0.745907 0.682628 0.000350958
0.762646 0.678965 0.000244144
0.779004 0.675639 0.000366217
0.794751 0.672374 0.00030518
0.809918 0.669154 0.000366217
0.824552 0.665949 0.000518807
0.838682 0.662791 0.000289921
0.852323 0.659648 0.000442512
0.865553 0.656519 0.00047303
0.878355 0.653407 0.000320439
0 0.694987 0.298863
0 0.694392 0.298634
0.000595102 0.693797 0.29839
0 0.693202 0.298146
0.000503548 0.694621 0.290242
0 0.702373 0.251972
0 0.710536 0.197345
0 0.719203 0.0846876
0.179263 0.721691 0.000503548
0.282902 0.720775 0.000396735
0.349874 0.719753 0.000488289
0.402426 0.718624 0.00030518
0.446723 0.717418 0.000396735
0.485512 0.716121 4.57771e-05
0.520287 0.714763 0.000488289
0.551995 0.713329 0.000183108
0.581216 0.711833 0.000503548
0.608392 0.710292 0.000320439
0.63386 0.708705 0.000366217
0.657877 0.707042 0.000259403
0.680644 0.705333 0.000442512
0.702312 0.703578 0.000488289
0.720577 0.699428 0.000320439
0.737865 0.695293 0.000427253
0.754437 0.691295 0
0.770809 0.687846 0.000457771
0.786664 0.684581 0.000457771
0.801923 0.681346 0.000366217
0.816648 0.678157 0.000381476
0.830854 0.674998 0
0.844587 0.671855 0.000213626
0.857893 0.668757 0.000411994
0.870756 0.66566 0.000366217
0 0.703822 0.302434
0 0.703273 0.302205
0 0.702708 0.301976
0 0.702144 0.301747
0.000366217 0.702251 0.298985
0 0.709773 0.264042
0 0.717708 0.215808
0 0.726131 0.134463
0.115068 0.731624 0.000411994
0.254185 0.730694 7.62951e-05
0.328496 0.729671 0.000320439
0.384512 0.728542 0.000274662
0.430869 0.727337 0.000335698
0.471031 0.726055 0.00030518
0.506798 0.724697 0
0.539239 0.723278 0.000350958
0.569055 0.721813 0.000488289
0.596704 0.720272 0.000183108
0.622522 0.7187 0.000381476
0.64683 0.717083 0.000396735
0.669841 0.715404 0.00047303
0.691691 0.71368 0.000549325
0.712505 0.711879 0
0.7299 0.707591 0.000411994
0.746548 0.703487 0.000396735
0.762631 0.699611 0.000274662
0.778592 0.696315 0.000381476
0.793957 0.693065 0.00047303
0.808774 0.689876 0.000335698
0.823072 0.686717 0.000411994
0.836896 0.683589 0.000503548
0.850263 0.680507 0.000350958
0.863203 0.677424 0.000411994
0 0.71223 0.305806
0 0.711696 0.305592
0 0.711162 0.305379
0.000335698 0.710613 0.305165
0.00047303 0.710079 0.304936
0 0.716808 0.27483
0 0.724529 0.231495
0 0.732692 0.165362
0 0.741161 0.000381476
0.220829 0.740169 0
0.305501 0.739132 0.000411994
0.365759 0.738018 0.000320439
0.414496 0.736828 0.000534066
0.45623 0.735546 0.000381476
0.49308 0.734203 0.000518807
0.526329 0.732799 0.000411994
0.556771 0.731334 0.000381476
0.584909 0.729824 0.000488289
0.61117 0.728267 0.000457771
0.635782 0.726665 0.000411994
0.659037 0.725017 0.000427253
0.681117 0.723323 0.000534066
0.702144 0.721584 0.000228885
0.721996 0.71957 0
0.738735 0.715328 0.000350958
0.754788 0.711254 0.000427253
0.77055 0.707622 0.000320439
0.786023 0.704372 0.000411994
0.800931 0.701167 0.000274662
0.81532 0.698009 0.000411994
0.829221 0.694896 0
0.84268 0.691798 0.000411994
0.85568 0.688746 0.00047303
0 0.720211 0.308995
0.00047303 0.719707 0.308797
0 0.719188 0.308598
0.000442512 0.718685 0.308385
0 0.718166 0.308186
0 0.723461 0.284718
0 0.730983 0.245335
0 0.738949 0.188739
9.15541e-05 0.7476 0.0563668
0.1794 0.749432 0.000411994
0.280385 0.748348 0.000427253
0.346029 0.747143 0.00030518
0.397559 0.745892 0.000442512
0.441032 0.744625 0.000366217
0.479118 0.743297 0.000259403
0.513252 0.741909 0.000320439
0.544366 0.740459 0.00030518
0.573053 0.738964 0.000564584
0.599741 0.737423 0
0.624735 0.735836 0.000427253
0.648264 0.734218 0.000503548
0.670558 0.732555 0.000198367
0.691783 0.730846 4.57771e-05
0.712032 0.729091 0.00047303
