LUTs/2065_1_acesTrans_r709_bt1886_16.cube
TITLE "Generated by Resolve"
LUT_3D_SIZE 9
0 0 0
0.363134 0.000106813 0.0647898
0.557046 0 0.0991684
0.684947 0 0.12015
0.778988 0 0.134356
0.850507 0 0.143938
0.909468 0 0.151446
0.959365 0.000564584 0.157549
0.997284 0.000167849 0.16878
0 0.309255 0.13492
0.357244 0.336477 0.000183108
0.545937 0.334554 0.000167849
0.676112 0.319982 0.00015259
0.775494 0.29688 0.000335698
0.855909 0.267308 0.000183108
0.924071 0.231205 0
0.980941 0.190188 0.000244144
1 0.191516 0.105959
0.000213626 0.458732 0.199817
0.282216 0.47602 0.000381476
0.505302 0.476036 0
0.636484 0.464607 0.000244144
0.735882 0.450797 0.000167849
0.815839 0.434531 0.00030518
0.883162 0.416846 0.000213626
0.941375 0.397971 0
0.989197 0.380697 0.000320439
0 0.551492 0.239429
0.0938582 0.56907 0.000198367
0.448493 0.568765 0.000396735
0.596551 0.562051 0.000289921
0.69781 0.547494 0
0.779217 0.533379 0.000213626
0.847395 0.518914 0.000335698
0.905943 0.50399 0.000381476
0.957336 0.48867 0.000320439
0 0.61651 0.266697
0 0.626856 0.191577
0.377142 0.636179 0.000320439
0.547494 0.632013 0.000274662
0.660578 0.622415 0.000335698
0.743282 0.607019 0.000335698
0.813062 0.593454 0
0.872755 0.57995 0.000274662
0.924849 0.566369 0.000457771
0.000183108 0.66537 0.286824
0 0.669093 0.257923
0.285191 0.688884 0.000274662
0.491814 0.684627 0.000381476
0.617151 0.678904 0.000167849
0.708736 0.667811 0.000198367
0.779339 0.652995 0.000381476
0.840467 0.639979 0.000381476
0.893645 0.627222 0.000396735
0 0.703822 0.302434
0.000366217 0.702251 0.298985
0.115068 0.731624 0.000411994
0.430869 0.727337 0.000335698
0.569055 0.721813 0.000488289
0.669841 0.715404 0.00047303
0.746548 0.703487 0.000396735
0.808774 0.689876 0.000335698
0.863203 0.677424 0.000411994
0 0.735073 0.314931
7.62951e-05 0.733211 0.314183
0 0.759106 0.155093
0.361761 0.763409 0
0.519219 0.757687 0.000396735
0.626673 0.751476 0
0.711452 0.744793 0.000289921
0.777584 0.732769 0.000289921
0.833371 0.720287 0.000381476
0 0.762066 0.325658
0 0.760403 0.324987
0 0.779644 0.231312
0.275837 0.794812 0.000259403
0.467445 0.789364 0.000442512
0.583734 0.783047 0.000518807
0.672206 0.776104 0.000549325
0.745312 0.769039 0.000335698
0.804059 0.757763 0.00047303
0.000122072 0.0608225 0.161181
0.359594 0 0.284825
0.547951 0 0.331991
0.672877 0.00030518 0.354849
0.76495 0.000213626 0.366979
0.835584 0 0.372839
0.893935 0 0.376181
0.943465 0 0.37792
0.984649 0.000762951 0.379141
0 0.307958 0.293187
0.31664 0.31664 0.31664
0.574166 0.273213 0.319707
0.720378 0.222858 0.323751
0.816007 0.183642 0.332433
0.884291 0.154467 0.34165
0.937819 0.126497 0.34931
0.97789 0.113909 0.356817
1 0.145556 0.366613
0 0.449973 0.356359
0.12575 0.470695 0.327001
0.48275 0.457267 0.307698
0.649393 0.434897 0.315694
0.761028 0.41503 0.324147
0.84654 0.396857 0.331716
0.920455 0.375525 0.334356
0.973251 0.359609 0.340917
0.998657 0.359533 0.356115
0 0.542718 0.389822
0.0634012 0.552895 0.368322
0.373526 0.56379 0.296284
0.58053 0.545083 0.303716
0.706371 0.527733 0.311574
0.80029 0.511406 0.317586
0.875196 0.496162 0.323629
0.937652 0.481804 0.329152
0.97879 0.473426 0.343771
0 0.608957 0.409735
0 0.612131 0.398383
0.24065 0.637339 0.300465
0.50544 0.624491 0.290394
0.649439 0.608209 0.298253
0.751156 0.593072 0.305638
0.831556 0.578683 0.310658
0.898054 0.564935 0.315297
0.952071 0.55256 0.32282
0 0.659068 0.422477
0 0.657343 0.420569
0.176516 0.682643 0.341955
0.419913 0.686549 0.278538
0.589395 0.671382 0.283482
0.701823 0.656626 0.290944
0.787594 0.642771 0.29752
0.857801 0.629557 0.302205
0.917342 0.616831 0.306127
0 0.698589 0.431006
0.000518807 0.696269 0.431205
0.128908 0.717174 0.372686
0.313863 0.737011 0.268284
0.525292 0.722866 0.271809
0.65066 0.708827 0.277165
0.743358 0.695262 0.283116
0.8177 0.682338 0.288289
0.880186 0.669947 0.292317
0.000549325 0.730663 0.436927
0.000823987 0.728771 0.437247
0.0771496 0.744793 0.395483
0.240833 0.769192 0.300816
0.45623 0.765698 0.262776
0.597803 0.752422 0.267094
0.698146 0.739483 0.272251
0.777005 0.726879 0.276844
0.842496 0.714763 0.280659
0 0.757916 0.441428
0 0.756222 0.441794
0 0.768277 0.413352
0.199405 0.792264 0.336583
0.377997 0.80209 0.254826
0.543297 0.789456 0.259052
0.652384 0.777127 0.263188
0.736309 0.765103 0.26775
0.804913 0.753307 0.271382
0 0.106172 0.280385
0.342779 0.000244144 0.385809
0.539071 0 0.426932
0.665263 0.000411994 0.447303
0.757488 0.000381476 0.458015
0.828336 0 0.462898
0.886625 0 0.4654
0.935988 0.000579843 0.466392
0.977905 0.000457771 0.466453
0.000427253 0.313878 0.369116
0.23798 0.295781 0.464744
0.544625 0.250767 0.460182
0.696498 0.200458 0.458686
0.793149 0.166629 0.458427
0.86331 0.138293 0.459403
0.918257 0.108659 0.460548
0.962554 0.0741283 0.461463
0.993072 0.0894789 0.46273
0 0.450462 0.42884
0.0868696 0.458045 0.44007
0.44712 0.447105 0.44712
0.617761 0.429435 0.45127
0.736278 0.409476 0.453559
0.829816 0.387213 0.454353
0.908049 0.36228 0.45391
0.965164 0.343343 0.454795
0.992813 0.343374 0.459648
0.00047303 0.540658 0.460746
0 0.543236 0.458824
0.330037 0.554467 0.438544
0.553033 0.536248 0.447333
0.67483 0.523629 0.454261
0.760769 0.514366 0.462577
0.831128 0.505531 0.468086
0.89781 0.492256 0.467506
0.956817 0.477623 0.466056
0 0.60621 0.479759
0 0.60415 0.478386
0.204791 0.626368 0.441505
0.486686 0.612039 0.443976
0.62501 0.599649 0.448936
0.721523 0.58854 0.455436
0.797024 0.578622 0.460472
0.857908 0.570138 0.46627
0.909331 0.562615 0.471565
0 0.656291 0.491569
0 0.653407 0.491417
0.148348 0.672953 0.45832
0.41912 0.669886 0.443534
0.572564 0.659861 0.442817
0.678828 0.648157 0.449622
0.758633 0.637964 0.456153
0.824445 0.62855 0.459693
0.879606 0.619852 0.463615
0.000640879 0.695979 0.499046
0.00030518 0.693645 0.499107
0.099855 0.708705 0.47303
0.314839 0.722545 0.430869
0.51931 0.708263 0.440833
0.634852 0.697704 0.442374
0.721263 0.686885 0.449088
0.789593 0.677256 0.455055
0.84741 0.668315 0.458351
0 0.728313 0.503822
0 0.72639 0.504021
0 0.737346 0.484916
0.241062 0.757183 0.439506
0.463935 0.749004 0.438239
0.589899 0.739162 0.438499
0.682826 0.728801 0.441428
0.75584 0.718685 0.44744
0.815763 0.709484 0.452613
0.000503548 0.755505 0.506981
0 0.753796 0.50721
0.000488289 0.761395 0.494774
0.193179 0.782483 0.453254
0.402472 0.784421 0.43444
0.54432 0.774716 0.435019
0.643565 0.764874 0.436164
0.721355 0.75491 0.439673
0.784726 0.745373 0.444862
7.62951e-05 0.142077 0.374502
0.311284 0 0.469963
0.52578 0.000213626 0.503761
0.656138 0 0.519493
0.750088 0 0.527398
0.821942 0 0.530404
0.88072 0.000656138 0.531472
0.930922 0.000564584 0.531456
0.972671 0.000350958 0.530312
0 0.319005 0.431769
0.133837 0.281865 0.545098
0.512398 0.225162 0.557458
0.671305 0.179232 0.549874
0.771237 0.150759 0.543053
0.844251 0.121447 0.539025
0.901045 0.0873274 0.536156
0.947127 0.000259403 0.533745
0.983078 0 0.53135
0 0.450187 0.483101
0.0307164 0.449409 0.499138
0.411856 0.43827 0.533486
0.599405 0.417548 0.537179
0.722576 0.396582 0.537545
0.81828 0.37322 0.537408
0.897887 0.346761 0.536431
0.957961 0.325322 0.53463
0.987671 0.326177 0.533059
0 0.540429 0.514458
0.000640879 0.537575 0.515206
0.263935 0.547967 0.530266
0.529381 0.529381 0.529381
0.649088 0.520745 0.534157
0.742626 0.51017 0.53695
0.820661 0.497963 0.538216
0.888121 0.484245 0.538247
0.947814 0.469108 0.53727
0 0.604913 0.531807
0 0.601267 0.531304
0.171618 0.617212 0.52636
0.463096 0.605066 0.525475
0.604852 0.592966 0.532845
0.696559 0.585458 0.538994
0.763668 0.580926 0.546715
0.823224 0.575448 0.550439
0.880186 0.567117 0.550378
0 0.654627 0.542504
0 0.651759 0.542321
0.12015 0.665095 0.531914
0.374746 0.667613 0.517952
0.560449 0.649607 0.532189
0.66041 0.641459 0.535943
0.73608 0.634134 0.541421
0.797345 0.627832 0.545968
0.847257 0.622858 0.551476
0.000457771 0.694255 0.549081
0 0.69192 0.549111
0.0595865 0.701946 0.538964
0.272175 0.716762 0.513268
0.518898 0.694896 0.533272
0.622324 0.688579 0.531991
0.703761 0.68011 0.538079
0.767559 0.67306 0.543847
0.822065 0.666636 0.54667
0.000411994 0.726635 0.553017
0 0.724712 0.55317
0 0.731411 0.545373
0.213291 0.749493 0.518868
0.458442 0.738949 0.523247
0.585809 0.727138 0.532845
0.670695 0.719951 0.53286
0.738888 0.711849 0.539178
0.794263 0.704967 0.544732
0 0.753689 0.5552
0 0.752041 0.555428
0 0.755703 0.550835
0.16965 0.775097 0.525933
0.380468 0.7785 0.511666
0.550713 0.760174 0.533135
0.63769 0.75378 0.531701
0.709392 0.746166 0.533562
0.768109 0.738476 0.539391
0 0.171435 0.451575
0.262592 0.000228885 0.544778
0.505913 0 0.569543
0.644755 0 0.582345
0.74165 0.000427253 0.587015
0.815213 0.000274662 0.587732
0.874907 0 0.58703
0.925002 0 0.585473
0.96788 0 0.583322
0 0.322301 0.486992
0.0750286 0.2925 0.560265
0.477745 0.195865 0.633814
0.646922 0.155184 0.62031
0.751247 0.131807 0.60853
0.826795 0.101915 0.6009
0.885542 0.0550546 0.595193
0.932937 0 0.590402
0.971801 0.00062562 0.586007
0 0.449516 0.528649
0.000366217 0.444312 0.535454
0.366842 0.427787 0.609995
0.577783 0.405631 0.609094
0.708324 0.382528 0.607324
0.807157 0.357534 0.605539
0.888441 0.329137 0.603571
0.951232 0.304875 0.599863
0.983032 0.307042 0.593164
0.000457771 0.538842 0.55787
0 0.533761 0.556573
0.209308 0.539452 0.59884
0.508644 0.524437 0.585077
0.636744 0.513176 0.591592
0.73312 0.501961 0.59353
0.812345 0.489326 0.594629
0.880568 0.47512 0.594751
0.940826 0.459419 0.593942
0 0.604349 0.575265
0 0.600748 0.574807
0.141772 0.609888 0.586236
0.430869 0.600748 0.5879
0.58819 0.58819 0.58819
0.676722 0.583612 0.592874
0.750881 0.577523 0.595941
0.815351 0.570123 0.597696
0.872709 0.561547 0.598337
0.000717174 0.653544 0.584604
0.000122072 0.650706 0.584451
0.0879377 0.658839 0.585595
0.323415 0.664576 0.581552
0.544335 0.644678 0.586679
0.645411 0.63653 0.592721
0.716716 0.6318 0.598169
0.770108 0.629602 0.605173
0.820325 0.626108 0.608164
0 0.692973 0.590188
0 0.690654 0.590219
0 0.696437 0.588266
0.238911 0.710018 0.577737
0.490501 0.694026 0.582025
0.613626 0.680522 0.593301
0.689708 0.675013 0.596368
0.750408 0.669993 0.601068
0.800748 0.665843 0.605249
0 0.725322 0.593301
0 0.7234 0.593454
0 0.726497 0.591394
0.187976 0.74255 0.578378
0.422858 0.737896 0.574899
0.584863 0.716899 0.594949
0.66096 0.712902 0.593606
0.725399 0.7066 0.599054
0.777401 0.701579 0.604135
0 0.752377 0.594751
0 0.750759 0.594995
0 0.75108 0.594141
0.145785 0.768566 0.580713
0.336492 0.776532 0.566674
0.543847 0.753353 0.587823
0.634363 0.744244 0.595682
0.699794 0.73933 0.594965
0.754955 0.733104 0.600855
0 0.196033 0.516472
0.180453 0.000183108 0.612512
0.481666 0 0.629358
0.630579 0.000503548 0.638987
0.731823 0.000335698 0.640742
0.80766 0 0.639048
0.868696 0 0.636454
0.9196 0.000717174 0.633356
0.963073 0 0.629953
0 0.323735 0.536751
0.000122072 0.305272 0.56434
0.440085 0.161776 0.696834
0.621729 0.129244 0.677012
0.73257 0.107042 0.663081
0.810742 0.0738689 0.652461
0.871321 0 0.644495
0.920043 0.000457771 0.637797
0.960296 0.000549325 0.631846
0 0.449027 0.569558
0.000381476 0.442481 0.568048
0.308217 0.415595 0.679347
0.553704 0.39295 0.672358
0.692409 0.36791 0.668696
0.795224 0.340734 0.665324
0.878721 0.309743 0.662165
0.944015 0.282185 0.656855
0.978744 0.285145 0.645945
0 0.535561 0.593942
0 0.530663 0.592844
0.166552 0.531502 0.64622
0.483482 0.518837 0.638544
0.621347 0.506249 0.64332
0.723201 0.493187 0.644388
0.804669 0.479728 0.644465
0.873991 0.464927 0.644038
0.934905 0.448569 0.642985
0.000732433 0.602884 0.612253
0 0.598932 0.611475
0.108858 0.602823 0.629587
0.395056 0.596139 0.64271
0.574411 0.585031 0.627176
0.667872 0.578347 0.634089
0.743954 0.571756 0.636637
0.80914 0.564095 0.638422
0.866941 0.555245 0.639307
0 0.652811 0.621363
0 0.649989 0.621241
0.0280003 0.654032 0.62742
0.278248 0.659495 0.636759
0.523842 0.64152 0.631922
0.633036 0.633036 0.633036
0.701244 0.630518 0.637354
0.760922 0.626841 0.640421
0.814328 0.622126 0.642435
0 0.691966 0.625849
0.00047303 0.689662 0.62591
0 0.692027 0.627451
0.210651 0.703578 0.629175
0.461921 0.69192 0.628244
0.601602 0.676982 0.632746
0.678218 0.67129 0.637751
0.735195 0.668193 0.642603
0.778485 0.667262 0.648875
0.000488289 0.724208 0.628122
0.000701915 0.722301 0.62829
0 0.722408 0.628473
0.163714 0.736477 0.625757
0.383703 0.736309 0.622019
0.564279 0.716655 0.629923
0.654322 0.706523 0.638926
0.714443 0.702678 0.64152
0.764141 0.699123 0.645609
0.000335698 0.751263 0.62887
0.000381476 0.749645 0.629114
0 0.747997 0.629343
0.119814 0.762798 0.624582
0.301167 0.772381 0.61622
0.519997 0.75288 0.62501
0.633097 0.736339 0.640803
0.692012 0.733822 0.639521
0.74432 0.729015 0.644404
0.000366217 0.217075 0.57229
0.000274662 0.150805 0.634806
0.452934 0.000396735 0.6851
0.611811 0 0.689097
0.720439 0 0.690333
0.7991 0.000518807 0.686259
0.861845 0 0.681743
0.913802 0.000350958 0.677043
0.958022 0 0.672343
0.000442512 0.323522 0.58233
0 0.312627 0.581094
0.398611 0.125811 0.74815
0.596094 0.09897 0.724376
0.714122 0.0772259 0.70985
0.795666 0.000503548 0.697353
0.858015 0 0.687404
0.90808 0 0.679103
0.951247 0 0.672923
0 0.44828 0.606943
0 0.44184 0.605768
0.229206 0.403128 0.738857
0.527001 0.379217 0.729763
0.674968 0.352468 0.724147
0.782223 0.322805 0.719371
0.867979 0.289113 0.71487
0.934493 0.259907 0.707576
0.974487 0.259541 0.694179
0 0.532937 0.626841
0 0.528161 0.625971
0.128603 0.525185 0.678981
0.453071 0.512306 0.690776
0.604395 0.499016 0.691173
0.711696 0.484428 0.691432
0.796338 0.469718 0.69044
0.867338 0.454017 0.689158
0.929213 0.436866 0.687526
0 0.598398 0.642176
0 0.594553 0.641535
0.06421 0.595819 0.661387
0.348775 0.591653 0.693828
0.558038 0.581521 0.66598
0.656245 0.573922 0.67248
0.736553 0.565713 0.674876
0.80351 0.557427 0.675975
0.862104 0.548211 0.676539
0 0.651957 0.654139
0 0.648737 0.653651
0 0.649104 0.659998
0.240696 0.653529 0.682185
0.50312 0.638071 0.672786
0.623148 0.630838 0.661952
0.694591 0.626627 0.668498
0.755688 0.622538 0.671183
0.809567 0.617655 0.673243
0.000244144 0.691142 0.657801
0 0.688853 0.657893
0 0.688502 0.65977
0.184451 0.697917 0.671122
0.432517 0.689158 0.670924
0.587167 0.674525 0.667124
0.668635 0.668635 0.668635
0.722896 0.667247 0.672541
0.771725 0.664958 0.675471
0 0.723247 0.65919
0 0.72134 0.659388
0.000732433 0.719417 0.659571
0.138628 0.731212 0.664729
0.341009 0.734066 0.665507
0.544747 0.715099 0.66508
0.644907 0.703899 0.668971
0.705364 0.699794 0.673213
0.751934 0.697704 0.677501
0 0.75024 0.65922
0.000137331 0.748623 0.65948
0.000640879 0.74699 0.659739
0.0880598 0.757687 0.660945
0.271626 0.767437 0.659327
0.495613 0.751781 0.660822
0.617273 0.736416 0.667323
0.686732 0.728695 0.674632
0.735576 0.725948 0.67689
0.000579843 0.23534 0.621103
0 0.235492 0.621485
0.418647 0.000106813 0.737438
0.59144 0 0.736538
0.705928 7.62951e-05 0.73518
0.789441 0 0.730373
0.8542 0.000198367 0.723949
0.907485 0 0.717678
0.952575 0 0.711635
0 0.32192 0.62446
0.000381476 0.310735 0.623926
0.35259 0.0850996 0.790356
0.570062 0.0539101 0.764965
0.69366 0 0.748837
0.78085 0.000610361 0.737148
0.845335 0 0.725765
0.899428 0.000442512 0.718517
0.945693 0 0.712428
0 0.447135 0.641505
0 0.440742 0.64065
0.166873 0.401038 0.762249
0.497261 0.364492 0.782467
0.656077 0.335958 0.775113
0.768185 0.303487 0.769085
0.855604 0.268437 0.762478
0.92195 0.24126 0.752255
0.968826 0.231495 0.738735
0 0.530541 0.657237
0 0.525841 0.656565
0.0888685 0.5205 0.702083
0.416251 0.504707 0.741985
0.585763 0.49102 0.736889
0.698878 0.475441 0.735607
0.786999 0.459449 0.733623
0.860075 0.442634 0.731395
0.923232 0.424475 0.729061
0.000411994 0.594629 0.66981
0.000457771 0.59089 0.669291
0 0.589929 0.685878
0.290517 0.586679 0.741604
0.538949 0.5776 0.704662
0.643732 0.56936 0.708766
0.727749 0.559884 0.711177
0.797299 0.550561 0.711681
0.857267 0.540734 0.71165
0 0.646906 0.679728
0 0.643778 0.679347
0 0.642313 0.683772
0.206119 0.647196 0.718471
0.477333 0.635035 0.712032
0.611597 0.628428 0.691218
0.685466 0.62359 0.697978
0.749905 0.618143 0.700847
0.805219 0.612741 0.702419
0 0.690425 0.687022
0 0.688167 0.68716
0 0.685634 0.687068
0.157305 0.692348 0.705257
0.398169 0.686503 0.710811
0.573495 0.671824 0.698528
0.661173 0.667018 0.691005
0.717708 0.66424 0.696956
0.767651 0.661646 0.699565
0 0.722377 0.687495
0 0.72047 0.687724
0.000747692 0.718547 0.687938
0.110613 0.726696 0.697581
0.304631 0.730312 0.704906
0.526223 0.71284 0.698375
0.634119 0.701946 0.696071
0.697719 0.697719 0.697719
0.741955 0.696971 0.701213
0 0.749294 0.686793
0 0.747677 0.687083
0.000701915 0.746059 0.687358
0.0238956 0.753429 0.692042
0.245335 0.762417 0.696574
0.470573 0.750195 0.694911
0.602808 0.73521 0.695003
0.679133 0.726696 0.698375
0.728222 0.723659 0.702007
0 0.251453 0.664378
0.000198367 0.251575 0.664714
0.377066 0.000381476 0.786801
0.568734 0.000411994 0.781369
0.688884 0 0.776272
0.778668 0 0.772
0.845716 0.00047303 0.763745
0.900557 0.000686656 0.755932
0.9467 0 0.748547
0.000488289 0.319081 0.663722
0.000122072 0.30753 0.663798
0.299519 0 0.826154
0.543603 0.000122072 0.800519
0.673243 0.000488289 0.783352
0.76582 0 0.772808
0.835752 0 0.764874
0.892287 0 0.757
0.939666 0.000244144 0.749554
0 0.445548 0.673716
0 0.43917 0.673167
0.118853 0.404669 0.769055
0.464012 0.348837 0.831144
0.635706 0.318135 0.822461
0.753155 0.282353 0.81532
0.842039 0.247623 0.805768
0.908888 0.222522 0.792706
0.96025 0.205051 0.779049
0 0.528176 0.685557
0.00030518 0.523552 0.685069
0 0.517189 0.718791
0.371572 0.496147 0.79147
0.565057 0.482383 0.780835
0.684886 0.465995 0.777661
0.776654 0.448844 0.774578
0.852064 0.430838 0.77145
0.916716 0.41149 0.768338
0 0.591272 0.695552
0 0.587594 0.695171
0 0.585 0.705058
0.240787 0.580972 0.777264
0.516487 0.573037 0.743984
0.630243 0.564233 0.744442
0.717906 0.554025 0.745953
0.790188 0.543664 0.745968
0.851926 0.533028 0.745312
0 0.642557 0.703578
0 0.63949 0.703288
0 0.636408 0.703029
0.173724 0.641093 0.747402
0.446967 0.631815 0.750515
0.598367 0.625803 0.720775
0.675837 0.620539 0.72607
0.74284 0.614038 0.729412
0.80032 0.607767 0.730694
0 0.685756 0.709987
0.000335698 0.683131 0.709789
0 0.680476 0.709575
0.125978 0.685802 0.732082
0.355184 0.683955 0.749233
0.556466 0.669596 0.729122
0.652567 0.665263 0.713817
0.710323 0.662074 0.720272
0.762966 0.658289 0.723232
0 0.721553 0.713664
0.000671397 0.719676 0.713924
0 0.717754 0.714199
0.0727855 0.722576 0.725429
0.27245 0.725917 0.739406
0.505806 0.710689 0.729824
0.62446 0.699718 0.720882
0.691859 0.696468 0.715557
0.737804 0.694591 0.720913
0 0.748394 0.71223
0 0.746792 0.712551
0.000564584 0.745159 0.712856
0 0.749767 0.718944
0.220798 0.757656 0.728878
0.443259 0.748501 0.727321
0.589868 0.733288 0.721614
0.670726 0.725078 0.720317
0.721981 0.721981 0.721981
