LUTs/ARRILogC3800EI_acesTrans_2065_1.cube
TITLE "Generated by Resolve"
LUT_3D_SIZE 33
0 0 0
0 0 0
0 0 0
0 0 0
0 0 0
0.002533 0 0
0.00741588 0 0
0.013962 0 0
0.0227054 0 0
0.0344091 0 0
0.0500649 0 0
0.0710155 0 0
0.0990463 0 0
0.136553 0.00202945 0
0.186725 0.00833143 0
0.253849 0.0167544 0
0.343648 0.0280308 0
0.463798 0.043122 0
0.624552 0.0633097 0
0.839612 0.0903182 0
1 0.126452 0
1 0.174792 0
1 0.23946 0
1 0.325994 0
1 0.441749 0
1 0.596643 0
1 0.803861 0.00248722
1 1 0.00915541
1 1 0.0180819
1 1 0.0300298
1 1 0.0460212
1 1 0.0673991
1 1 0.096025
0 0 0
0 0 0
0 0 0
0 0 0
0 0 0
0.00390631 0 0
0.0087892 0 0
0.0153353 0 0
0.0240787 0 0
0.0357824 0 0
0.0514534 0 0
0.0723888 0 0
0.10042 0.00323491 0
0.137926 0.00794995 0
0.188098 0.0142519 0
0.255222 0.0226749 0
0.345022 0.0339513 0
0.465171 0.0490425 0
0.625925 0.0692302 0
0.840986 0.0962387 0
1 0.132372 0
1 0.180713 0
1 0.24538 0
1 0.331914 0
1 0.447669 0
1 0.602564 0
1 0.809781 0.002121
1 1 0.0087892
1 1 0.0177157
1 1 0.0296635
1 1 0.045655
1 1 0.0670481
1 1 0.0956588
0 0 0
0 0 0
0 0 0
0 0 0
0.00129702 0 0
0.00527962 0 0
0.0101778 0 0
0.0167086 0 0
0.025452 0 0
0.0371557 0.00105287 0
0.0528267 0.00300603 0
0.0737774 0.00564584 0
0.101793 0.00917067 0
0.1393 0.0138705 0
0.189471 0.0201724 0
0.256596 0.0285954 0
0.346395 0.0398718 0
0.466545 0.054963 0
0.627298 0.0751507 0
0.842359 0.102159 0
1 0.138293 0
1 0.186633 0
1 0.251301 0
1 0.337835 0
1 0.453605 0
1 0.608484 0
1 0.815702 0.00175479
1 1 0.00842298
1 1 0.0173648
1 1 0.0293126
1 1 0.0452888
1 1 0.0666819
1 1 0.0952926
0 0.00047303 0
0 0.000976577 0
0 0.00146487 0
0 0.00196841 0
0.00267033 0.00247196 0
0.00665293 0.00296025 0
0.0115511 0.00358587 0
0.0180819 0.0043946 0
0.0268254 0.00549325 0
0.038529 0.00697337 0
0.0542 0.00894179 0
0.0751507 0.0115663 0
0.103182 0.0150912 0
0.140673 0.019791 0
0.190845 0.0260929 0
0.257969 0.0345312 0
0.347768 0.0458076 0
0.467933 0.0608835 0
0.628672 0.0810712 0
0.843748 0.10808 0
1 0.144213 0
1 0.192554 0
1 0.257221 0
1 0.343755 0
1 0.459525 0
1 0.614404 0
1 0.821622 0.00138857
1 1 0.00805676
1 1 0.0169985
1 1 0.0289464
1 1 0.0449226
1 1 0.0663157
1 1 0.0949264
0 0.00640879 0
0 0.00689708 0
0 0.00740063 0
9.15541e-05 0.00788891 0
0.00404364 0.00839246 0
0.00802625 0.00889601 0
0.0129244 0.00950637 0
0.0194553 0.0103304 0
0.0282139 0.011429 0
0.0399176 0.0128939 0
0.0555734 0.0148623 0
0.076524 0.0174868 0
0.104555 0.0210117 0
0.142046 0.0257267 0
0.192218 0.0320134 0
0.259342 0.0404517 0
0.349157 0.0517281 0
0.469306 0.0668193 0
0.630045 0.0869917 0
0.845121 0.114 0
1 0.150134 0
1 0.198474 0
1 0.263157 0
1 0.349676 0
1 0.465446 0
1 0.620325 0
1 0.827543 0.00102235
1 1 0.00770581
1 1 0.0166323
1 1 0.0285801
1 1 0.0445563
1 1 0.0659495
1 1 0.0945602
0 0.0123598 0
0 0.0128634 0
0 0.0133516 0
0.00146487 0.0138552 0
0.00543221 0.0143587 0
0.00941482 0.014847 0
0.0142977 0.0154726 0
0.0208438 0.0162814 0
0.0295872 0.01738 0
0.0412909 0.0188602 0
0.0569467 0.0208286 0
0.0778973 0.0234531 0
0.105928 0.026978 0
0.143435 0.0316777 0
0.193606 0.0379797 0
0.260731 0.0464179 0
0.35053 0.0576944 0
0.47068 0.0727703 0
0.631434 0.092958 0
0.846494 0.119966 0
1 0.1561 0
1 0.20444 0
1 0.269108 0
1 0.355642 0
1 0.471412 0
1 0.626291 0
1 0.833509 0.000656138
1 1 0.00732433
1 1 0.0162661
1 1 0.0282139
1 1 0.0441901
1 1 0.0655833
1 1 0.0941939
0 0.0196689 0
0 0.0201724 0
0 0.020676 0
0.00317388 0.0211643 0
0.00712596 0.0216678 0
0.0111086 0.0221714 0
0.0160067 0.0227817 0
0.0225376 0.0236057 0
0.031281 0.0247044 0
0.0429847 0.0261692 0
0.0586557 0.0281376 0
0.0796063 0.0307622 0
0.107637 0.034287 0
0.145129 0.0389868 0
0.1953 0.0452888 0
0.262425 0.053727 0
0.352224 0.0650034 0
0.472389 0.0800793 0
0.633127 0.100267 0
0.848203 0.127275 0
1 0.163409 0
1 0.211749 0
1 0.276432 0
1 0.362951 0
1 0.478721 0
1 0.6336 0
1 0.840818 0.000213626
1 1 0.00688182
1 1 0.0158083
1 1 0.0277562
1 1 0.0437476
1 1 0.0651255
1 1 0.0937514
0 0.0294499 0
0 0.0299535 0
0.00148013 0.030457 0
0.00543221 0.0309453 0
0.00939956 0.0314488 0
0.0133822 0.0319524 0
0.018265 0.0325628 0
0.0248112 0.0333867 0
0.0335546 0.0344854 0
0.0452583 0.0359503 0
0.060914 0.0379187 0
0.0818647 0.0405432 0
0.109895 0.0440681 0
0.147402 0.0487678 0
0.197574 0.0550698 0
0.264698 0.063508 0
0.354498 0.0747845 0
0.474647 0.0898604 0
0.635401 0.110048 0
0.850462 0.137057 0
1 0.17319 0
1 0.22153 0
1 0.286213 0
1 0.372732 0
1 0.488502 0
1 0.643381 0
1 0.850599 0
1 1 0.00628672
1 1 0.0152132
1 1 0.0271611
1 1 0.0431373
1 1 0.0645304
1 1 0.0931411
0 0.0425422 0
0.000549325 0.0430457 0
0.00451667 0.043534 0
0.00846876 0.0440375 0
0.0124361 0.0445258 0
0.0164187 0.0450294 0
0.0213016 0.0456397 0
0.0278477 0.0464637 0
0.0365911 0.0475624 0
0.0482948 0.0490272 0
0.0639506 0.0509957 0
0.0849012 0.0536355 0
0.112932 0.057145 0
0.150439 0.0618601 0
0.20061 0.0681621 0
0.267735 0.076585 0
0.357534 0.0878614 0
0.477684 0.102953 0
0.638437 0.12314 0
0.853498 0.150149 0
1 0.186282 0
1 0.234623 0
1 0.29929 0
1 0.385824 0
1 0.501579 0
1 0.656474 0
1 0.863691 0
1 1 0.00547799
1 1 0.0144045
1 1 0.0263523
1 1 0.0423438
1 1 0.0637217
1 1 0.0923323
0.000656138 0.0600443 0
0.00462348 0.0605478 0
0.00857557 0.0610361 0
0.0125429 0.0615396 0
0.016495 0.0620432 0
0.0204776 0.0625315 0
0.0253758 0.0631571 0
0.0319066 0.0639658 0
0.0406653 0.0650645 0
0.052369 0.0665446 0
0.0680247 0.068513 0
0.0889754 0.0711376 0
0.117006 0.0746624 0
0.154498 0.0793622 0
0.204669 0.0856641 0
0.271794 0.0941024 0
0.361608 0.105379 0
0.481758 0.120455 0
0.642496 0.140642 0
0.857572 0.167651 0
1 0.203784 0
1 0.252125 0
1 0.316793 0
1 0.403326 0
1 0.519097 0
1 0.673976 0
1 0.881193 0
1 1 0.0043946
1 1 0.0133364
1 1 0.0252842
1 1 0.0412604
1 1 0.0626535
1 1 0.0912642
0.00608835 0.0834669 0
0.0100557 0.0839704 0
0.0140078 0.0844739 0
0.0179751 0.0849622 0
0.0219272 0.0854658 0
0.0259251 0.0859541 0
0.030808 0.0865797 0
0.0373388 0.0874037 0
0.0460975 0.0885023 0
0.0578012 0.0899672 0
0.0734569 0.0919356 0
0.0944076 0.0945602 0
0.122438 0.098085 0
0.15993 0.102785 0
0.210101 0.109087 0
0.277226 0.117525 0
0.367041 0.128801 0
0.48719 0.143877 0
0.647944 0.164065 0
0.863005 0.191073 0
1 0.227207 0
1 0.275547 0
1 0.34023 0
1 0.426749 0
1 0.542519 0
1 0.697398 0
1 0.904616 0
1 1 0.00296025
1 1 0.0118868
1 1 0.0238346
1 1 0.039826
1 1 0.0612039
1 1 0.0898299
0.0133669 0.114809 0
0.017319 0.115312 0
0.0212863 0.115801 0
0.0252537 0.116304 0
0.0292058 0.116793 0
0.0331884 0.117296 0
0.0380865 0.117906 0
0.0446174 0.11873 0
0.0533608 0.119829 0
0.0650645 0.121309 0
0.0807355 0.123262 0
0.101686 0.125902 0
0.129702 0.129412 0
0.167208 0.134127 0
0.21738 0.140429 0
0.284504 0.148852 0
0.374304 0.160128 0
0.494453 0.175219 0
0.655207 0.195407 0
0.870268 0.222416 0
1 0.258549 0
1 0.306889 0
1 0.371557 0
1 0.458091 0
1 0.573861 0
1 0.72874 0
1 0.935958 0
1 1 0.00103761
1 1 0.00996414
1 1 0.021912
1 1 0.0379034
1 1 0.0592813
1 1 0.087892
0.0231022 0.156741 0
0.0270542 0.157229 0
0.0310216 0.157733 0
0.0349737 0.158221 0
0.038941 0.158724 0
0.0429236 0.159228 0
0.0478065 0.159838 0
0.0543526 0.160662 0
0.0630961 0.161761 0
0.0747997 0.163226 0
0.0904555 0.165194 0
0.111406 0.167819 0
0.139437 0.171344 0
0.176944 0.176059 0
0.227115 0.182361 0
0.29424 0.190784 0
0.384039 0.20206 0
0.504189 0.217151 0
0.664942 0.237339 0
0.880003 0.264347 0
1 0.300465 0
1 0.348806 0
1 0.413489 0
1 0.500023 0
1 0.615778 0
1 0.770657 0
1 0.977874 0
1 1 0
1 1 0.00738537
1 1 0.0193332
1 1 0.0353246
1 1 0.0567025
1 1 0.0853132
0.0361181 0.212833 0
0.0400702 0.213321 0
0.0440375 0.213825 0
0.0479896 0.214328 0
0.051957 0.214817 0
0.0559396 0.21532 0
0.0608225 0.21593 0
0.0673686 0.216754 0
0.076112 0.217853 0
0.0878157 0.219318 0
0.103471 0.221286 0
0.124422 0.223926 0
0.152453 0.227436 0
0.18996 0.232151 0
0.240131 0.238453 0
0.307256 0.246876 0
0.397055 0.258152 0
0.517205 0.273243 0
0.677958 0.293431 0
0.893019 0.320439 0
1 0.356573 0
1 0.404913 0
1 0.469581 0
1 0.556115 0
1 0.67187 0
1 0.826764 0
1 1 0
1 1 0
1 1 0.00393683
1 1 0.0158846
1 1 0.0318761
1 1 0.053254
1 1 0.0818647
0.0535286 0.287877 0
0.057496 0.28838 0
0.0614481 0.288869 0
0.0654154 0.289372 0
0.0693675 0.28986 0
0.0733654 0.290364 0
0.0782483 0.290974 0
0.0847791 0.291798 0
0.0935378 0.292897 0
0.105241 0.294377 0
0.120897 0.29633 0
0.141848 0.29897 0
0.169879 0.302495 0
0.20737 0.307195 0
0.257542 0.313497 0
0.324666 0.32192 0
0.414481 0.333196 0
0.53463 0.348287 0
0.695369 0.368475 0
0.910445 0.395483 0
1 0.431617 0
1 0.479957 0
1 0.544625 0
1 0.631159 0
1 0.746929 0
1 0.901808 0
1 1 0
1 1 0
1 1 0
1 1 0.0112764
1 1 0.0272526
1 1 0.0486458
1 1 0.0772564
0.0768292 0.388281 0
0.0807965 0.388785 0
0.0847486 0.389273 0
0.088716 0.389776 0
0.092668 0.39028 0
0.0966659 0.390768 0
0.101549 0.391394 0
0.10808 0.392203 0
0.116838 0.393301 0
0.128542 0.394781 0
0.144198 0.39675 0
0.165148 0.399374 0
0.193179 0.402899 0
0.230671 0.407599 0
0.280842 0.413901 0
0.347967 0.422339 0
0.437781 0.433616 0
0.557931 0.448692 0
0.718685 0.468879 0
0.933745 0.495888 0
1 0.532021 0
1 0.580362 0
1 0.645029 0
1 0.731563 0
1 0.847333 0
1 1 0
1 1 0
1 1 0
1 1 0
1 1 0.00509651
1 1 0.021088
1 1 0.0424659
1 1 0.0710765
0.108019 0.522622 0
0.111971 0.52311 0
0.115938 0.523613 0
0.11989 0.524117 0
0.123857 0.524605 0
0.12784 0.525109 0
0.132723 0.525719 0
0.139269 0.526543 0
0.148013 0.527642 0
0.159716 0.529107 0
0.175372 0.531075 0
0.196323 0.533715 0
0.224353 0.537224 0
0.26186 0.541939 0
0.312032 0.548241 0
0.379156 0.556664 0
0.468956 0.567941 0
0.589105 0.583032 0
0.749859 0.60322 0
0.96492 0.630228 0
1 0.666346 0
1 0.714687 0
1 0.77937 0
1 0.865904 0
1 0.981659 0
1 1 0
1 1 0
1 1 0
1 1 0
1 1 0
1 1 0.0128176
1 1 0.0342107
1 1 0.0628214
0.149722 0.702342 0
0.153689 0.702846 0
0.157641 0.703334 0
0.161608 0.703838 0
0.16556 0.704326 0
0.169543 0.704829 0
0.174441 0.70544 0
0.180972 0.706264 0
0.189715 0.707362 0
0.201419 0.708827 0
0.21709 0.710796 0
0.238041 0.713436 0
0.266072 0.716945 0
0.303563 0.72166 0
0.353735 0.727962 0
0.420859 0.736385 0
0.510658 0.747662 0
0.630823 0.762753 0
0.791562 0.78294 0
1 0.809949 0
1 0.846082 0
1 0.894423 0
1 0.959091 0
1 1 0
1 1 0
1 1 0
1 1 0
1 1 0
1 1 0
1 1 0
1 1 0.00177005
1 1 0.0231632
1 1 0.0517739
0.205524 0.942794 0
0.209491 0.943297 0
0.213443 0.943786 0
0.217411 0.944289 0
0.221363 0.944778 0
0.22536 0.945281 0
0.230243 0.945891 0
0.236774 0.946715 0
0.245533 0.947814 0
0.257237 0.949294 0
0.272892 0.951247 0
0.293843 0.953887 0
0.321874 0.957397 0
0.359365 0.962112 0
0.409537 0.968414 0
0.476661 0.976837 0
0.566476 0.988113 0
0.686625 1 0
0.847364 1 0
1 1 0
1 1 0
1 1 0
1 1 0
1 1 0
1 1 0
1 1 0
1 1 0
1 1 0
1 1 0
1 1 0
1 1 0
1 1 0.0083772
1 1 0.0369879
0.280186 1 0
0.284153 1 0
0.288106 1 0
0.292073 1 0
0.296025 1 0
0.300008 1 0
0.304906 1 0
0.311437 1 0
0.320195 1 0
0.331899 1 0
0.347555 1 0
0.368505 1 0
0.396536 1 0
0.434028 1 0
0.484199 1 0
0.551324 1 0
0.641138 1 0
0.761288 1 0
0.922026 1 0
1 1 0
1 1 0
1 1 0
1 1 0
1 1 0
1 1 0
1 1 0
1 1 0
1 1 0
1 1 0
1 1 0
1 1 0
1 1 0
1 1 0.0171969
0.380072 1 0
0.384039 1 0
0.387991 1 0
0.391959 1 0
0.395911 1 0
0.399908 1 0
0.404791 1 0
0.411322 1 0
0.420081 1 0
0.431785 1 0
0.44744 1 0
0.468391 1 0
0.496422 1 0
0.533913 1 0
0.584085 1 0
0.651209 1 0
0.741024 1 0
0.861173 1 0
1 1 0
1 1 0
1 1 0
1 1 0
1 1 0
1 1 0
1 1 0
1 1 0
1 1 0
1 1 0
1 1 0
1 1 0
1 1 0
1 1 0
1 1 0
0.513726 1 0
0.517678 1 0
0.521645 1 0
0.525597 1 0
0.529564 1 0
0.533547 1 0
0.53843 1 0
0.544976 1 0
0.553719 1 0
0.565423 1 0
0.581079 1 0
0.602029 1 0
0.63006 1 0
0.667567 1 0
0.717739 1 0
0.784863 1 0
0.874662 1 0
0.994812 1 0
1 1 0
1 1 0
1 1 0
1 1 0
1 1 0
1 1 0
1 1 0
1 1 0
1 1 0
1 1 0
1 1 0
1 1 0
1 1 0
1 1 0
1 1 0
0.692515 1 0
0.696483 1 0
0.700435 1 0
0.704402 1 0
0.708354 1 0
0.712337 1 0
0.717235 1 0
0.723766 1 0
0.732509 1 0
0.744228 1 0
0.759884 1 0
0.780835 1 0
0.808865 1 0
0.846357 1 0
0.896529 1 0
0.963653 1 0
1 1 0
1 1 0
1 1 0
1 1 0
1 1 0
1 1 0
1 1 0
1 1 0
1 1 0
1 1 0
1 1 0
1 1 0
1 1 0
1 1 0
1 1 0
1 1 0
1 1 0
0.931731 1 0
0.935683 1 0
0.939651 1 0
0.943618 1 0
0.94757 1 0
0.951553 1 0
0.956451 1 0
0.962982 1 0
0.971725 1 0
0.983429 1 0
0.9991 1 0
1 1 0
1 1 0
1 1 0
1 1 0
1 1 0
1 1 0
1 1 0
1 1 0
1 1 0
1 1 0
1 1 0
1 1 0
1 1 0
1 1 0
1 1 0
1 1 0
1 1 0
1 1 0
1 1 0
1 1 0
1 1 0
1 1 0
1 1 0
1 1 0
1 1 0
1 1 0
1 1 0
1 1 0
1 1 0
1 1 0
1 1 0
1 1 0
1 1 0
1 1 0
1 1 0
1 1 0
1 1 0
1 1 0
1 1 0
1 1 0
1 1 0
1 1 0
1 1 0
1 1 0
1 1 0
1 1 0
1 1 0
1 1 0
1 1 0
1 1 0
1 1 0
1 1 0
1 1 0
1 1 0
1 1 0
1 1 0
1 1 0
1 1 0
1 1 0
1 1 0
1 1 0
1 1 0
1 1 0
1 1 0
1 1 0
1 1 0
1 1 0
1 1 0
1 1 0
1 1 0
1 1 0
1 1 0
1 1 0
1 1 0
1 1 0
1 1 0
1 1 0
1 1 0
1 1 0
1 1 0
1 1 0
1 1 0
1 1 0
1 1 0
1 1 0
1 1 0
1 1 0
1 1 0
1 1 0
1 1 0
1 1 0
1 1 0
1 1 0
1 1 0
1 1 0
1 1 0
1 1 0
1 1 0
1 1 0
1 1 0
1 1 0
1 1 0
1 1 0
1 1 0
1 1 0
1 1 0
1 1 0
1 1 0
1 1 0
1 1 0
1 1 0
1 1 0
1 1 0
1 1 0
1 1 0
1 1 0
1 1 0
1 1 0
1 1 0
1 1 0
1 1 0
1 1 0
1 1 0
1 1 0
1 1 0
1 1 0
1 1 0
1 1 0
1 1 0
1 1 0
