LUTs/ARRILogC3800EI_acesTrans_2065_1.cube
TITLE "Generated by Resolve"
LUT_3D_SIZE 9
0 0 0
0 0 0
0.0227054 0 0
0.0990463 0 0
0.343648 0.0280308 0
1 0.126452 0
1 0.441749 0
1 1 0.0180819
1 1 0.096025
0 0.00640879 0
0.00404364 0.00839246 0
0.0282139 0.011429 0
0.104555 0.0210117 0
0.349157 0.0517281 0
1 0.150134 0
1 0.465446 0
1 1 0.0166323
1 1 0.0945602
0 0.0425422 0
0.0124361 0.0445258 0
0.0365911 0.0475624 0
0.112932 0.057145 0
0.357534 0.0878614 0
1 0.186282 0
1 0.501579 0
1 1 0.0144045
1 1 0.0923323
0.0231022 0.156741 0
0.038941 0.158724 0
0.0630961 0.161761 0
0.139437 0.171344 0
0.384039 0.20206 0
1 0.300465 0
1 0.615778 0
1 1 0.00738537
1 1 0.0853132
0.108019 0.522622 0
0.123857 0.524605 0
0.148013 0.527642 0
0.224353 0.537224 0
0.468956 0.567941 0
1 0.666346 0
1 0.981659 0
1 1 0
1 1 0.0628214
0.380072 1 0
0.395911 1 0
0.420081 1 0
0.496422 1 0
0.741024 1 0
1 1 0
1 1 0
1 1 0
1 1 0
1 1 0
1 1 0
1 1 0
1 1 0
1 1 0
1 1 0
1 1 0
1 1 0
1 1 0
1 1 0
1 1 0
1 1 0
1 1 0
1 1 0
1 1 0
1 1 0
1 1 0
1 1 0
1 1 0
1 1 0
1 1 0
1 1 0
1 1 0
1 1 0
1 1 0
1 1 0
1 1 0
0 0 0.00740063
0.000503548 0 0.0074464
0.0246586 0 0.0075227
0.100999 0 0.00775158
0.345602 0.0256352 0.00849927
1 0.124056 0.0108644
1 0.439353 0.0184634
1 1 0.0427863
1 1 0.120714
0 0.00401312 0.00595102
0.0059968 0.0059968 0.0059968
0.0301518 0.00903334 0.00607309
0.106493 0.018616 0.00630198
0.351095 0.0493324 0.00703441
1 0.147738 0.00941482
1 0.46305 0.0169985
1 1 0.0413214
1 1 0.119249
0 0.0401465 0.0037232
0.0143893 0.0421302 0.00376898
0.0385443 0.0451667 0.00384527
0.114885 0.0547494 0.00407416
0.359487 0.0854658 0.00482185
1 0.183886 0.007187
1 0.499184 0.0147707
1 1 0.0390936
1 1 0.117037
0.0250401 0.154345 0
0.0408789 0.156329 0
0.0650492 0.159365 0
0.14139 0.168948 0
0.385992 0.199664 0
1 0.29807 0.000167849
1 0.613382 0.00775158
1 1 0.0320745
1 1 0.110018
0.109957 0.520226 0
0.125795 0.52221 0
0.149966 0.525246 0
0.226307 0.534829 0
0.470909 0.565545 0
1 0.663951 0
1 0.979263 0
1 1 0.00958267
1 1 0.0875105
0.382025 1 0
0.397864 1 0
0.422019 1 0
0.498375 1 0
0.742962 1 0
1 1 0
1 1 0
1 1 0
1 1 0.0154269
1 1 0
1 1 0
1 1 0
1 1 0
1 1 0
1 1 0
1 1 0
1 1 0
1 1 0
1 1 0
1 1 0
1 1 0
1 1 0
1 1 0
1 1 0
1 1 0
1 1 0
1 1 0
1 1 0
1 1 0
1 1 0
1 1 0
1 1 0
1 1 0
1 1 0
1 1 0
1 1 0
0 0 0.0450752
0.0034638 0 0.0451209
0.0276341 0 0.0451972
0.103975 0 0.0454261
0.348577 0.0219883 0.0461585
1 0.120394 0.0485389
1 0.435706 0.0561227
1 1 0.0804456
1 1 0.158389
0 0.000350958 0.0436103
0.0089723 0.00233463 0.0436561
0.0331273 0.00537118 0.0437324
0.109468 0.0149538 0.0439612
0.35407 0.0456703 0.0447089
1 0.144091 0.0470741
1 0.459403 0.0546731
1 1 0.078996
1 1 0.156924
0.00151064 0.0364843 0.0413977
0.0173495 0.0384833 0.0414435
0.0415198 0.0415198 0.0415198
0.117861 0.0511025 0.0417487
0.362463 0.0818189 0.0424811
1 0.180224 0.0448463
1 0.495537 0.0524453
1 1 0.0767681
1 1 0.154696
0.0280156 0.150683 0.0343786
0.0438544 0.152682 0.0344244
0.0680095 0.155703 0.0344854
0.144366 0.165301 0.0347295
0.388968 0.196017 0.035462
1 0.294423 0.0378271
1 0.609735 0.0454261
1 1 0.069749
1 1 0.147677
0.112932 0.516564 0.0118715
0.128771 0.518563 0.0119173
0.152926 0.521584 0.0119936
0.229267 0.531182 0.0122225
0.473869 0.561898 0.0129702
1 0.660304 0.0153353
1 0.975616 0.0229191
1 1 0.0472572
1 1 0.125185
0.385 1 0
0.400839 1 0
0.424994 1 0
0.501335 1 0
0.745937 1 0
1 1 0
1 1 0
1 1 0
1 1 0.0531014
1 1 0
1 1 0
1 1 0
1 1 0
1 1 0
1 1 0
1 1 0
1 1 0
1 1 0
1 1 0
1 1 0
1 1 0
1 1 0
1 1 0
1 1 0
1 1 0
1 1 0
1 1 0
1 1 0
1 1 0
1 1 0
1 1 0
1 1 0
1 1 0
1 1 0
1 1 0
1 1 0
0 0 0.164096
0.0128634 0 0.164141
0.0370184 0 0.164218
0.113359 0 0.164446
0.357961 0.0104372 0.165194
1 0.108843 0.167559
1 0.424155 0.175143
1 1 0.199466
1 1 0.277409
0.00251774 0 0.162646
0.0183566 0 0.162692
0.0425116 0 0.162768
0.118853 0.00341802 0.162997
0.363455 0.0341344 0.163729
1 0.13254 0.166094
1 0.447852 0.173693
1 1 0.198016
1 1 0.275944
0.0109102 0.0249485 0.160418
0.0267491 0.0269322 0.160464
0.0509041 0.0299687 0.16054
0.127245 0.0395514 0.160769
0.371847 0.0702678 0.161517
1 0.168673 0.163882
1 0.483986 0.171466
1 1 0.195789
1 1 0.273732
0.0373999 0.139132 0.153399
0.0532387 0.141131 0.153445
0.077409 0.144167 0.153521
0.15375 0.15375 0.15375
0.398352 0.184466 0.154482
1 0.282872 0.156863
1 0.598184 0.164446
1 1 0.188769
1 1 0.266712
0.122316 0.505028 0.130892
0.138155 0.507012 0.130953
0.162325 0.510048 0.131014
0.238666 0.519631 0.131258
0.483268 0.550347 0.131991
1 0.648753 0.134356
1 0.964065 0.141955
1 1 0.166278
1 1 0.244205
0.394385 1 0.0588235
0.410224 1 0.0588693
0.434379 1 0.0589456
0.510735 1 0.0591745
0.755337 1 0.0599069
1 1 0.0622721
1 1 0.0698711
1 1 0.0941939
1 1 0.172122
1 1 0
1 1 0
1 1 0
1 1 0
1 1 0
1 1 0
1 1 0
1 1 0
1 1 0
1 1 0
1 1 0
1 1 0
1 1 0
1 1 0
1 1 0
1 1 0
1 1 0
1 1 0
1 1 0
1 1 0
1 1 0
1 1 0
1 1 0
1 1 0
1 1 0
1 1 0
1 1 0
0.0271 0 0.545449
0.0429389 0 0.545495
0.0670939 0 0.545571
0.14345 0 0.5458
0.388037 0 0.546548
1 0.0718547 0.548913
1 0.387152 0.556512
1 1 0.580835
1 1 0.658763
0.0325933 0 0.543999
0.0484321 0 0.544045
0.0726024 0 0.544121
0.148943 0 0.54435
0.393545 0 0.545083
1 0.0955367 0.547463
1 0.410849 0.555047
1 1 0.57937
1 1 0.657313
0.0409857 0 0.541772
0.0568246 0 0.541817
0.0809796 0 0.541894
0.157336 0.00254826 0.542123
0.401923 0.0332647 0.54287
1 0.131685 0.545235
1 0.446998 0.552834
1 1 0.577157
1 1 0.655085
0.0674907 0.102144 0.534752
0.0833295 0.104128 0.534798
0.107485 0.107164 0.534874
0.183825 0.116747 0.535103
0.428428 0.147463 0.535851
1 0.245884 0.538216
1 0.561181 0.5458
1 1 0.570123
1 1 0.648066
0.152407 0.468025 0.512261
0.168246 0.470008 0.512306
0.192401 0.473045 0.512383
0.268742 0.482628 0.512612
0.513344 0.513344 0.513344
1 0.611765 0.515709
1 0.927062 0.523308
1 1 0.547631
1 1 0.625559
0.424475 1 0.440177
0.440314 1 0.440223
0.464469 1 0.440299
0.54081 1 0.440528
0.785412 1 0.44126
1 1 0.443641
1 1 0.451225
1 1 0.475547
1 1 0.553491
1 1 0.209232
1 1 0.209277
1 1 0.209339
1 1 0.209583
1 1 0.210315
1 1 0.21268
1 1 0.220279
1 1 0.244602
1 1 0.32253
1 1 0
1 1 0
1 1 0
1 1 0
1 1 0
1 1 0
1 1 0
1 1 0
1 1 0
1 1 0
1 1 0
1 1 0
1 1 0
1 1 0
1 1 0
1 1 0
1 1 0
1 1 0
0.123491 0 1
0.13933 0 1
0.163485 0 1
0.239826 0 1
0.484428 0 1
1 0 1
1 0.26862 1
1 1 1
1 1 1
0.128985 0 1
0.144823 0 1
0.168994 0 1
0.245335 0 1
0.489937 0 1
1 0 1
1 0.292317 1
1 1 1
1 1 1
0.137377 0 1
0.153216 0 1
0.177371 0 1
0.253712 0 1
0.498314 0 1
1 0.013138 1
1 0.32845 1
1 1 1
1 1 1
0.163882 0 1
0.179721 0 1
0.203876 0 1
0.280217 0 1
0.524819 0.0289311 1
1 0.127337 1
1 0.442649 1
1 1 1
1 1 1
0.248798 0.349477 1
0.264637 0.351476 1
0.288792 0.354498 1
0.365133 0.364096 1
0.609735 0.394812 1
1 0.493217 1
1 0.80853 1
1 1 1
1 1 1
0.520851 1 1
0.53669 1 1
0.560861 1 1
0.637201 1 1
0.881804 1 1
1 1 1
1 1 1
1 1 1
1 1 1
1 1 1
1 1 1
1 1 1
1 1 1
1 1 1
1 1 1
1 1 1
1 1 1
1 1 1
1 1 0.691127
1 1 0.691173
1 1 0.691249
1 1 0.691478
1 1 0.692226
1 1 0.694591
1 1 0.70219
1 1 0.726513
1 1 0.80444
1 1 0
1 1 0
1 1 0
1 1 0
1 1 0
1 1 0
1 1 0
1 1 0
1 1 0
0.432319 0 1
0.448157 0 1
0.472313 0 1
0.548653 0 1
0.793256 0 1
1 0 1
1 0 1
1 0.899062 1
1 1 1
0.437812 0 1
0.453651 0 1
0.477806 0 1
0.554147 0 1
0.798749 0 1
1 0 1
1 0 1
1 0.922759 1
1 1 1
0.446204 0 1
0.462043 0 1
0.486198 0 1
0.562539 0 1
0.807141 0 1
1 0 1
1 0 1
1 0.958892 1
1 1 1
0.472694 0 1
0.488533 0 1
0.512703 0 1
0.589044 0 1
0.833646 0 1
1 0 1
1 0.0628367 1
1 1 1
1 1 1
0.55761 0 1
0.573449 0 1
0.59762 0 1
0.673961 0 1
0.918563 0.0149996 1
1 0.11342 1
1 0.428717 1
1 1 1
1 1 1
0.829679 1 1
0.845518 1 1
0.869673 1 1
0.946029 1 1
1 1 1
1 1 1
1 1 1
1 1 1
1 1 1
1 1 1
1 1 1
1 1 1
1 1 1
1 1 1
1 1 1
1 1 1
1 1 1
1 1 1
1 1 1
1 1 1
1 1 1
1 1 1
1 1 1
1 1 1
1 1 1
1 1 1
1 1 1
1 1 1
1 1 1
1 1 1
1 1 1
1 1 1
1 1 1
1 1 1
1 1 1
1 1 1
1 0 1
1 0 1
1 0 1
1 0 1
1 0 1
1 0 1
1 0 1
1 0 1
1 1 1
1 0 1
1 0 1
1 0 1
1 0 1
1 0 1
1 0 1
1 0 1
1 0 1
1 1 1
1 0 1
1 0 1
1 0 1
1 0 1
1 0 1
1 0 1
1 0 1
1 0 1
1 1 1
1 0 1
1 0 1
1 0 1
1 0 1
1 0 1
1 0 1
1 0 1
1 0 1
1 1 1
1 0 1
1 0 1
1 0 1
1 0 1
1 0 1
1 0 1
1 0 1
1 0.22208 1
1 1 1
1 0 1
1 0 1
1 0 1
1 0 1
1 0 1
1 0.0688029 1
1 0.384115 1
1 1 1
1 1 1
1 1 1
1 1 1
1 1 1
1 1 1
1 1 1
1 1 1
1 1 1
1 1 1
1 1 1
1 1 1
1 1 1
1 1 1
1 1 1
1 1 1
1 1 1
1 1 1
1 1 1
1 1 1
1 1 1
1 1 1
1 1 1
1 1 1
1 1 1
1 1 1
1 1 1
1 1 1
1 1 1
1 0 1
1 0 1
1 0 1
1 0 1
1 0 1
1 0 1
1 0 1
1 0 1
1 0 1
1 0 1
1 0 1
1 0 1
1 0 1
1 0 1
1 0 1
1 0 1
1 0 1
1 0 1
1 0 1
1 0 1
1 0 1
1 0 1
1 0 1
1 0 1
1 0 1
1 0 1
1 0 1
1 0 1
1 0 1
1 0 1
1 0 1
1 0 1
1 0 1
1 0 1
1 0 1
1 0 1
1 0 1
1 0 1
1 0 1
1 0 1
1 0 1
1 0 1
1 0 1
1 0 1
1 0 1
1 0 1
1 0 1
1 0 1
1 0 1
1 0 1
1 0 1
1 0 1
1 0 1
1 0.732296 1
1 0 1
1 0 1
1 0 1
1 0 1
1 0 1
1 0 1
1 0.241199 1
1 1 1
1 1 1
1 1 1
1 1 1
1 1 1
1 1 1
1 1 1
1 1 1
1 1 1
1 1 1
1 1 1
1 1 1
1 1 1
1 1 1
1 1 1
1 1 1
1 1 1
1 1 1
1 1 1
1 1 1
