LUTs/ARRILogC3800EI_acesTrans_2065_1.cube
TITLE "Generated by Resolve"
LUT_3D_SIZE 5
0 0 0
0.0227054 0 0
0.343648 0.0280308 0
1 0.441749 0
1 1 0.096025
0 0.0425422 0
0.0365911 0.0475624 0
0.357534 0.0878614 0
1 0.501579 0
1 1 0.0923323
0.108019 0.522622 0
0.148013 0.527642 0
0.468956 0.567941 0
1 0.981659 0
1 1 0.0628214
1 1 0
1 1 0
1 1 0
1 1 0
1 1 0
1 1 0
1 1 0
1 1 0
1 1 0
1 1 0
0 0 0.0450752
0.0276341 0 0.0451972
0.348577 0.0219883 0.0461585
1 0.435706 0.0561227
1 1 0.158389
0.00151064 0.0364843 0.0413977
0.0415198 0.0415198 0.0415198
0.362463 0.0818189 0.0424811
1 0.495537 0.0524453
1 1 0.154696
0.112932 0.516564 0.0118715
0.152926 0.521584 0.0119936
0.473869 0.561898 0.0129702
1 0.975616 0.0229191
1 1 0.125185
1 1 0
1 1 0
1 1 0
1 1 0
1 1 0
1 1 0
1 1 0
1 1 0
1 1 0
1 1 0
0.0271 0 0.545449
0.0670939 0 0.545571
0.388037 0 0.546548
1 0.387152 0.556512
1 1 0.658763
0.0409857 0 0.541772
0.0809796 0 0.541894
0.401923 0.0332647 0.54287
1 0.446998 0.552834
1 1 0.655085
0.152407 0.468025 0.512261
0.192401 0.473045 0.512383
0.513344 0.513344 0.513344
1 0.927062 0.523308
1 1 0.625559
1 1 0.209232
1 1 0.209339
1 1 0.210315
1 1 0.220279
1 1 0.32253
1 1 0
1 1 0
1 1 0
1 1 0
1 1 0
0.432319 0 1
0.472313 0 1
0.793256 0 1
1 0 1
1 1 1
0.446204 0 1
0.486198 0 1
0.807141 0 1
1 0 1
1 1 1
0.55761 0 1
0.59762 0 1
0.918563 0.0149996 1
1 0.428717 1
1 1 1
1 1 1
1 1 1
1 1 1
1 1 1
1 1 1
1 1 1
1 1 1
1 1 1
1 1 1
1 1 1
1 0 1
1 0 1
1 0 1
1 0 1
1 0 1
1 0 1
1 0 1
1 0 1
1 0 1
1 0 1
1 0 1
1 0 1
1 0 1
1 0 1
1 0 1
1 0 1
1 0 1
1 0 1
1 0.241199 1
1 1 1
1 1 1
1 1 1
1 1 1
1 1 1
1 1 1
