LUTs/DJI_DLog_to_ACEScc_AP0_1.cube
TITLE "Generated by Resolve"
LUT_3D_SIZE 5
0.0169833 0.01149 0.00782788
0.26157 0.0390631 0
0.52195 0.295521 0
0.703548 0.457282 0
0.781247 0.630854 0.302159
0.168429 0.308049 0.0162509
0.294911 0.311604 0.014786
0.525612 0.3635 0
0.704585 0.479271 0.0747845
0.781598 0.636957 0.308568
0.422492 0.572412 0.267704
0.440177 0.573114 0.267979
0.54757 0.582452 0.272145
0.7084 0.606775 0.283391
0.785489 0.684672 0.345815
0.606958 0.779492 0.391516
0.61088 0.779858 0.391546
0.644022 0.783307 0.39176
0.730037 0.79324 0.391974
0.80148 0.808118 0.39443
0.749599 0.885206 0.409613
0.749874 0.885252 0.409598
0.752728 0.885725 0.409583
0.771298 0.888716 0.409461
0.808576 0.894224 0.409262
0.174975 0.12845 0.321828
0.281392 0.146685 0.315694
0.521614 0.295109 0
0.703395 0.454414 0
0.781201 0.630121 0.301366
0.210834 0.297368 0.308736
0.307012 0.30692 0.307057
0.524788 0.353445 0
0.704433 0.47689 0.0662699
0.781552 0.636255 0.307851
0.42118 0.571283 0.266758
0.438727 0.571984 0.267048
0.547066 0.581384 0.271214
0.708354 0.605859 0.282445
0.785443 0.684306 0.345617
0.606668 0.7794 0.391501
0.61062 0.779767 0.391516
0.643854 0.78323 0.39173
0.729992 0.793164 0.391943
0.801465 0.808042 0.394415
0.749584 0.885206 0.409613
0.749859 0.885252 0.409598
0.752712 0.885725 0.409583
0.771282 0.888716 0.409461
0.808576 0.894224 0.409262
0.435462 0.383719 0.591501
0.4374 0.383566 0.590951
0.550683 0.395468 0.568521
0.709224 0.450324 0.512901
0.780652 0.62182 0.29192
0.434943 0.383215 0.590906
0.438087 0.383124 0.590219
0.551614 0.395377 0.567727
0.709087 0.450477 0.512047
0.781109 0.628504 0.299626
0.465797 0.56408 0.568612
0.466529 0.564095 0.568475
0.566125 0.566171 0.56669
0.718273 0.588144 0.516075
0.785031 0.680262 0.343236
0.608438 0.776486 0.46215
0.612207 0.776883 0.460746
0.645014 0.780713 0.445487
0.729641 0.792386 0.39173
0.801389 0.80734 0.394232
0.749371 0.885176 0.409613
0.749645 0.885222 0.409613
0.752529 0.885695 0.409583
0.771191 0.888701 0.409461
0.808576 0.894224 0.409262
0.561944 0.504967 0.811734
0.561944 0.504967 0.811704
0.580972 0.506233 0.806607
0.74931 0.529244 0.770077
0.810971 0.532097 0.738979
0.561929 0.504967 0.811688
0.561929 0.504952 0.811658
0.581781 0.506279 0.806332
0.749386 0.529259 0.770031
0.811917 0.538689 0.739864
0.561776 0.504814 0.811093
0.561761 0.504799 0.811063
0.590143 0.506798 0.803433
0.750195 0.529274 0.769436
0.82974 0.625284 0.750744
0.640482 0.765438 0.784909
0.643915 0.765484 0.784817
0.677562 0.766186 0.783719
0.779156 0.776989 0.778973
0.874434 0.784298 0.744533
0.798733 0.933013 0.711955
0.799069 0.933074 0.711879
0.802625 0.933745 0.711055
0.826307 0.93846 0.703395
0.808713 0.89424 0.409262
0.58349 0.524666 0.970779
0.58349 0.524666 0.970779
0.58349 0.524666 0.970779
0.706813 0.540185 0.908003
0.837568 0.556909 0.894911
0.58349 0.524666 0.970779
0.58349 0.524666 0.970779
0.58349 0.524666 0.970779
0.707073 0.54023 0.907927
0.837568 0.556909 0.894911
0.58349 0.524666 0.970779
0.58349 0.524666 0.970779
0.58349 0.524666 0.970779
0.709773 0.540642 0.907134
0.837583 0.556909 0.894911
0.58349 0.524666 0.970779
0.58349 0.524666 0.970779
0.58349 0.524666 0.970779
0.730312 0.54374 0.902235
0.838422 0.560388 0.896666
0.806378 0.977508 1
0.807065 0.977783 1
0.814176 0.980591 1
0.866041 1 1
1 1 1
