LUTs/DJI_DLog_to_ACES2065_1.cube
TITLE "Generated by Resolve"
LUT_3D_SIZE 5
0 0 0
0.0224308 0 0
0.314961 0.0162356 0
1 0.280201 0
1 1 0
0 0.0399786 0
0.0341802 0.043595 0
0.326696 0.0716259 0
1 0.335607 0
1 1 0
0.0870375 0.468055 0
0.124895 0.471687 0
0.417411 0.499702 0
1 0.763684 0
1 1 0
0.941619 1 0
0.979477 1 0
1 1 0
1 1 0
1 1 0
1 1 0
1 1 0
1 1 0
1 1 0
1 1 0
0 0 0.0445258
0.0276036 0 0.0435798
0.320119 0.0119631 0.0362554
1 0.275944 0
1 1 0
0.00148013 0.0357061 0.0402838
0.0393378 0.0393378 0.0393378
0.331868 0.0673686 0.0320134
1 0.331334 0
1 1 0
0.0922103 0.463798 0.00753796
0.130053 0.467414 0.0065919
0.422583 0.495445 0
1 0.759411 0
1 1 0
0.946777 1 0
0.984634 1 0
1 1 0
1 1 0
1 1 0
1 1 0
1 1 0
1 1 0
1 1 0
1 1 0
0.0296635 0 0.507744
0.0675212 0 0.506798
0.360037 0 0.499489
1 0.243 0.430533
1 1 0
0.041413 0.00277714 0.503517
0.0792554 0.00639353 0.502571
0.371786 0.0344244 0.495247
1 0.298405 0.426291
1 1 0
0.132128 0.430854 0.470771
0.16997 0.434485 0.469825
0.462501 0.462501 0.462501
1 0.726482 0.393545
1 1 0
0.986709 1 0.162325
1 1 0.161364
1 1 0.154055
1 1 0.0850996
1 1 0
1 1 0
1 1 0
1 1 0
1 1 0
1 1 0
0.405722 0 1
0.44358 0 1
0.736095 0 1
1 0 1
1 1 1
0.417456 0 1
0.455314 0 1
0.747829 0 1
1 0 1
1 1 1
0.508171 0.120577 1
0.546029 0.124193 1
0.83856 0.152224 1
1 0.41619 1
1 1 1
1 1 1
1 1 1
1 1 1
1 1 1
1 1 1
1 1 1
1 1 1
1 1 1
1 1 1
1 1 0.893538
1 0 1
1 0 1
1 0 1
1 0 1
1 0 1
1 0 1
1 0 1
1 0 1
1 0 1
1 0 1
1 0 1
1 0 1
1 0 1
1 0 1
1 0 1
1 1 1
1 1 1
1 1 1
1 1 1
1 1 1
1 1 1
1 1 1
1 1 1
1 1 1
1 1 1
