LUTs/DJI_DLog_to_ACEScg_AP0.cube
TITLE "Generated by Resolve"
LUT_3D_SIZE 5
0.000518807 0.000549325 0.000518807
0.0220035 0.00262455 0.000869764
0.272953 0.0311742 0.00970474
0.606531 0.0692607 0.0218204
0.613169 0.0700236 0.0220493
0.0075227 0.0198825 0.00239567
0.0195315 0.0209201 0.00273136
0.26714 0.0315862 0.00952163
0.60647 0.0692607 0.0218204
0.613169 0.0700236 0.0220493
0.118425 0.318349 0.0371252
0.118318 0.318059 0.0370947
0.344762 0.34313 0.04448
0.705837 0.340368 0.0520333
0.613169 0.0700236 0.0220493
0.323064 0.855695 0.0998093
0.323064 0.85568 0.099794
0.323018 0.855558 0.099794
0.91635 0.92549 0.119677
0.927291 0.915541 0.118822
0.347204 0.916732 0.106859
0.347204 0.916732 0.106859
0.347204 0.916732 0.106859
0.347204 0.916732 0.106859
0.953094 0.984939 0.126894
0.0018616 0.000457771 0.0193179
0.0201419 0.00250248 0.0185245
0.268788 0.0307622 0.016846
0.606516 0.0692607 0.0218204
0.613169 0.0700236 0.0220493
0.00746166 0.0171664 0.0198825
0.0212558 0.0212863 0.0212863
0.262913 0.0307774 0.0159304
0.606455 0.0692607 0.0218204
0.613169 0.0700236 0.0220493
0.117647 0.316274 0.0368811
0.117571 0.316045 0.0368658
0.34316 0.341222 0.0442359
0.705135 0.338445 0.0518044
0.613169 0.0700236 0.0220493
0.323033 0.855604 0.099794
0.323033 0.855589 0.099794
0.322972 0.855467 0.0997787
0.916289 0.925399 0.119661
0.92726 0.915434 0.118807
0.347204 0.916732 0.106859
0.347204 0.916732 0.106859
0.347204 0.916732 0.106859
0.347204 0.916732 0.106859
0.953094 0.984939 0.126894
0.0224613 0.00466926 0.274495
0.0353094 0.00610361 0.270588
0.274403 0.0332952 0.258854
0.613794 0.0716411 0.221897
0.613169 0.0700236 0.0220493
0.0224308 0.00466926 0.274495
0.0279393 0.00527962 0.272328
0.268956 0.0326848 0.258366
0.613718 0.0716259 0.221561
0.613169 0.0700236 0.0220493
0.12015 0.273487 0.317662
0.120134 0.273182 0.316686
0.306127 0.306569 0.307805
0.699489 0.316472 0.239322
0.613169 0.0700236 0.0220493
0.336599 0.841382 0.366537
0.336599 0.841398 0.365454
0.336553 0.841611 0.357092
0.917586 0.918791 0.25774
0.92697 0.914672 0.118715
0.347204 0.916732 0.106859
0.347204 0.916732 0.106859
0.347204 0.916732 0.106859
0.347204 0.916732 0.106859
0.953094 0.984939 0.126894
0.0578317 0.0124056 0.755001
0.0578317 0.0124056 0.754955
0.250599 0.0343938 0.758343
0.621408 0.0766461 0.751049
0.62739 0.0769055 0.695964
0.0578317 0.0124056 0.754986
0.0578317 0.0124056 0.75494
0.243793 0.0336156 0.758206
0.621332 0.0766461 0.751034
0.62739 0.0769055 0.695933
0.0794385 0.0904097 0.779873
0.0793469 0.0899825 0.779782
0.202808 0.101595 0.773831
0.638911 0.122759 0.759106
0.627375 0.0769055 0.695674
0.338094 0.808713 0.886198
0.338079 0.808698 0.886137
0.338018 0.80856 0.885725
0.880995 0.884108 0.881971
0.930816 0.878843 0.822248
0.378103 0.918349 0.883604
0.378103 0.918349 0.883543
0.378088 0.918349 0.88307
0.377905 0.918441 0.878584
0.973693 0.988632 0.799527
0.0635996 0.013489 0.81088
0.0635996 0.013489 0.81088
0.0635996 0.013489 0.81088
0.615213 0.076524 0.82771
0.633097 0.0785687 0.828321
0.0635996 0.013489 0.81088
0.0635996 0.013489 0.81088
0.0635996 0.013489 0.81088
0.615076 0.0765087 0.82771
0.633097 0.0785687 0.828321
0.0635996 0.013489 0.81088
0.0635996 0.013489 0.81088
0.0635996 0.013489 0.81088
0.613916 0.0763714 0.827665
0.633097 0.0785687 0.828321
0.276249 0.634012 0.929778
0.276219 0.633921 0.929763
0.275975 0.633265 0.929702
0.772 0.697887 0.958389
0.86276 0.6318 0.951308
0.38143 0.916686 0.96672
0.38143 0.916686 0.96672
0.38143 0.916686 0.96672
0.38143 0.916686 0.96672
1 1 1
