LUTs/DJI_DLog_to_ACEScg_AP0.cube
TITLE "Generated by Resolve"
LUT_3D_SIZE 33
0.000518807 0.000549325 0.000518807
0.000885023 0.000595102 0.000534066
0.00138857 0.000610361 0.000534066
0.0018616 0.000534066 0.000396735
0.00321965 0.000610361 0.000366217
0.00570687 0.000854505 0.000411994
0.00952163 0.00128176 0.000518807
0.0150149 0.00187686 0.000671397
0.0220035 0.00262455 0.000869764
0.0328374 0.00383001 0.00122072
0.0483406 0.00556954 0.00172427
0.0687877 0.00801099 0.00241093
0.0935225 0.0121767 0.00337224
0.125216 0.0160983 0.00447089
0.166888 0.0199435 0.00585946
0.217914 0.0249027 0.00764477
0.272953 0.0311742 0.00970474
0.329992 0.0376898 0.0118257
0.389639 0.0444953 0.0140536
0.450523 0.0514534 0.0162814
0.506462 0.057847 0.0182956
0.554437 0.0633249 0.0199893
0.585977 0.0669261 0.0211032
0.600305 0.0685588 0.0216068
0.606531 0.0692607 0.0218204
0.609079 0.0695659 0.021912
0.610574 0.0697337 0.0219577
0.611536 0.0698405 0.0219883
0.6121 0.0699016 0.0220188
0.612589 0.0699626 0.022034
0.613031 0.0700084 0.0220493
0.613169 0.0700236 0.0220493
0.613169 0.0700236 0.0220493
0.000656138 0.00103761 0.000564584
0.00102235 0.00108339 0.000595102
0.0015259 0.00114443 0.000640879
0.00189212 0.0009308 0.000503548
0.00285344 0.000823987 0.000396735
0.00511177 0.0010071 0.000411994
0.00880446 0.00140383 0.000503548
0.0142824 0.00198367 0.000671397
0.0212711 0.00268559 0.000869764
0.0319982 0.00381476 0.0011902
0.0473945 0.00553903 0.00169375
0.0678721 0.00796521 0.00238041
0.0926833 0.0120699 0.00334173
0.124376 0.016022 0.00444038
0.166049 0.0198825 0.00582895
0.217197 0.0248264 0.00761425
0.272404 0.0311131 0.00967422
0.329549 0.0376287 0.0118105
0.389273 0.0444495 0.0140383
0.450263 0.0514229 0.0162661
0.506279 0.0578164 0.0182803
0.55433 0.0633097 0.0199893
0.585931 0.0669108 0.0211032
0.60029 0.0685588 0.0216068
0.606516 0.0692607 0.0218204
0.609079 0.0695659 0.021912
0.610574 0.0697337 0.0219577
0.611536 0.0698405 0.0219883
0.6121 0.0699016 0.0220188
0.612573 0.0699626 0.022034
0.613031 0.0700084 0.0220493
0.613169 0.0700236 0.0220493
0.613169 0.0700236 0.0220493
0.000915541 0.00164797 0.000640879
0.0011902 0.00169375 0.000671397
0.00166323 0.00175479 0.000717174
0.00202945 0.00149538 0.00062562
0.00257877 0.00112917 0.00047303
0.00454719 0.00122072 0.000411994
0.0081178 0.00157168 0.000503548
0.01355 0.002121 0.000671397
0.0205692 0.0027924 0.000854505
0.0312047 0.00383001 0.00117494
0.0464637 0.00550851 0.00167849
0.0669566 0.00791943 0.00234989
0.0918441 0.0119631 0.00331121
0.123522 0.0159304 0.00440986
0.165209 0.0198062 0.00579843
0.21648 0.0247501 0.00758373
0.271855 0.0310521 0.00965896
0.329107 0.037583 0.0117952
0.388922 0.044419 0.014023
0.449989 0.0513924 0.0162661
0.506096 0.0578012 0.0182803
0.554208 0.0632944 0.0199893
0.58587 0.0669108 0.0211032
0.600275 0.0685588 0.0216068
0.606516 0.0692607 0.0218204
0.609079 0.0695506 0.021912
0.610574 0.0697337 0.0219577
0.611536 0.0698405 0.0219883
0.6121 0.0699016 0.0220188
0.612573 0.0699626 0.022034
0.613031 0.0700084 0.0220493
0.613169 0.0700236 0.0220493
0.613169 0.0700236 0.0220493
0.00111391 0.00222782 0.000656138
0.0012665 0.00225834 0.000671397
0.00161746 0.00231937 0.000717174
0.00209049 0.00222782 0.000717174
0.00250248 0.00187686 0.000595102
0.00419623 0.0018616 0.000503548
0.00753796 0.00213626 0.000549325
0.0128939 0.00267033 0.000701915
0.0200046 0.00318914 0.000885023
0.0306401 0.00404364 0.0011902
0.0456092 0.00561532 0.00166323
0.0660868 0.00801099 0.00234989
0.0910353 0.0119478 0.00329595
0.122683 0.0158694 0.0043946
0.16437 0.0197452 0.00576791
0.215763 0.0246586 0.00756847
0.271305 0.0309758 0.0096437
0.328649 0.0375372 0.01178
0.388571 0.0443732 0.0140078
0.449729 0.0513619 0.0162509
0.505928 0.0577707 0.018265
0.554101 0.0632792 0.0199893
0.585824 0.0668956 0.0211032
0.600259 0.0685588 0.0216068
0.606516 0.0692607 0.0218204
0.609079 0.0695506 0.021912
0.610574 0.0697337 0.0219577
0.611536 0.0698405 0.0219883
0.6121 0.0699016 0.0220188
0.612573 0.0699626 0.022034
0.613031 0.0700084 0.0220493
0.613169 0.0700236 0.0220493
0.613169 0.0700236 0.0220493
0.00128176 0.0027924 0.00062562
0.00132753 0.00280766 0.00062562
0.00155642 0.00288396 0.000671397
0.00195315 0.00296025 0.000732433
0.00262455 0.00291447 0.000732433
0.0039826 0.0028687 0.00062562
0.00709545 0.00303655 0.000640879
0.0122683 0.00352483 0.00077821
0.0195621 0.00387579 0.000946059
0.0302739 0.00447089 0.00122072
0.0448768 0.00587472 0.00166323
0.0652476 0.00825513 0.00234989
0.0902419 0.0120394 0.00328069
0.121813 0.0158389 0.00436408
0.1635 0.0196689 0.00573739
0.21503 0.0245823 0.00753796
0.270741 0.0309148 0.00961318
0.328206 0.0374762 0.0117647
0.388235 0.0443427 0.0139925
0.449454 0.0513313 0.0162356
0.505745 0.0577554 0.018265
0.553979 0.0632639 0.0199741
0.585779 0.0668956 0.0211032
0.600259 0.0685435 0.0216068
0.6065 0.0692607 0.0218204
0.609079 0.0695506 0.021912
0.610574 0.0697337 0.0219577
0.611521 0.0698405 0.0219883
0.6121 0.0699016 0.0220188
0.612573 0.0699626 0.022034
0.613031 0.0700084 0.0220493
0.613169 0.0700236 0.0220493
0.613169 0.0700236 0.0220493
0.00184634 0.00436408 0.000732433
0.00183108 0.00434882 0.000732433
0.00196841 0.00437934 0.000747692
0.00218204 0.00444038 0.000793469
0.00285344 0.00448615 0.000808728
0.0040589 0.00451667 0.000793469
0.00697337 0.00463874 0.000793469
0.0118868 0.00503548 0.0009308
0.0193332 0.00526436 0.00108339
0.0302739 0.00567636 0.00132753
0.0446632 0.00701915 0.00177005
0.0647593 0.00935378 0.0024567
0.0897841 0.012726 0.00334173
0.120989 0.016022 0.00436408
0.162554 0.0196384 0.00570687
0.214237 0.0244907 0.00750744
0.270146 0.0308537 0.00959792
0.327733 0.0374304 0.0117342
0.387854 0.0442969 0.0139773
0.44918 0.0513008 0.0162356
0.505562 0.0577401 0.018265
0.553872 0.0632486 0.0199741
0.585718 0.0668956 0.0211032
0.600244 0.0685435 0.0216068
0.6065 0.0692607 0.0218204
0.609079 0.0695506 0.021912
0.610574 0.0697337 0.0219577
0.611521 0.0698405 0.0219883
0.6121 0.0699016 0.0220188
0.612573 0.0699626 0.022034
0.613031 0.0700084 0.0220493
0.613169 0.0700236 0.0220493
0.613169 0.0700236 0.0220493
0.0030518 0.00769055 0.00106813
0.0030518 0.00767529 0.00106813
0.00309758 0.00764477 0.00105287
0.00321965 0.00762951 0.00105287
0.00366217 0.00762951 0.00105287
0.00459297 0.00767529 0.00106813
0.00740063 0.00790417 0.00114443
0.0119936 0.00823987 0.00125124
0.0192721 0.00827039 0.00138857
0.0304112 0.00828565 0.0016022
0.0449989 0.00972 0.00205997
0.064744 0.0123903 0.00277714
0.0901656 0.0151522 0.00361639
0.120256 0.0169833 0.00444038
0.161273 0.0197299 0.00569162
0.213077 0.0243839 0.00746166
0.269291 0.0307469 0.00955215
0.327092 0.0373541 0.0117189
0.387381 0.0442359 0.013962
0.448829 0.0512551 0.0162203
0.505333 0.0577096 0.0182498
0.553719 0.0632334 0.0199741
0.585657 0.0668803 0.021088
0.600229 0.0685435 0.0216068
0.606485 0.0692607 0.0218204
0.609079 0.0695506 0.021912
0.610574 0.0697337 0.0219577
0.611521 0.0698405 0.0219883
0.6121 0.0699016 0.0220188
0.612573 0.0699626 0.022034
0.613031 0.0700084 0.0220493
0.613169 0.0700236 0.0220493
0.613169 0.0700236 0.0220493
0.00488289 0.0126802 0.00161746
0.00488289 0.0126497 0.0016022
0.00486763 0.0126192 0.00158694
0.00495918 0.0125734 0.00158694
0.00515755 0.0125277 0.00158694
0.00582895 0.0125124 0.00158694
0.00807202 0.012604 0.00164797
0.0124361 0.0129854 0.00175479
0.0193027 0.0132601 0.00190738
0.0300603 0.0131685 0.002121
0.0450294 0.014847 0.00260929
0.0648051 0.0183719 0.0034638
0.0919661 0.0207523 0.00428779
0.122057 0.021912 0.00500496
0.161227 0.0224765 0.00595102
0.211627 0.0246433 0.00743114
0.267964 0.0306096 0.00949111
0.326116 0.0372473 0.0116732
0.386664 0.0441596 0.0139315
0.448325 0.051194 0.0161898
0.505013 0.0576791 0.0182345
0.553536 0.0632181 0.0199588
0.58558 0.0668803 0.021088
0.600214 0.0685435 0.0216068
0.606485 0.0692607 0.0218204
0.609064 0.0695506 0.021912
0.610574 0.0697337 0.0219577
0.611521 0.0698405 0.0219883
0.6121 0.0699016 0.0220188
0.612573 0.0699626 0.022034
0.613031 0.0700084 0.0220493
0.613169 0.0700236 0.0220493
0.613169 0.0700236 0.0220493
0.0075227 0.0198825 0.00239567
0.00750744 0.019852 0.00239567
0.00750744 0.0198215 0.00238041
0.0075227 0.0197757 0.00238041
0.00759899 0.0197452 0.00238041
0.00787366 0.0197299 0.00238041
0.00895705 0.0198062 0.00241093
0.0126802 0.0202487 0.002533
0.0195315 0.0209201 0.00273136
0.0296025 0.0214542 0.00299077
0.0448157 0.0233158 0.00350958
0.064744 0.0273136 0.00440986
0.0928206 0.0296025 0.00527962
0.127184 0.0303197 0.00601205
0.164248 0.0304112 0.00682078
0.212772 0.0303655 0.00799573
0.26714 0.0315862 0.00952163
0.324865 0.0371862 0.0115969
0.385565 0.0440375 0.0138705
0.447501 0.0511025 0.016144
0.504509 0.0576181 0.0182193
0.553231 0.0631876 0.0199435
0.585458 0.066865 0.021088
0.600198 0.0685435 0.0216068
0.60647 0.0692607 0.0218204
0.609064 0.0695506 0.021912
0.610574 0.0697337 0.0219577
0.611521 0.0698405 0.0219883
0.6121 0.0699016 0.0220188
0.612573 0.0699626 0.022034
0.613031 0.0700084 0.0220493
0.613169 0.0700236 0.0220493
0.613169 0.0700236 0.0220493
0.0116579 0.0312047 0.00369268
0.0116274 0.0311589 0.00367742
0.0116121 0.0311131 0.00367742
0.0115969 0.0310674 0.00366217
0.0116121 0.0310369 0.00366217
0.0116274 0.0310063 0.00366217
0.011841 0.0309911 0.00366217
0.0136873 0.0312505 0.0037232
0.0196078 0.0320134 0.00392157
0.0295872 0.0331121 0.00424201
0.0450599 0.0355688 0.00483711
0.0657511 0.039353 0.00567636
0.0934768 0.0420081 0.00654612
0.131609 0.0423438 0.00740063
0.17145 0.0424201 0.00825513
0.216251 0.0421302 0.00920119
0.270207 0.0420386 0.010605
0.326741 0.0428321 0.0122072
0.385626 0.0453803 0.013962
0.446738 0.0511025 0.0160678
0.503731 0.0575418 0.018143
0.552666 0.0631113 0.019913
0.585214 0.0668345 0.0210727
0.600153 0.0685435 0.0215915
0.606455 0.0692607 0.0218204
0.609064 0.0695506 0.021912
0.610559 0.0697337 0.0219577
0.611521 0.0698405 0.0219883
0.6121 0.0699016 0.0220188
0.612573 0.0699626 0.022034
0.613031 0.0700084 0.0220493
0.613169 0.0700236 0.0220493
0.613169 0.0700236 0.0220493
0.0193332 0.0518959 0.00610361
0.0193179 0.0518349 0.00608835
0.0193027 0.0517891 0.00608835
0.0192874 0.0517433 0.00608835
0.0192569 0.0516823 0.00607309
0.0192569 0.0516365 0.00607309
0.0192569 0.0515755 0.00605783
0.0196078 0.051606 0.00607309
0.0233463 0.0521859 0.00621042
0.0319982 0.053254 0.0065156
0.0463722 0.0544594 0.0069276
0.0678721 0.0570077 0.00762951
0.0959182 0.0600595 0.00852979
0.134401 0.0606394 0.00941482
0.179675 0.0607156 0.0104067
0.225498 0.0616007 0.0114595
0.276234 0.0614023 0.0125734
0.333028 0.0612802 0.0141299
0.392126 0.0618753 0.0157778
0.451743 0.0626688 0.0173495
0.50634 0.0630655 0.0186923
0.553323 0.0646067 0.0199741
0.585061 0.0670176 0.0210117
0.600015 0.0685283 0.021561
0.606409 0.0692607 0.0218051
0.609064 0.0695506 0.021912
0.610559 0.0697337 0.0219577
0.611521 0.0698405 0.0219883
0.6121 0.0699016 0.0220188
0.612573 0.0699626 0.022034
0.613031 0.0700084 0.0220493
0.613169 0.0700236 0.0220493
0.613169 0.0700236 0.0220493
0.0294957 0.0790417 0.00929274
0.0294804 0.078996 0.00927749
0.0294652 0.0789349 0.00927749
0.0294347 0.0788891 0.00926223
0.0294194 0.0788434 0.00926223
0.0294041 0.0787823 0.00926223
0.0293736 0.0787213 0.00924697
0.0293584 0.078645 0.00923171
0.0295109 0.078706 0.00924697
0.0358129 0.079942 0.00952163
0.0484779 0.0817426 0.0099794
0.0703441 0.0834363 0.0106203
0.100404 0.0852064 0.011368
0.137911 0.0866865 0.012314
0.185016 0.0863203 0.0132906
0.234089 0.0878004 0.0145113
0.286076 0.090425 0.0159304
0.342336 0.0912947 0.0172274
0.401556 0.0909743 0.0185245
0.46183 0.0905928 0.0199893
0.517037 0.0899367 0.0213779
0.563363 0.0879835 0.0224002
0.592035 0.0832074 0.0226596
0.60325 0.076112 0.0222782
0.60647 0.0694133 0.0216983
0.609018 0.0695506 0.0218814
0.610559 0.0697337 0.0219577
0.611521 0.0698405 0.0219883
0.6121 0.0699016 0.0220188
0.612573 0.0699626 0.022034
0.613031 0.0700084 0.0220493
0.613169 0.0700236 0.0220493
0.613169 0.0700236 0.0220493
0.0420233 0.11281 0.0131991
0.0420081 0.112764 0.0131991
0.0419776 0.112718 0.0131838
0.0419623 0.112673 0.0131838
0.0419471 0.112627 0.0131838
0.0419318 0.112566 0.0131685
0.0419013 0.112505 0.0131685
0.0418708 0.112428 0.0131533
0.0418402 0.112322 0.013138
0.0433814 0.112688 0.0132296
0.054612 0.114824 0.0137179
0.0743114 0.117617 0.014435
0.105638 0.119875 0.0153506
0.145663 0.12256 0.016495
0.190143 0.122728 0.0174105
0.240818 0.122881 0.0184939
0.294896 0.125658 0.0199741
0.352514 0.128069 0.0214542
0.41265 0.129335 0.0228733
0.47361 0.129885 0.0242161
0.529763 0.129381 0.0253452
0.577081 0.127398 0.0261234
0.606409 0.121843 0.0262608
0.617304 0.112886 0.0257267
0.618418 0.100694 0.0247807
0.615091 0.0853895 0.0234226
0.610864 0.0705425 0.021912
0.611521 0.0698405 0.0219883
0.6121 0.0699016 0.0220188
0.612573 0.0699626 0.022034
0.613031 0.0700084 0.0220493
0.613169 0.0700236 0.0220493
0.613169 0.0700236 0.0220493
0.0571756 0.153719 0.0179294
0.0571603 0.153674 0.0179294
0.057145 0.153628 0.0179294
0.0571298 0.153597 0.0179141
0.0571145 0.153552 0.0179141
0.0570993 0.153506 0.0179141
0.057084 0.153445 0.0178988
0.0570535 0.153368 0.0178988
0.0570077 0.153262 0.0178836
0.0569772 0.15314 0.0178683
0.0629587 0.153841 0.0180819
0.0823529 0.156634 0.0188602
0.1131 0.160113 0.019913
0.155184 0.16466 0.0214084
0.199969 0.168429 0.0227665
0.249119 0.169192 0.0237736
0.303578 0.168978 0.0248722
0.363241 0.170535 0.0263218
0.425254 0.17258 0.0278477
0.487053 0.174044 0.0293126
0.543954 0.174502 0.0305638
0.591943 0.17348 0.0314641
0.622889 0.169497 0.0316777
0.635111 0.162005 0.0311131
0.637049 0.151339 0.0299992
0.633967 0.136233 0.0283055
0.627573 0.115236 0.0261845
0.618357 0.0880598 0.023743
0.612085 0.0699168 0.021973
0.612573 0.0699626 0.022034
0.613031 0.0700084 0.0220493
0.613169 0.0700236 0.0220493
0.613169 0.0700236 0.0220493
0.075349 0.202502 0.023621
0.0753338 0.202472 0.023621
0.0753185 0.202426 0.023621
0.0753033 0.202396 0.023621
0.075288 0.20235 0.0236057
0.0752728 0.202319 0.0236057
0.0752575 0.202258 0.0236057
0.075227 0.202197 0.0235904
0.0751965 0.202106 0.0235752
0.0751507 0.201984 0.0235599
0.0751049 0.201846 0.0235447
0.0872663 0.202701 0.0239109
0.120409 0.206027 0.0250553
0.165515 0.2112 0.0267185
0.211856 0.216602 0.028275
0.260975 0.221317 0.0296941
0.314717 0.222782 0.0307927
0.373709 0.221988 0.0320287
0.43711 0.222827 0.0335699
0.501091 0.224826 0.0351415
0.559747 0.225956 0.0364996
0.60885 0.225666 0.0375067
0.641382 0.222782 0.0378729
0.654917 0.216602 0.0374914
0.657664 0.207477 0.0365606
0.655741 0.195224 0.035172
0.650858 0.178164 0.0332189
0.642893 0.154284 0.0304417
0.630381 0.119051 0.0265812
0.614191 0.0743114 0.0223545
0.613031 0.0700084 0.0220493
0.613169 0.0700236 0.0220493
0.613169 0.0700236 0.0220493
0.0958114 0.257527 0.0300298
0.0957961 0.257496 0.0300298
0.0957809 0.257465 0.0300298
0.0957656 0.257435 0.0300298
0.0957656 0.257404 0.0300145
0.0957504 0.257374 0.0300145
0.0957351 0.257328 0.0300145
0.0957046 0.257267 0.0299992
0.0956741 0.257191 0.0299992
0.0956436 0.257099 0.029984
0.0955978 0.256962 0.0299687
0.0955673 0.25687 0.0299535
0.119677 0.258885 0.0307012
0.169238 0.26479 0.0324254
0.222568 0.269978 0.0341192
0.2748 0.276097 0.0357977
0.328771 0.281025 0.0373999
0.386984 0.284153 0.0389715
0.450263 0.284398 0.0403296
0.515084 0.284169 0.0417792
0.575723 0.284977 0.0432441
0.626596 0.285115 0.044358
0.661448 0.283055 0.0448615
0.67689 0.278004 0.0446479
0.680552 0.270237 0.0438697
0.679545 0.259861 0.0427253
0.675853 0.245747 0.0411078
0.669596 0.226307 0.0388495
0.659998 0.198932 0.0356756
0.645518 0.158709 0.0309758
0.622934 0.0967117 0.0245823
0.613169 0.0700236 0.0220493
0.613169 0.0700236 0.0220493
0.118425 0.318349 0.0371252
0.11841 0.318318 0.0371252
0.11841 0.318288 0.0371252
0.118395 0.318273 0.0371252
0.118379 0.318242 0.0371099
0.118379 0.318212 0.0371099
0.118364 0.318181 0.0371099
0.118349 0.318135 0.0371099
0.118318 0.318059 0.0370947
0.118288 0.317983 0.0370794
0.118242 0.317876 0.0370794
0.118196 0.317723 0.0370489
0.121782 0.318135 0.037171
0.16199 0.322408 0.0384833
0.224155 0.331609 0.0407263
0.285496 0.337407 0.0426032
0.344762 0.34313 0.04448
0.40354 0.348104 0.0462501
0.466545 0.352224 0.0480201
0.533303 0.354055 0.0496223
0.595376 0.354162 0.0509651
0.646616 0.353262 0.0520333
0.683314 0.351232 0.0526894
0.701045 0.346975 0.0526436
0.705837 0.340368 0.0520333
0.705806 0.331609 0.0510872
0.703136 0.319829 0.0497444
0.698268 0.303822 0.0479133
0.690639 0.281575 0.0453193
0.679454 0.250141 0.0416571
0.662745 0.203983 0.036286
0.635843 0.131228 0.0278172
0.613169 0.0700236 0.0220493
0.143481 0.385687 0.0449836
0.143465 0.385657 0.0449836
0.143465 0.385641 0.0449836
0.14345 0.385611 0.0449836
0.143435 0.385595 0.0449836
0.143435 0.385565 0.0449683
0.14342 0.385534 0.0449683
0.143404 0.385504 0.0449683
0.143389 0.385443 0.0449531
0.143359 0.385382 0.0449531
0.143328 0.38529 0.0449378
0.143282 0.385168 0.0449226
0.143221 0.385 0.0449073
0.156191 0.386587 0.0453498
0.214893 0.39588 0.0475776
0.284977 0.405402 0.0500801
0.355673 0.411765 0.0521553
0.420768 0.417319 0.0541238
0.486107 0.422889 0.0560922
0.553475 0.426612 0.0579385
0.617929 0.428992 0.0598764
0.671901 0.429938 0.0613107
0.710506 0.428733 0.0619821
0.729549 0.42504 0.0619059
0.734798 0.419226 0.0613107
0.735363 0.411673 0.0604562
0.733379 0.401648 0.059266
0.729488 0.388205 0.0576638
0.723384 0.369985 0.0555886
0.714473 0.344549 0.0526741
0.701701 0.308843 0.0485237
0.682246 0.256077 0.0423743
0.651194 0.172534 0.0326085
0.17084 0.459159 0.0535592
0.170825 0.459144 0.0535592
0.170825 0.459129 0.0535592
0.170809 0.459113 0.0535592
0.170809 0.459083 0.0535592
0.170794 0.459068 0.0535439
0.170794 0.459037 0.0535439
0.170779 0.459007 0.0535439
0.170764 0.458961 0.0535439
0.170733 0.458915 0.0535286
0.170718 0.458839 0.0535286
0.170672 0.458732 0.0535134
0.170626 0.458595 0.0534981
0.170565 0.458427 0.0534829
0.196201 0.461784 0.0543679
0.274174 0.475868 0.0575418
0.352667 0.484749 0.0601053
0.43035 0.491585 0.0623789
0.501488 0.497856 0.0645609
0.573388 0.50425 0.0667582
0.640894 0.507866 0.0686656
0.697124 0.509728 0.0705577
0.738216 0.50985 0.0719768
0.759533 0.507591 0.0724498
0.765667 0.503197 0.0721599
0.767132 0.497368 0.0715496
0.766064 0.489616 0.0706493
0.763348 0.47924 0.069398
0.758679 0.464897 0.0674907
0.751812 0.445045 0.0647746
0.741711 0.416526 0.0611276
0.726711 0.375738 0.0562753
0.704387 0.315648 0.0493172
0.200366 0.538247 0.0627909
0.200366 0.538231 0.0627909
0.200351 0.538216 0.0627909
0.200351 0.538201 0.0627909
0.200351 0.538186 0.0627756
0.200336 0.53817 0.0627756
0.200336 0.538155 0.0627756
0.20032 0.538125 0.0627756
0.200305 0.538094 0.0627756
0.20029 0.538048 0.0627604
0.200275 0.537987 0.0627604
0.200244 0.537896 0.0627451
0.200198 0.537789 0.0627298
0.200153 0.537652 0.0627146
0.200076 0.537469 0.0626993
0.24358 0.543984 0.064271
0.338781 0.560265 0.0680705
0.427008 0.569497 0.0707866
0.51046 0.576959 0.0733196
0.587518 0.58381 0.0756847
0.661814 0.590021 0.0779278
0.72253 0.593729 0.0796216
0.766812 0.595071 0.080827
0.790768 0.593927 0.0814069
0.797665 0.59057 0.0813458
0.799893 0.586007 0.0810101
0.799512 0.579934 0.0804761
0.797681 0.571817 0.0796979
0.794278 0.560784 0.0786145
0.789242 0.545754 0.0771038
0.782025 0.524865 0.0750134
0.771054 0.494926 0.0713817
0.754864 0.451438 0.0656748
0.231434 0.620386 0.0723735
0.231434 0.620371 0.0723735
0.231418 0.620356 0.0723735
0.231418 0.62034 0.0723735
0.231418 0.62034 0.0723583
0.231403 0.620325 0.0723583
0.231403 0.62031 0.0723583
0.231388 0.620279 0.0723583
0.231388 0.620264 0.0723583
0.231373 0.620218 0.0723583
0.231357 0.620172 0.072343
0.231327 0.620111 0.072343
0.231296 0.620035 0.0723278
0.23125 0.619913 0.0723125
0.231205 0.619776 0.0722972
0.231128 0.619577 0.072282
0.297993 0.631205 0.0748913
0.408713 0.647562 0.078996
0.506432 0.657465 0.0819715
0.595422 0.665492 0.0847181
0.676463 0.672679 0.0872053
0.745083 0.678325 0.08925
0.79498 0.681376 0.0906386
0.822446 0.68159 0.0912337
0.830152 0.679286 0.0911421
0.833188 0.675975 0.0908522
0.833432 0.671443 0.0903792
0.832364 0.665339 0.0897078
0.83003 0.65713 0.0887922
0.826429 0.646021 0.087541
0.821347 0.630869 0.085832
0.813443 0.609094 0.0835279
0.801724 0.577539 0.080354
0.260822 0.696483 0.0812543
0.260807 0.696483 0.0812543
0.260807 0.696468 0.0812543
0.260807 0.696468 0.0812543
0.260807 0.696452 0.0812543
0.260807 0.696452 0.0812543
0.260792 0.696437 0.081239
0.260792 0.696422 0.081239
0.260792 0.696406 0.081239
0.260777 0.696376 0.081239
0.260761 0.696345 0.081239
0.260746 0.696315 0.0812238
0.260731 0.696254 0.0812238
0.2607 0.696178 0.0812085
0.260655 0.696086 0.0812085
0.260609 0.695949 0.0811933
0.260548 0.695781 0.0811627
0.355062 0.712963 0.0849928
0.480858 0.729046 0.0892958
0.587472 0.739666 0.0925917
0.681254 0.748241 0.095491
0.759365 0.75523 0.0979019
0.817929 0.759976 0.0996414
0.851087 0.761654 0.100526
0.859709 0.760388 0.100572
0.863676 0.758328 0.100435
0.864576 0.755383 0.10013
0.864347 0.751446 0.0997024
0.863096 0.746151 0.0990921
0.860975 0.738994 0.0982681
0.857908 0.729305 0.0971542
0.853117 0.715923 0.095613
0.845228 0.694697 0.0931411
0.286488 0.762188 0.0889143
0.286473 0.762173 0.0889143
0.286473 0.762173 0.0889143
0.286473 0.762173 0.0889143
0.286473 0.762158 0.0889143
0.286473 0.762158 0.0889143
0.286473 0.762158 0.0889143
0.286458 0.762142 0.0889143
0.286458 0.762127 0.0889143
0.286458 0.762112 0.0889143
0.286442 0.762097 0.0888991
0.286442 0.762066 0.0888991
0.286427 0.762036 0.0888991
0.286397 0.76199 0.0888991
0.286381 0.761929 0.0888838
0.286351 0.761837 0.0888685
0.286305 0.76173 0.0888685
0.286244 0.761593 0.0888533
0.412314 0.783841 0.0938888
0.553567 0.800305 0.098497
0.668132 0.811582 0.102098
0.762798 0.820371 0.105043
0.830945 0.826474 0.107134
0.872389 0.829587 0.108339
0.884535 0.829328 0.108568
0.889464 0.828183 0.108553
0.890883 0.826368 0.108385
0.891249 0.823926 0.108125
0.890776 0.82063 0.107759
0.889647 0.81619 0.107256
0.887968 0.810208 0.106569
0.88513 0.802075 0.105623
0.88098 0.79089 0.104326
0.30782 0.816739 0.0952773
0.30782 0.816739 0.0952773
0.30782 0.816739 0.0952773
0.30782 0.816739 0.0952773
0.307805 0.816724 0.0952773
0.307805 0.816724 0.0952773
0.307805 0.816724 0.0952773
0.307805 0.816724 0.0952773
0.307805 0.816709 0.0952773
0.307805 0.816693 0.0952773
0.30779 0.816693 0.0952773
0.30779 0.816678 0.0952773
0.307774 0.816648 0.0952621
0.307774 0.816617 0.0952621
0.307759 0.816587 0.0952621
0.307729 0.816526 0.0952468
0.307713 0.816464 0.0952468
0.307668 0.816373 0.0952316
0.307622 0.816266 0.0952163
0.46981 0.843381 0.101549
0.626261 0.86067 0.106538
0.746654 0.872404 0.110338
0.833478 0.880522 0.113054
0.885054 0.885008 0.114626
0.90396 0.885893 0.115114
0.910445 0.885405 0.11519
0.912306 0.884337 0.115114
0.913115 0.882872 0.114977
0.913146 0.880888 0.114763
0.912688 0.878218 0.114458
0.911894 0.874632 0.114061
0.910292 0.869764 0.113497
0.90782 0.863142 0.112734
0.323064 0.855695 0.0998093
0.323064 0.855695 0.0998093
0.323064 0.855695 0.0998093
0.323064 0.855695 0.0998093
0.323064 0.855695 0.099794
0.323064 0.855695 0.099794
0.323064 0.855695 0.099794
0.323064 0.855695 0.099794
0.323064 0.85568 0.099794
0.323064 0.85568 0.099794
0.323049 0.85568 0.099794
0.323049 0.855665 0.099794
0.323049 0.85565 0.099794
0.323049 0.855634 0.099794
0.323033 0.855619 0.099794
0.323033 0.855604 0.099794
0.323018 0.855558 0.099794
0.323003 0.855528 0.0997787
0.322972 0.855467 0.0997787
0.322942 0.85539 0.0997635
0.525429 0.885573 0.107271
0.696254 0.904021 0.112703
0.815534 0.915999 0.116518
0.887633 0.923095 0.118807
0.91635 0.92549 0.119677
0.924849 0.925704 0.119875
0.927306 0.925307 0.119875
0.928573 0.924666 0.119844
0.929046 0.923751 0.119753
0.929107 0.92253 0.119615
0.929061 0.920867 0.119432
0.928435 0.918608 0.119173
0.927291 0.915541 0.118822
0.333867 0.883268 0.102998
0.333867 0.883268 0.102998
0.333867 0.883268 0.102998
0.333867 0.883268 0.102998
0.333867 0.883268 0.102998
0.333867 0.883268 0.102998
