LUTs/DJI_DLog_to_ACEScc_AP0_1.cube
TITLE "Generated by Resolve"
LUT_3D_SIZE 33
0.0169833 0.01149 0.00782788
0.0210575 0.0117189 0.00747692
0.0259251 0.0120241 0.00701915
0.0323033 0.0124514 0.00640879
0.049134 0.0136416 0.00515755
0.0906539 0 0
0.144244 0 0
0.200916 0 0
0.26157 0.0390631 0
0.308186 0.0852064 0
0.346792 0.123461 0
0.379217 0.155459 0
0.408286 0.183978 0
0.436606 0.211597 0
0.464744 0.24239 0
0.493141 0.269871 0
0.52195 0.295521 0
0.551034 0.320241 0
0.580102 0.343893 0
0.608133 0.36643 0
0.632074 0.384924 0
0.65211 0.401282 0
0.670634 0.421485 0
0.687694 0.43975 0
0.703548 0.457282 0
0.718273 0.474708 0.0285496
0.731945 0.492439 0.0846418
0.744137 0.510964 0.128542
0.753445 0.530556 0.166812
0.761639 0.552071 0.201968
0.768658 0.575936 0.235889
0.774517 0.602319 0.269291
0.781247 0.630854 0.302159
0.0180056 0.0174563 0.00721752
0.0220035 0.0176852 0.00689708
0.0267643 0.0179599 0.00648508
0.033051 0.0183566 0.00593576
0.0501259 0.0195163 0.00483711
0.0914626 0.00199893 0
0.145464 0 0
0.201785 0 0
0.262043 0.0395514 0
0.308461 0.085481 0
0.346975 0.123629 0
0.379324 0.155566 0
0.408362 0.184054 0
0.436652 0.211658 0
0.46479 0.242435 0
0.493187 0.270161 0
0.521965 0.295613 0
0.551049 0.320272 0
0.580118 0.343908 0
0.608148 0.366461 0
0.632074 0.384985 0
0.652125 0.40206 0
0.670665 0.422171 0
0.687724 0.440345 0
0.703563 0.457786 0
0.718303 0.47512 0.0308843
0.731975 0.49279 0.0858778
0.744152 0.511269 0.129305
0.75346 0.530816 0.167315
0.761654 0.5523 0.202335
0.768673 0.57612 0.236164
0.774533 0.602487 0.26949
0.781247 0.630976 0.302296
0.0192721 0.0244297 0.00650034
0.0231785 0.0246281 0.00621042
0.0278325 0.0248875 0.00585946
0.0339818 0.0252537 0.00537118
0.0513466 0.0263523 0.00447089
0.0925002 0.0074464 0
0.14696 0 0
0.202853 0 0
0.262608 0.0401312 0
0.308797 0.0858167 0
0.347189 0.123842 0
0.379461 0.155688 0
0.408438 0.184146 0
0.436728 0.211719 0
0.464836 0.242725 0
0.493233 0.270604 0
0.521996 0.29572 0
0.551064 0.320317 0
0.580133 0.343908 0
0.608164 0.366552 0
0.63209 0.385077 0
0.652171 0.403159 0
0.670695 0.423041 0
0.687739 0.441062 0
0.703593 0.458396 0
0.718318 0.475624 0.0336919
0.731991 0.493233 0.0873884
0.744167 0.51165 0.130236
0.753475 0.531151 0.167941
0.761669 0.552575 0.202762
0.768673 0.576364 0.236484
0.774533 0.602686 0.269734
0.781262 0.631128 0.302464
0.0210269 0.0333562 0.00553903
0.0248112 0.0335393 0.00531014
0.0293278 0.0337682 0.00502022
0.0352789 0.0341039 0.00462348
0.0530251 0.0351415 0.00401312
0.0939345 0.0143893 0
0.149035 0 0
0.204303 0 0
0.263386 0.04094 0
0.309255 0.0862593 0
0.347463 0.124132 0
0.379614 0.15584 0
0.408545 0.184253 0
0.43682 0.212055 0
0.464942 0.244068 0
0.493294 0.271214 0
0.522042 0.295872 0
0.551095 0.320363 0
0.580148 0.343938 0
0.608179 0.366781 0
0.632105 0.385229 0
0.652216 0.404868 0
0.670741 0.424262 0
0.687785 0.442054 0
0.703639 0.459236 0
0.718349 0.47631 0.0373999
0.732021 0.493828 0.0894331
0.744198 0.512154 0.131502
0.753491 0.531594 0.16878
0.7617 0.552956 0.203372
0.768688 0.576684 0.236942
0.774548 0.602945 0.270054
0.781262 0.631342 0.302693
0.0250706 0.0597238 0.00306706
0.028397 0.0599374 0.00289921
0.0323796 0.0602274 0.00270085
0.0376287 0.0606241 0.00241093
0.054963 0.0617075 0.00244144
0.0952621 0.0385595 0
0.152361 0.00318914 0
0.206683 0 0
0.264683 0.0442359 0
0.310002 0.0881361 0
0.347906 0.125429 0
0.379812 0.157153 0
0.408728 0.186481 0
0.437034 0.214618 0
0.465126 0.246693 0
0.493416 0.272328 0
0.522118 0.296132 0
0.551156 0.320485 0
0.580209 0.344518 0
0.60824 0.367468 0
0.632181 0.386847 0
0.652338 0.408286 0
0.670832 0.42652 0
0.687861 0.44387 0
0.7037 0.460731 0
0.71841 0.477562 0.0437476
0.732082 0.494911 0.093019
0.744244 0.513085 0.133745
0.753536 0.532387 0.170291
0.76173 0.553643 0.204456
0.768704 0.577264 0.237751
0.774563 0.603433 0.270649
0.781292 0.631724 0.303105
0.0117189 0.110094 0
0.0135042 0.110231 0
0.015671 0.110414 0
0.0204471 0.110719 0
0.0345312 0.109697 0
0.0831769 0.0996414 0
0.155642 0.0847639 0
0.21149 0.0747082 0
0.267781 0.0889601 0
0.311803 0.114961 0
0.348913 0.141863 0
0.380331 0.170565 0
0.409277 0.200534 0
0.437613 0.227283 0
0.465553 0.254994 0
0.49369 0.275929 0
0.522332 0.298665 0
0.551385 0.324239 0
0.580423 0.348638 0
0.608423 0.371771 0
0.632425 0.393835 0
0.652522 0.413199 0
0.671 0.430793 0
0.688014 0.44744 0
0.703838 0.463752 0
0.718532 0.480171 0.0558938
0.732189 0.497154 0.100114
0.74435 0.515007 0.138323
0.753628 0.534051 0.173419
0.761791 0.555077 0.206714
0.76875 0.578485 0.239429
0.774609 0.604471 0.271901
0.781338 0.632547 0.303975
0.0405432 0.178805 0
0.0407416 0.178973 0
0.0410925 0.179232 0
0.0416114 0.179614 0
0.0489662 0.180056 0
0.0868696 0.181231 0
0.166644 0.18436 0
0.221973 0.182177 0
0.273899 0.183383 0
0.315373 0.189944 0
0.350744 0.199649 0
0.381353 0.219471 0
0.410483 0.240406 0
0.438773 0.257145 0
0.466468 0.27509 0
0.494484 0.294575 0
0.523018 0.316045 0
0.551919 0.337804 0
0.58088 0.360082 0
0.60885 0.383108 0
0.632746 0.402564 0
0.652796 0.42005 0
0.671229 0.436377 0
0.688212 0.452125 0
0.704021 0.46775 0.0247807
0.718715 0.483635 0.0701152
0.732341 0.500114 0.108858
0.744472 0.517586 0.144183
0.753735 0.536278 0.177508
0.761883 0.556985 0.209705
0.768795 0.580133 0.241672
0.774685 0.605844 0.273548
0.781399 0.633646 0.305135
0.110903 0.250278 0
0.110979 0.250355 0
0.11107 0.250446 0
0.111482 0.250568 0
0.115038 0.250797 0
0.130388 0.251438 0
0.178866 0.252842 0
0.236072 0.255253 0
0.283009 0.258366 0
0.321202 0.262333 0
0.353918 0.268742 0
0.383551 0.277775 0
0.412665 0.286366 0
0.440833 0.297047 0
0.468299 0.309957 0
0.495918 0.32401 0
0.524117 0.33959 0
0.552789 0.356878 0
0.581567 0.375631 0
0.609369 0.394965 0
0.633158 0.412436 0
0.653132 0.428153 0
0.671534 0.443229 0
0.688487 0.45803 0.010956
0.704265 0.472847 0.0498817
0.718929 0.488029 0.0857099
0.73254 0.50396 0.119295
0.74464 0.520912 0.151385
0.753872 0.539162 0.182681
0.762005 0.559503 0.213535
0.768887 0.5823 0.244556
0.774762 0.60766 0.2757
0.781476 0.635081 0.30663
0.168429 0.308049 0.0162509
0.168475 0.308095 0.0162814
0.168643 0.308125 0.0163272
0.169055 0.308186 0.0163729
0.170199 0.308293 0.0164645
0.175525 0.308537 0.0166171
0.199939 0.309026 0.0165713
0.254398 0.310246 0.0158999
0.294911 0.311604 0.014786
0.328634 0.313741 0.0137636
0.358404 0.317021 0.0131533
0.387182 0.321141 0.0121157
0.415686 0.326177 0.0101778
0.443565 0.332952 0.00808728
0.470726 0.341604 0.00598154
0.497871 0.351766 0.00263981
0.525612 0.3635 0
0.553948 0.377127 0
0.582483 0.392508 0
0.610071 0.408804 0
0.633692 0.424002 0
0.653605 0.43798 0
0.671931 0.451728 0.0218967
0.688838 0.4654 0.0475013
0.704585 0.479271 0.0747845
0.719203 0.493629 0.102937
0.732784 0.508843 0.131456
0.744854 0.525185 0.160159
0.75407 0.542901 0.18912
0.762188 0.562768 0.218357
0.769009 0.585107 0.248234
0.774899 0.610025 0.278462
0.781598 0.636957 0.308568
0.210742 0.350591 0.058381
0.210834 0.350591 0.0583963
0.210971 0.350607 0.0583963
0.2112 0.350622 0.0584115
0.211734 0.350652 0.0584268
0.214755 0.350668 0.0583963
0.237552 0.35082 0.0580758
0.278904 0.351339 0.0573281
0.309636 0.352163 0.0567178
0.337362 0.353658 0.0563821
0.364477 0.355749 0.0560769
0.391867 0.358419 0.0554665
0.419455 0.361837 0.0544289
0.446891 0.366247 0.0529335
0.473762 0.372061 0.0513313
0.50042 0.379385 0.049424
0.527626 0.388205 0.046479
0.55552 0.398764 0.042359
0.583673 0.411093 0.0374762
0.610986 0.424567 0.0340276
0.634379 0.437476 0.0408026
0.6542 0.449744 0.0500649
0.672435 0.462013 0.0630045
0.689281 0.474449 0.0796979
0.704967 0.487236 0.0993515
0.719554 0.500664 0.121508
0.733104 0.515053 0.145418
0.745113 0.530648 0.170657
0.754284 0.547707 0.197101
0.762325 0.566964 0.224537
0.769116 0.588739 0.25301
0.775067 0.613108 0.281987
0.78175 0.639399 0.311055
0.247639 0.386938 0.0941787
0.247929 0.386954 0.0941939
0.248325 0.386969 0.0941939
0.249149 0.386984 0.0942092
0.251713 0.38703 0.0941939
0.260349 0.387198 0.0941939
0.280491 0.38761 0.0941634
0.302068 0.388266 0.0941939
0.324315 0.389166 0.094255
0.347494 0.390341 0.0943008
0.37174 0.391806 0.0942397
0.397162 0.393576 0.0938582
0.423499 0.395758 0.09308
0.450294 0.398535 0.0918288
0.476936 0.402365 0.0904097
0.503349 0.407492 0.0889143
0.530129 0.413901 0.0869306
0.557504 0.421836 0.0843366
0.585214 0.431449 0.0814984
0.612131 0.442283 0.0803082
0.635279 0.45304 0.0839551
0.654948 0.463569 0.0896315
0.673075 0.474311 0.0979782
0.689845 0.48542 0.109499
0.705455 0.497032 0.124025
0.719982 0.509407 0.14139
0.733471 0.522835 0.161151
0.745434 0.53756 0.183032
0.754574 0.553841 0.206806
0.762524 0.572366 0.232151
0.769284 0.593423 0.259007
0.77525 0.617014 0.286778
0.781979 0.642557 0.314229
0.282261 0.420859 0.127306
0.282795 0.420874 0.127321
0.283497 0.420905 0.127337
0.284642 0.420935 0.127352
0.287877 0.421027 0.127382
0.297292 0.421271 0.127428
0.312337 0.421668 0.127474
0.327977 0.422187 0.127565
0.345006 0.422889 0.127687
0.363485 0.423819 0.127871
0.383551 0.42501 0.128054
0.405325 0.426474 0.12813
0.428885 0.428153 0.127871
0.453956 0.430152 0.127184
0.479866 0.432731 0.126116
0.506065 0.436194 0.124819
0.532662 0.44065 0.123125
0.559701 0.446342 0.121019
0.586969 0.453529 0.118898
0.613535 0.461997 0.117922
0.636362 0.470771 0.12018
0.655863 0.479591 0.123873
0.673838 0.488823 0.129686
0.690501 0.498543 0.137957
0.706035 0.508904 0.148867
0.720485 0.520134 0.162463
0.733913 0.532494 0.178683
0.7458 0.546212 0.197375
0.75491 0.561593 0.218418
0.762722 0.579217 0.241581
0.769528 0.59942 0.266407
0.775509 0.622049 0.292744
0.782254 0.646571 0.317952
0.31809 0.451743 0.157107
0.318914 0.451759 0.157107
0.319951 0.451789 0.157122
0.321538 0.451835 0.157122
0.325704 0.451911 0.157122
0.333837 0.45211 0.157137
0.343954 0.452369 0.157137
0.355459 0.45272 0.157168
0.36875 0.453208 0.157214
0.383703 0.45388 0.157321
0.400259 0.45481 0.157504
0.418402 0.456077 0.157778
0.438224 0.457755 0.15816
0.4598 0.459876 0.158526
0.483223 0.462409 0.158663
0.508324 0.465202 0.158175
0.534676 0.468299 0.156802
0.561654 0.472145 0.154833
0.588754 0.477302 0.152941
0.615045 0.483757 0.151675
0.637537 0.4907 0.152636
0.65687 0.497932 0.155444
0.674693 0.505684 0.159655
0.691249 0.514031 0.165774
0.706661 0.52311 0.17409
0.721035 0.53312 0.184802
0.734371 0.544305 0.198032
0.746197 0.556954 0.213825
0.755215 0.571283 0.232197
0.762997 0.587869 0.252918
0.769802 0.606943 0.275502
0.775891 0.628428 0.300023
0.782574 0.651591 0.322286
0.347875 0.481621 0.189517
0.348821 0.481636 0.189532
0.350011 0.481666 0.189532
0.35169 0.481697 0.189532
0.354803 0.481758 0.189548
0.361471 0.481895 0.189563
0.368841 0.482078 0.189502
0.377981 0.482322 0.189334
0.388785 0.482658 0.188998
0.401236 0.483116 0.188434
0.415442 0.483757 0.187625
0.431312 0.484672 0.186358
0.448814 0.486 0.186175
0.467872 0.487877 0.18677
0.488655 0.49041 0.187625
0.511498 0.493416 0.188388
0.536507 0.496422 0.188312
0.563134 0.499321 0.186999
0.590219 0.502907 0.18529
0.616373 0.507622 0.184024
0.638605 0.512932 0.184009
0.657816 0.5187 0.185657
0.675486 0.525048 0.188937
0.691951 0.532052 0.193561
0.707271 0.539864 0.2
0.721553 0.548638 0.208469
0.734829 0.558648 0.219211
0.746563 0.570092 0.232425
0.75552 0.583246 0.248219
0.763333 0.598611 0.266331
0.770214 0.616327 0.286534
0.776287 0.636255 0.308232
0.783032 0.657908 0.32752
0.372473 0.511437 0.214939
0.373144 0.511452 0.214939
0.373999 0.511467 0.214954
0.375235 0.511498 0.214954
0.377584 0.511559 0.214969
0.383017 0.511681 0.215
0.389166 0.511833 0.21503
0.396582 0.512032 0.215061
0.405295 0.512306 0.215076
0.415793 0.512657 0.215076
0.428077 0.513146 0.214969
0.442206 0.513817 0.214725
0.458167 0.514778 0.214298
0.475883 0.516152 0.214343
0.495232 0.518166 0.215061
0.51632 0.520943 0.216144
0.539483 0.524239 0.217227
0.564736 0.527489 0.217517
0.591287 0.530404 0.216617
0.617288 0.533745 0.215457
0.639323 0.537621 0.215106
0.658473 0.542046 0.216007
0.676066 0.547112 0.218494
0.692485 0.552865 0.222019
0.707729 0.559426 0.227008
0.72195 0.566979 0.233692
0.735149 0.575723 0.242374
0.746853 0.585901 0.253208
0.755825 0.597742 0.266423
0.763745 0.611643 0.281727
0.770794 0.627756 0.299779
0.776898 0.645884 0.317601
0.783658 0.665568 0.333318
0.395743 0.541634 0.240894
0.396109 0.54165 0.240909
0.396612 0.541665 0.240909
0.397406 0.541695 0.240925
0.399084 0.541741 0.24094
0.403525 0.541848 0.240955
0.408988 0.542 0.240986
0.414725 0.542184 0.241032
0.421897 0.542443 0.241108
0.430594 0.542779 0.241199
0.44094 0.543221 0.241337
0.453086 0.543832 0.24152
0.467201 0.544671 0.241794
0.483299 0.545846 0.242222
0.501457 0.547524 0.242863
0.521248 0.549767 0.243793
0.543374 0.552529 0.244816
0.567483 0.555642 0.24567
0.592981 0.558755 0.24593
0.618265 0.561669 0.245533
0.639857 0.56463 0.245426
0.658915 0.567987 0.246601
0.676417 0.571923 0.248661
0.692805 0.576532 0.251423
0.708019 0.581903 0.255192
0.722194 0.588205 0.260395
0.735424 0.595697 0.267155
0.747066 0.604471 0.275776
0.756222 0.614816 0.286473
0.764355 0.627054 0.299626
0.771466 0.641199 0.313527
0.77763 0.657221 0.327077
0.784466 0.674586 0.339498
0.422492 0.572412 0.267704
0.422675 0.572412 0.26772
0.422934 0.572427 0.26772
0.423346 0.572457 0.267735
0.424216 0.572488 0.26775
0.426581 0.57258 0.267781
0.429816 0.572702 0.267826
0.434348 0.572869 0.267903
0.440177 0.573114 0.267979
0.447303 0.573419 0.268101
0.455802 0.573846 0.268269
0.466072 0.574411 0.268498
0.478202 0.575204 0.268833
0.492363 0.576288 0.269306
0.50869 0.577844 0.270039
0.526802 0.579934 0.271061
0.54757 0.582452 0.272145
0.570932 0.584878 0.272755
0.595758 0.58732 0.272953
0.620157 0.589929 0.273075
0.640986 0.592584 0.274266
0.659709 0.595422 0.276204
0.676997 0.598627 0.278172
0.693233 0.602365 0.280476
0.7084 0.606775 0.283391
0.722576 0.611948 0.287327
0.735759 0.618112 0.292653
0.747524 0.625544 0.299702
0.756878 0.634195 0.307652
0.765179 0.644587 0.317052
0.772396 0.656611 0.326696
0.778653 0.670207 0.336507
0.785489 0.684672 0.345815
0.448356 0.603616 0.293385
0.448386 0.603616 0.293385
0.448417 0.603632 0.2934
0.448447 0.603647 0.2934
0.448539 0.603662 0.293431
0.449226 0.603723 0.293462
0.451392 0.60383 0.293507
0.455817 0.603998 0.293568
0.460517 0.604196 0.293645
0.466361 0.604471 0.293751
0.473335 0.604837 0.293889
0.481926 0.605325 0.294087
0.492287 0.605982 0.294362
0.504631 0.606882 0.294759
0.51928 0.608133 0.295293
0.53576 0.609766 0.29601
0.554864 0.611872 0.296895
0.576379 0.614191 0.297673
0.599832 0.616464 0.2981
0.623178 0.618692 0.298238
0.643137 0.62092 0.298802
0.661326 0.623377 0.300893
0.678294 0.626108 0.30338
0.694301 0.629236 0.305837
0.709316 0.632853 0.308675
0.723415 0.637125 0.312078
0.736629 0.642222 0.316167
0.748379 0.648203 0.320684
0.757931 0.655283 0.325948
0.766354 0.663706 0.332067
0.773693 0.673396 0.338598
0.779965 0.684092 0.345357
0.786679 0.695384 0.351858
0.473213 0.634714 0.317037
0.473289 0.63473 0.317037
0.473396 0.63473 0.317052
0.473548 0.634745 0.317052
0.473884 0.634775 0.317067
0.474739 0.634836 0.317098
0.476249 0.634913 0.317128
0.478614 0.635035 0.317174
0.482307 0.635203 0.317235
0.487068 0.635431 0.317327
0.492912 0.635737 0.317433
0.500053 0.636133 0.317571
0.508812 0.636683 0.317769
0.519646 0.637415 0.318044
0.532357 0.638376 0.31841
0.547204 0.639658 0.318883
0.564599 0.641306 0.319448
0.58436 0.643259 0.320058
0.605905 0.64535 0.320531
0.627665 0.64744 0.320836
0.646494 0.649424 0.321111
0.663966 0.651514 0.321736
0.680507 0.653819 0.323415
0.696193 0.656428 0.325917
0.710994 0.659373 0.328206
0.724956 0.662776 0.330846
0.738064 0.666758 0.333745
0.749828 0.671427 0.337026
0.759487 0.676814 0.340597
0.767941 0.682994 0.344457
0.775265 0.690044 0.348608
0.781476 0.698146 0.353216
0.78819 0.707942 0.358343
0.495506 0.663462 0.336812
0.495628 0.663478 0.336812
0.495781 0.663478 0.336812
0.49601 0.663493 0.336828
0.496452 0.663523 0.336828
0.49749 0.663584 0.336858
0.499107 0.663661 0.336873
0.501579 0.663767 0.336904
0.504433 0.663905 0.33695
0.508247 0.664103 0.337011
0.512932 0.664363 0.337087
0.518914 0.664698 0.337194
0.526513 0.665156 0.337331
0.535714 0.665751 0.337499
0.546807 0.666529 0.337743
0.559991 0.667567 0.338048
0.575753 0.668894 0.338415
0.593713 0.670512 0.338811
0.613458 0.672328 0.339162
0.633417 0.674189 0.339437
0.65098 0.675898 0.339635
0.667521 0.677638 0.339834
0.683482 0.6795 0.340261
0.698711 0.681514 0.341222
0.713237 0.683787 0.343023
0.727001 0.686381 0.345037
0.739971 0.689204 0.347066
0.751614 0.692485 0.34934
0.761288 0.696468 0.351766
0.769787 0.701244 0.354528
0.777127 0.70692 0.357534
0.783291 0.713405 0.36083
0.789944 0.721401 0.364721
0.517296 0.687907 0.351766
0.517494 0.687922 0.351781
0.517693 0.687938 0.351781
0.517937 0.687953 0.351781
0.518395 0.687968 0.351781
0.519387 0.688029 0.351797
0.52079 0.688106 0.351827
0.522713 0.688197 0.351843
0.525154 0.688334 0.351873
0.528222 0.688502 0.351919
0.532311 0.688731 0.35198
0.537423 0.689036 0.352056
0.54377 0.689433 0.352148
0.55172 0.689967 0.352285
0.561456 0.690654 0.352438
0.573297 0.691569 0.352651
0.587411 0.692729 0.352911
0.603754 0.694148 0.353185
0.62179 0.695766 0.353429
0.639719 0.697414 0.353643
0.655924 0.69897 0.353796
0.671687 0.700557 0.353948
0.6869 0.70219 0.354147
0.701686 0.703929 0.354498
0.715877 0.705806 0.355306
0.729381 0.707897 0.356512
0.742199 0.710277 0.358083
0.75375 0.713024 0.359854
0.763424 0.716152 0.361578
0.771908 0.719875 0.363546
0.779263 0.724483 0.365835
0.785412 0.729976 0.368383
0.791974 0.736431 0.371252
0.53933 0.711147 0.364309
0.539467 0.711162 0.364309
0.539635 0.711177 0.364309
0.539864 0.711177 0.364309
0.540291 0.711208 0.364309
0.541176 0.711254 0.364324
0.542367 0.71133 0.36434
0.543923 0.711421 0.364355
0.545907 0.711543 0.364385
0.548486 0.711696 0.364416
0.551827 0.71191 0.364462
0.556146 0.7122 0.364508
0.561624 0.712566 0.364584
0.568399 0.713054 0.364675
0.577035 0.713695 0.364797
0.587579 0.714519 0.364935
0.600183 0.715572 0.365118
0.614786 0.716854 0.365301
0.630869 0.718288 0.365469
0.646586 0.719753 0.365606
0.661601 0.721187 0.365728
0.676417 0.722652 0.365835
0.690898 0.724163 0.365942
0.705104 0.72575 0.36611
0.718898 0.727443 0.36643
0.732128 0.72929 0.367056
0.744762 0.73135 0.368048
0.756191 0.733654 0.369207
0.765835 0.736171 0.370443
0.774304 0.739223 0.371893
0.781598 0.74287 0.373556
0.787732 0.747387 0.375509
0.794278 0.752911 0.377798
0.561334 0.733837 0.374914
0.56144 0.733852 0.374914
0.561578 0.733852 0.374914
0.561776 0.733867 0.374914
0.562112 0.733898 0.374929
0.562844 0.733944 0.374929
0.563821 0.734005 0.374945
0.565118 0.734096 0.37496
0.566812 0.734218 0.374975
0.568994 0.734371 0.375006
0.571817 0.734569 0.375036
0.575418 0.734844 0.375067
0.580102 0.735195 0.375128
0.585992 0.735668 0.375189
0.593591 0.736278 0.37528
0.602884 0.737057 0.375372
0.613962 0.738033 0.375494
0.62681 0.739208 0.375616
0.640757 0.74052 0.375738
0.654108 0.741817 0.37583
0.667781 0.743175 0.375906
0.681712 0.744595 0.375982
0.695399 0.746044 0.376059
0.708965 0.747555 0.37615
0.722316 0.749142 0.376303
0.73521 0.750835 0.376577
0.747616 0.752667 0.377066
0.758877 0.754635 0.377722
0.76846 0.756802 0.378607
0.776898 0.759335 0.37966
0.784161 0.76231 0.380819
0.790234 0.765972 0.382162
0.796704 0.770565 0.383749
0.583658 0.756588 0.383963
0.583749 0.756603 0.383963
0.583871 0.756603 0.383963
0.584024 0.756619 0.383963
0.584314 0.756649 0.383978
0.584939 0.756695 0.383978
0.585779 0.756756 0.383978
0.586801 0.756848 0.383993
0.588159 0.75697 0.384009
0.58999 0.757122 0.384024
0.592447 0.757321 0.384054
0.595743 0.757595 0.384085
0.599634 0.757946 0.384115
0.604822 0.758404 0.384161
0.6112 0.758999 0.384222
0.619226 0.759747 0.384298
0.628672 0.760662 0.384375
0.639536 0.761746 0.384451
0.65095 0.762905 0.384527
0.662593 0.764126 0.384588
0.674693 0.765408 0.384634
0.687373 0.766781 0.38468
0.700374 0.768215 0.384741
0.713207 0.76968 0.384787
0.72604 0.771221 0.384863
0.738521 0.772824 0.385
0.750637 0.774517 0.385229
0.7617 0.776318 0.385565
0.771206 0.778225 0.386084
0.779583 0.780392 0.38674
0.786831 0.782925 0.387518
0.792859 0.785962 0.388434
0.799298 0.789776 0.389532
0.606958 0.779492 0.391516
0.607034 0.779492 0.391516
0.607141 0.779507 0.391516
0.607279 0.779522 0.391516
0.607523 0.779538 0.391516
0.608057 0.779583 0.391531
0.608774 0.77966 0.391531
0.60972 0.779751 0.391531
0.61088 0.779858 0.391546
0.612375 0.780011 0.391562
0.614343 0.780209 0.391577
0.616938 0.780468 0.391592
0.620356 0.780804 0.391608
0.624567 0.781247 0.391638
0.629847 0.781796 0.391684
0.636408 0.782483 0.391714
0.644022 0.783307 0.39176
0.652522 0.784237 0.391791
0.661433 0.785229 0.391836
0.67155 0.786374 0.391867
0.682368 0.78761 0.391882
0.69366 0.788907 0.391913
0.705684 0.790311 0.391928
0.717815 0.79176 0.391943
0.730037 0.79324 0.391974
0.741985 0.794751 0.39202
0.75375 0.796323 0.392096
0.764523 0.797894 0.392248
0.773877 0.799496 0.392493
0.782132 0.801236 0.392844
0.789258 0.803143 0.393271
0.795193 0.805356 0.39379
0.80148 0.808118 0.39443
0.630472 0.800793 0.397223
0.630533 0.800793 0.397223
0.63061 0.800809 0.397223
0.630716 0.800824 0.397223
0.6309 0.800839 0.397223
0.631312 0.800885 0.397223
0.631861 0.800946 0.397223
0.632578 0.801022 0.397223
0.633524 0.801129 0.397238
0.63476 0.801251 0.397238
0.636378 0.801434 0.397238
0.638392 0.801663 0.397253
0.64094 0.801938 0.397253
0.644175 0.802304 0.397269
0.648219 0.802762 0.397269
0.653025 0.803311 0.397284
0.658457 0.803952 0.397299
0.664836 0.8047 0.397299
0.672419 0.8056 0.397314
0.680705 0.806607 0.397314
0.690181 0.807752 0.397314
0.700343 0.809003 0.397314
0.711101 0.810346 0.397299
0.722377 0.811765 0.397299
0.733989 0.813245 0.397299
0.745327 0.81474 0.397314
0.756619 0.816266 0.397345
0.767056 0.817792 0.397406
0.776211 0.819303 0.397543
0.784329 0.820874 0.397742
0.791379 0.822568 0.398001
0.797284 0.824491 0.398322
0.803525 0.826825 0.398733
0.653254 0.822095 0.401831
0.6533 0.822095 0.401831
0.653346 0.82211 0.401831
0.653422 0.82211 0.401831
0.653544 0.822126 0.401831
0.653803 0.822156 0.401831
0.654154 0.822202 0.401831
0.654627 0.822263 0.401831
0.655238 0.822339 0.401831
0.656016 0.822431 0.401831
0.657023 0.822553 0.401831
0.65832 0.822721 0.401831
0.66006 0.822934 0.401831
0.662135 0.823194 0.401831
0.664836 0.823529 0.401831
0.668452 0.823987 0.401831
0.672679 0.824537 0.401816
0.677623 0.825162 0.401816
0.683696 0.825956 0.401816
0.690837 0.826886 0.401801
0.698695 0.827924 0.401785
0.707729 0.829129 0.401755
0.71725 0.830411 0.40174
0.727489 0.8318 0.401709
0.738201 0.833265 0.401694
0.749035 0.834775 0.401679
0.759701 0.836301 0.401679
0.76968 0.837781 0.401694
0.778576 0.839231 0.401755
0.786511 0.840726 0.401862
0.793423 0.842268 0.401999
0.799268 0.843809 0.402167
0.805356 0.845273 0.402319
0.67187 0.83711 0.404425
0.671901 0.83711 0.404425
0.671931 0.837125 0.404425
0.671992 0.837125 0.404425
0.672068 0.83714 0.404425
0.672267 0.837156 0.404425
0.672526 0.837201 0.404425
0.672862 0.837247 0.404425
0.673304 0.837293 0.404425
