LUTs/DJI_DLog_to_ACEScc_AP0_1.cube
TITLE "Generated by Resolve"
LUT_3D_SIZE 9
0.0169833 0.01149 0.00782788
0.049134 0.0136416 0.00515755
0.26157 0.0390631 0
0.408286 0.183978 0
0.52195 0.295521 0
0.632074 0.384924 0
0.703548 0.457282 0
0.753445 0.530556 0.166812
0.781247 0.630854 0.302159
0.0250706 0.0597238 0.00306706
0.054963 0.0617075 0.00244144
0.264683 0.0442359 0
0.408728 0.186481 0
0.522118 0.296132 0
0.632181 0.386847 0
0.7037 0.460731 0
0.753536 0.532387 0.170291
0.781292 0.631724 0.303105
0.168429 0.308049 0.0162509
0.170199 0.308293 0.0164645
0.294911 0.311604 0.014786
0.415686 0.326177 0.0101778
0.525612 0.3635 0
0.633692 0.424002 0
0.704585 0.479271 0.0747845
0.75407 0.542901 0.18912
0.781598 0.636957 0.308568
0.31809 0.451743 0.157107
0.325704 0.451911 0.157122
0.36875 0.453208 0.157214
0.438224 0.457755 0.15816
0.534676 0.468299 0.156802
0.637537 0.4907 0.152636
0.706661 0.52311 0.17409
0.755215 0.571283 0.232197
0.782574 0.651591 0.322286
0.422492 0.572412 0.267704
0.424216 0.572488 0.26775
0.440177 0.573114 0.267979
0.478202 0.575204 0.268833
0.54757 0.582452 0.272145
0.640986 0.592584 0.274266
0.7084 0.606775 0.283391
0.756878 0.634195 0.307652
0.785489 0.684672 0.345815
0.517296 0.687907 0.351766
0.518395 0.687968 0.351781
0.525154 0.688334 0.351873
0.54377 0.689433 0.352148
0.587411 0.692729 0.352911
0.655924 0.69897 0.353796
0.715877 0.705806 0.355306
0.763424 0.716152 0.361578
0.791974 0.736431 0.371252
0.606958 0.779492 0.391516
0.607523 0.779538 0.391516
0.61088 0.779858 0.391546
0.620356 0.780804 0.391608
0.644022 0.783307 0.39176
0.682368 0.78761 0.391882
0.730037 0.79324 0.391974
0.773877 0.799496 0.392493
0.80148 0.808118 0.39443
0.689219 0.84947 0.406165
0.689357 0.849485 0.406165
0.690242 0.849607 0.406165
0.692699 0.849958 0.406149
0.699733 0.85095 0.406119
0.716686 0.853361 0.406027
0.746899 0.857694 0.405859
0.781888 0.862669 0.405737
0.806928 0.866743 0.405814
0.749599 0.885206 0.409613
0.74963 0.885222 0.409613
0.749874 0.885252 0.409598
0.750591 0.885374 0.409598
0.752728 0.885725 0.409583
0.758404 0.886656 0.409552
0.771298 0.888716 0.409461
0.790784 0.891691 0.409339
0.808576 0.894224 0.409262
0.0228275 0.0118868 0.063798
0.0499886 0.0141604 0.0603647
0.260258 0.0378119 0
0.408072 0.183764 0
0.521874 0.295399 0
0.632059 0.384863 0
0.703532 0.456886 0
0.753429 0.530343 0.1664
0.781231 0.630747 0.302052
0.032929 0.0572366 0.0588235
0.0591745 0.0586252 0.0580301
0.263462 0.0412146 0
0.408515 0.185367 0
0.522042 0.29601 0
0.632136 0.386267 0
0.703685 0.460349 0
0.753521 0.532174 0.169894
0.781277 0.631632 0.302998
0.166094 0.305715 0.0139315
0.16788 0.305959 0.0141451
0.293614 0.309438 0.0125734
0.415366 0.324361 0.00782788
0.525475 0.362371 0
0.633646 0.423423 0
0.704555 0.478935 0.0736248
0.754055 0.542702 0.188785
0.781598 0.636851 0.308476
0.317281 0.45127 0.156649
0.324697 0.451438 0.156664
0.368154 0.452735 0.156771
0.437949 0.457282 0.157702
0.5346 0.467872 0.156313
0.637507 0.490379 0.152163
0.706661 0.522881 0.173709
0.755199 0.571115 0.231983
0.782559 0.651514 0.32221
0.422293 0.572244 0.267567
0.423987 0.572335 0.267613
0.439963 0.572961 0.267857
0.47805 0.575036 0.268696
0.547509 0.5823 0.272007
0.64097 0.592447 0.274128
0.708385 0.606638 0.283268
0.756878 0.634089 0.307546
0.785473 0.684611 0.345785
0.517189 0.687877 0.351751
0.518318 0.687938 0.351766
0.525063 0.688289 0.351858
0.543694 0.689387 0.352132
0.58735 0.692683 0.35288
0.655894 0.698924 0.35378
0.715862 0.705776 0.355291
0.763424 0.716121 0.361563
0.791974 0.7364 0.371252
0.606912 0.779477 0.391516
0.607492 0.779522 0.391516
0.610834 0.779843 0.391546
0.620325 0.780804 0.391608
0.643992 0.783291 0.39176
0.682353 0.787594 0.391882
0.730022 0.79324 0.391974
0.773877 0.799481 0.392493
0.80148 0.808103 0.39443
0.689204 0.84947 0.406165
0.689357 0.849485 0.406165
0.690227 0.849607 0.406165
0.692699 0.849943 0.406149
0.699718 0.850935 0.406119
0.71667 0.853361 0.406027
0.746899 0.857694 0.405859
0.781888 0.862669 0.405722
0.806928 0.866743 0.405798
0.749599 0.885206 0.409613
0.74963 0.885222 0.409613
0.749874 0.885252 0.409598
0.750591 0.885374 0.409598
0.752728 0.885725 0.409583
0.758404 0.886656 0.409552
0.771298 0.888716 0.409461
0.790784 0.891691 0.409339
0.808576 0.894224 0.409262
0.174975 0.12845 0.321828
0.175509 0.127886 0.321111
0.281392 0.146685 0.315694
0.409888 0.203479 0.272099
0.521614 0.295109 0
0.631937 0.38468 0
0.703395 0.454414 0
0.753368 0.529046 0.163836
0.781201 0.630121 0.301366
0.17351 0.127016 0.320394
0.173861 0.126436 0.319677
0.283345 0.146319 0.314092
0.410285 0.203159 0.268803
0.521782 0.295323 0
0.631983 0.384939 0
0.703548 0.457893 0
0.75346 0.530892 0.167437
0.781247 0.631006 0.302327
0.210834 0.297368 0.308736
0.211353 0.297612 0.307988
0.307012 0.30692 0.307057
0.414862 0.313695 0.261494
0.524788 0.353445 0
0.633402 0.419821 0
0.704433 0.47689 0.0662699
0.753994 0.541512 0.18677
0.781552 0.636255 0.307851
0.313588 0.44828 0.279316
0.317601 0.448402 0.277928
0.3635 0.449653 0.267018
0.435828 0.453788 0.217365
0.534356 0.46479 0.152728
0.637324 0.488426 0.149233
0.706569 0.521462 0.171344
0.755169 0.570138 0.230625
0.782528 0.650996 0.321767
0.42118 0.571283 0.266758
0.422629 0.571374 0.266804
0.438727 0.571984 0.267048
0.477195 0.57409 0.267887
0.547066 0.581384 0.271214
0.640848 0.591608 0.273335
0.708354 0.605859 0.282445
0.756848 0.633494 0.30695
0.785443 0.684306 0.345617
0.516548 0.687633 0.351614
0.517815 0.687694 0.351629
0.524575 0.688045 0.35172
0.543267 0.689143 0.351995
0.587045 0.692439 0.352758
0.655787 0.698711 0.353658
0.715816 0.705577 0.355184
0.763394 0.715923 0.361486
0.791943 0.736263 0.371191
0.606668 0.7794 0.391501
0.607248 0.779446 0.391501
0.61062 0.779767 0.391516
0.620096 0.780713 0.391592
0.643854 0.78323 0.39173
0.682277 0.787533 0.391867
0.729992 0.793164 0.391943
0.773861 0.79942 0.392477
0.801465 0.808042 0.394415
0.689143 0.849439 0.406165
0.689296 0.84947 0.406165
0.690166 0.849592 0.406165
0.692638 0.849928 0.406149
0.699672 0.850919 0.406119
0.71664 0.853346 0.406027
0.746883 0.857694 0.405859
0.781872 0.862654 0.405722
0.806928 0.866743 0.405798
0.749584 0.885206 0.409613
0.749615 0.885222 0.409613
0.749859 0.885252 0.409598
0.750576 0.885374 0.409598
0.752712 0.885725 0.409583
0.758389 0.886656 0.409552
0.771282 0.888716 0.409461
0.790784 0.891691 0.409339
0.808576 0.894224 0.409262
0.333593 0.281163 0.477302
0.334768 0.281102 0.477058
0.356832 0.281956 0.474144
0.436408 0.291661 0.458762
0.531258 0.328161 0.428534
0.633356 0.39202 0.37464
0.702998 0.446357 0
0.75314 0.524971 0.15552
0.781094 0.628168 0.299229
0.33344 0.280873 0.476982
0.334707 0.280827 0.476722
0.357763 0.281773 0.473732
0.436774 0.291569 0.458381
0.53138 0.328115 0.428077
0.633371 0.391989 0.37409
0.703166 0.450187 0
0.753246 0.526864 0.159442
0.78114 0.629068 0.300237
0.325673 0.278416 0.472282
0.327306 0.278477 0.472038
0.357656 0.280003 0.469047
0.436835 0.289815 0.455375
0.531762 0.330098 0.424811
0.63386 0.40383 0.371878
0.704067 0.470436 0.0390021
0.753796 0.537789 0.180255
0.78143 0.634394 0.305913
0.35111 0.441352 0.4486
0.351064 0.441398 0.448447
0.377935 0.442344 0.447883
0.446967 0.447257 0.446998
0.538445 0.453162 0.426062
0.638193 0.478401 0.371725
0.706325 0.516991 0.163699
0.755047 0.567056 0.226322
0.782422 0.649393 0.320409
0.436423 0.567132 0.439307
0.439765 0.567208 0.43917
0.454139 0.567605 0.438346
0.488899 0.568826 0.435599
0.555261 0.57351 0.421714
0.642634 0.587198 0.344518
0.708232 0.603449 0.279866
0.756771 0.631601 0.305058
0.785351 0.68336 0.345052
0.51545 0.68661 0.351034
0.516793 0.686671 0.351049
0.52372 0.687053 0.351141
0.542443 0.688212 0.351461
0.586252 0.691646 0.3523
0.655421 0.698009 0.353262
0.715679 0.704952 0.354849
0.763317 0.715358 0.361212
0.791882 0.735805 0.371008
0.60592 0.779141 0.39144
0.606485 0.779202 0.39144
0.609949 0.779522 0.391455
0.61944 0.780468 0.391531
0.643381 0.783001 0.391669
0.682078 0.787335 0.391806
0.729915 0.792981 0.391897
0.773831 0.799237 0.392432
0.80145 0.807874 0.394369
0.688945 0.849393 0.406165
0.689097 0.849409 0.406165
0.689982 0.849531 0.406165
0.69247 0.849882 0.406149
0.699535 0.850874 0.406119
0.716533 0.8533 0.406027
0.746822 0.857649 0.405859
0.781857 0.862623 0.405722
0.806928 0.866712 0.405798
0.749523 0.885206 0.409613
0.749569 0.885206 0.409613
0.749798 0.885252 0.409613
0.75053 0.885359 0.409598
0.752667 0.88571 0.409583
0.758358 0.886641 0.409552
0.771267 0.888701 0.409461
0.790768 0.891691 0.409339
0.808576 0.894224 0.409262
0.435462 0.383719 0.591501
0.435416 0.383688 0.591455
0.4374 0.383566 0.590951
0.476661 0.385229 0.584604
0.550683 0.395468 0.568521
0.645823 0.430671 0.555093
0.709224 0.450324 0.512901
0.752422 0.511589 0.124071
0.780652 0.62182 0.29192
0.435386 0.383642 0.591424
0.43534 0.383612 0.591379
0.437507 0.38349 0.590845
0.476921 0.385168 0.584466
0.55082 0.395453 0.568414
0.645853 0.430655 0.554986
0.709209 0.450294 0.512749
0.752529 0.51368 0.129519
0.780713 0.622797 0.293065
0.434943 0.383215 0.590906
0.434897 0.383185 0.59086
0.438087 0.383124 0.590219
0.478538 0.384878 0.583566
0.551614 0.395377 0.567727
0.646036 0.430533 0.554299
0.709087 0.450477 0.512047
0.753155 0.525673 0.157031
0.781109 0.628504 0.299626
0.431769 0.431052 0.585672
0.431708 0.431067 0.585595
0.437049 0.430945 0.584878
0.47863 0.430518 0.580011
0.552697 0.435828 0.56762
0.647013 0.464012 0.55314
0.711177 0.499687 0.51284
0.754665 0.557214 0.211963
0.782101 0.644327 0.315953
0.465797 0.56408 0.568612
0.465782 0.56408 0.568582
0.466529 0.564095 0.568475
0.498299 0.564767 0.568383
0.566125 0.566171 0.56669
0.654612 0.572564 0.558587
0.718273 0.588144 0.516075
0.756527 0.62562 0.298833
0.785031 0.680262 0.343236
0.540261 0.681605 0.560449
0.541192 0.681636 0.560418
0.546715 0.681834 0.56022
0.562615 0.682445 0.559594
0.60206 0.684489 0.557183
0.666758 0.691066 0.544457
0.721691 0.700938 0.491203
0.763073 0.713497 0.360311
0.791684 0.73434 0.370382
0.608438 0.776486 0.46215
0.608972 0.776547 0.461952
0.612207 0.776883 0.460746
0.6215 0.77792 0.457053
0.645014 0.780713 0.445487
0.682719 0.785657 0.405844
0.729641 0.792386 0.39173
0.773724 0.798672 0.392264
0.801389 0.80734 0.394232
0.688365 0.84921 0.406149
0.688518 0.849241 0.406149
0.689403 0.849363 0.406149
0.691966 0.849714 0.406134
0.699062 0.850721 0.406104
0.716213 0.853162 0.406012
0.74667 0.857527 0.405844
0.781811 0.862531 0.405707
0.806912 0.866606 0.405783
0.749371 0.885176 0.409613
0.749416 0.885176 0.409613
0.749645 0.885222 0.409613
0.750378 0.885344 0.409598
0.752529 0.885695 0.409583
0.758236 0.886625 0.409552
0.771191 0.888701 0.409461
0.790738 0.891691 0.409339
0.808576 0.894224 0.409262
0.519524 0.464714 0.707668
0.519524 0.464714 0.707652
0.519478 0.464668 0.707576
0.525841 0.464942 0.706477
0.577707 0.469001 0.697215
0.664439 0.484062 0.682307
0.73257 0.500008 0.674571
0.773693 0.501549 0.64622
0.779431 0.60032 0.266102
0.519509 0.464714 0.707637
0.519509 0.464698 0.707622
0.519463 0.464652 0.707546
0.526009 0.464942 0.706432
0.577813 0.469001 0.697169
0.664485 0.484062 0.682277
0.73257 0.499992 0.67454
0.773663 0.501518 0.646159
0.779477 0.60145 0.267506
0.519432 0.464637 0.7075
0.519432 0.464622 0.707485
0.519387 0.464576 0.707408
0.527031 0.464927 0.706142
0.578531 0.469017 0.69688
0.664714 0.484077 0.682124
0.732616 0.499962 0.674388
0.773434 0.501396 0.645869
0.779828 0.608118 0.275578
0.519188 0.464393 0.707042
0.519173 0.464378 0.707042
0.519127 0.464347 0.706966
0.530098 0.464912 0.705226
0.580682 0.469047 0.69601
0.665446 0.484092 0.681605
0.732586 0.499779 0.673838
0.775082 0.529763 0.646754
0.780972 0.626795 0.297688
0.518563 0.549722 0.690959
0.518563 0.549737 0.690944
0.518532 0.549844 0.690822
0.531334 0.550256 0.690486
0.581353 0.552193 0.689097
0.667521 0.558892 0.685985
0.735729 0.574121 0.679316
0.781765 0.601236 0.650462
0.783948 0.669306 0.335927
0.562753 0.678264 0.689342
0.563561 0.678264 0.689342
0.568521 0.678264 0.689326
0.582574 0.678218 0.689235
0.619684 0.678096 0.688731
0.683452 0.681178 0.683696
0.745861 0.685054 0.678294
0.793057 0.694316 0.646357
0.791058 0.729854 0.368475
0.637034 0.768841 0.682399
0.637552 0.768841 0.682399
0.640528 0.768872 0.682322
0.649317 0.768948 0.682094
0.672465 0.769238 0.681147
0.711589 0.770474 0.677714
0.760861 0.774731 0.667262
0.800931 0.788998 0.622705
0.801175 0.805661 0.39382
0.703365 0.852262 0.593271
0.703517 0.852277 0.593225
0.704372 0.852399 0.59292
0.70695 0.852796 0.591974
0.713695 0.853834 0.589044
0.729961 0.856321 0.579675
0.757015 0.859922 0.546319
0.781659 0.862211 0.405661
0.806882 0.866316 0.405737
0.748898 0.8851 0.409613
0.748943 0.8851 0.409613
0.749172 0.885145 0.409613
0.749905 0.885267 0.409598
0.752087 0.885618 0.409583
0.757885 0.886564 0.409552
0.770962 0.888655 0.409461
0.790646 0.891676 0.409354
0.808576 0.894224 0.409262
0.561944 0.504967 0.811734
0.561944 0.504967 0.811734
0.561944 0.504967 0.811704
0.561913 0.504952 0.811627
0.580972 0.506233 0.806607
0.672007 0.516457 0.781796
0.74931 0.529244 0.770077
0.798047 0.535454 0.762371
0.810971 0.532097 0.738979
0.561944 0.504967 0.811734
0.561944 0.504967 0.811719
0.561944 0.504967 0.811704
0.561913 0.504952 0.811627
0.581094 0.506233 0.806577
0.672053 0.516472 0.781781
0.749325 0.529244 0.770077
0.798047 0.535454 0.762356
0.810971 0.532113 0.738994
0.561929 0.504967 0.811688
0.561929 0.504967 0.811673
0.561929 0.504952 0.811658
0.561913 0.504936 0.811582
0.581781 0.506279 0.806332
0.672389 0.516503 0.781659
0.749386 0.529259 0.770031
0.798047 0.535439 0.76231
0.811917 0.538689 0.739864
0.561898 0.504921 0.811536
0.561898 0.504921 0.811536
0.561883 0.504921 0.811505
0.561868 0.504891 0.811429
0.583886 0.506416 0.805631
0.673411 0.51664 0.781292
0.749584 0.529259 0.769879
0.798047 0.535409 0.762173
0.816434 0.566506 0.743252
0.561776 0.504814 0.811093
0.561776 0.504814 0.811078
0.561761 0.504799 0.811063
0.561746 0.504784 0.810987
0.590143 0.506798 0.803433
0.676402 0.517006 0.780224
0.750195 0.529274 0.769436
0.797253 0.537316 0.761715
0.82974 0.625284 0.750744
0.57937 0.66154 0.778347
0.57937 0.66154 0.778347
0.57937 0.661585 0.778332
0.5794 0.661662 0.778347
0.611414 0.662501 0.779293
0.688426 0.664942 0.783688
0.75874 0.670954 0.78349
0.81738 0.682979 0.77615
0.850965 0.70573 0.749615
0.640482 0.765438 0.784909
0.640986 0.765454 0.784909
0.643915 0.765484 0.784817
0.652842 0.765606 0.784558
0.677562 0.766186 0.783719
0.72343 0.768521 0.78201
0.779156 0.776989 0.778973
0.838514 0.777829 0.771634
0.874434 0.784298 0.744533
0.73373 0.855406 0.772808
0.733898 0.855421 0.772793
0.734936 0.855512 0.772747
0.737942 0.855802 0.77258
0.746471 0.856687 0.772122
0.766979 0.858976 0.770916
0.806058 0.863386 0.76791
0.85713 0.86717 0.758602
0.890166 0.868559 0.725338
0.798733 0.933013 0.711955
0.798779 0.933013 0.71194
0.799069 0.933074 0.711879
0.799954 0.933242 0.711681
0.802625 0.933745 0.711055
0.809888 0.935119 0.709209
0.826307 0.93846 0.703395
0.844953 0.935531 0.680491
0.808713 0.89424 0.409262
0.579019 0.520653 0.91017
0.579019 0.520653 0.91017
0.579019 0.520653 0.910155
0.579019 0.520653 0.91014
0.579004 0.520653 0.910079
0.632624 0.525917 0.886687
0.751431 0.542687 0.851865
0.812375 0.550317 0.846601
0.831266 0.551659 0.841184
0.579019 0.520653 0.91017
0.579019 0.520653 0.910155
0.579019 0.520653 0.910155
0.579019 0.520653 0.91014
0.579004 0.520653 0.910079
0.6327 0.525933 0.886641
0.751446 0.542687 0.851865
0.812375 0.550317 0.846601
0.831266 0.551659 0.841169
0.579019 0.520653 0.910155
0.579019 0.520653 0.910155
0.579019 0.520653 0.91014
0.579004 0.520653 0.910124
0.579004 0.520653 0.910079
0.633234 0.525994 0.886381
0.751537 0.542702 0.851835
0.81239 0.550317 0.846586
0.831266 0.551659 0.841169
0.579004 0.520653 0.910124
0.579004 0.520653 0.910124
0.579004 0.520653 0.910109
0.579004 0.520653 0.910094
0.579004 0.520638 0.910033
0.634882 0.526177 0.885588
0.751827 0.542733 0.851789
0.812421 0.550317 0.846555
0.831266 0.551659 0.841138
0.579004 0.520638 0.910018
0.579004 0.520638 0.910018
0.579004 0.520638 0.910002
0.579004 0.520638 0.909987
0.578988 0.520638 0.909926
0.63978 0.526741 0.88333
0.752712 0.542855 0.851606
0.812497 0.550317 0.846464
0.831266 0.551644 0.841031
0.578973 0.520607 0.909697
0.578973 0.520607 0.909697
0.578973 0.520607 0.909682
0.578958 0.520607 0.909667
0.578958 0.520607 0.909606
0.653941 0.52845 0.876997
0.755306 0.543206 0.851072
0.812619 0.550286 0.846052
0.847257 0.61828 0.860456
0.618616 0.748531 0.888212
0.618616 0.748531 0.888212
0.618616 0.748547 0.888212
0.618616 0.748577 0.888197
0.63415 0.748669 0.887968
0.706142 0.750729 0.886488
0.780911 0.755413 0.885054
0.852705 0.761746 0.882811
0.909178 0.772869 0.875593
0.723384 0.857527 0.889601
0.723644 0.857557 0.889601
0.725139 0.857725 0.88954
0.729488 0.858213 0.889357
0.741436 0.859663 0.888945
0.768444 0.863249 0.88835
0.817884 0.870878 0.887724
0.887739 0.880385 0.886137
0.963272 0.884001 0.87776
0.826368 0.969009 0.875929
0.826429 0.969039 0.875914
0.826841 0.969177 0.875914
0.828122 0.969635 0.875914
0.831952 0.970962 0.875898
0.843091 0.974685 0.875792
0.870375 0.983001 0.875288
0.921096 0.995941 0.872892
0.989883 0.999725 0.862364
0.58349 0.524666 0.970779
0.58349 0.524666 0.970779
0.58349 0.524666 0.970779
0.58349 0.524666 0.970779
0.58349 0.524666 0.970779
0.58349 0.524666 0.970779
0.706813 0.540185 0.908003
0.813947 0.554681 0.895232
0.837568 0.556909 0.894911
0.58349 0.524666 0.970779
0.58349 0.524666 0.970779
0.58349 0.524666 0.970779
0.58349 0.524666 0.970779
0.58349 0.524666 0.970779
0.58349 0.524666 0.970779
0.706859 0.5402 0.907988
0.813947 0.554681 0.895232
0.837568 0.556909 0.894911
0.58349 0.524666 0.970779
0.58349 0.524666 0.970779
0.58349 0.524666 0.970779
0.58349 0.524666 0.970779
0.58349 0.524666 0.970779
0.58349 0.524666 0.970779
0.707073 0.54023 0.907927
0.813962 0.554681 0.895232
0.837568 0.556909 0.894911
0.58349 0.524666 0.970779
0.58349 0.524666 0.970779
0.58349 0.524666 0.970779
0.58349 0.524666 0.970779
0.58349 0.524666 0.970779
0.58349 0.524666 0.970779
0.707774 0.540337 0.907713
0.814008 0.554681 0.895232
0.837568 0.556909 0.894911
0.58349 0.524666 0.970779
0.58349 0.524666 0.970779
0.58349 0.524666 0.970779
0.58349 0.524666 0.970779
0.58349 0.524666 0.970779
0.58349 0.524666 0.970779
0.709773 0.540642 0.907134
0.81413 0.554696 0.895216
0.837583 0.556909 0.894911
0.58349 0.524666 0.970779
0.58349 0.524666 0.970779
0.58349 0.524666 0.970779
0.58349 0.524666 0.970779
0.58349 0.524666 0.970779
0.58349 0.524666 0.970779
0.715557 0.541512 0.905608
0.814511 0.554742 0.895216
0.837644 0.556909 0.894911
0.58349 0.524666 0.970779
0.58349 0.524666 0.970779
0.58349 0.524666 0.970779
0.58349 0.524666 0.970779
0.58349 0.524666 0.970779
0.58349 0.524666 0.970779
0.730312 0.54374 0.902235
0.815656 0.554849 0.895201
0.838422 0.560388 0.896666
0.639384 0.832578 1
0.639384 0.832578 1
0.639384 0.832578 1
0.639384 0.832593 1
0.639384 0.832639 1
0.696712 0.835142 1
0.792874 0.844892 1
0.88426 0.853666 1
0.979538 0.861646 1
0.806378 0.977508 1
0.806485 0.977539 1
0.807065 0.977783 1
0.80885 0.978485 1
0.814176 0.980591 1
0.829313 0.986755 1
0.866041 1 1
0.940658 1 1
1 1 1
