LUTs/DJI_DLog_to_ACEScg_AP0.cube
TITLE "Generated by Resolve"
LUT_3D_SIZE 9
0.000518807 0.000549325 0.000518807
0.00321965 0.000610361 0.000366217
0.0220035 0.00262455 0.000869764
0.0935225 0.0121767 0.00337224
0.272953 0.0311742 0.00970474
0.506462 0.057847 0.0182956
0.606531 0.0692607 0.0218204
0.6121 0.0699016 0.0220188
0.613169 0.0700236 0.0220493
0.00128176 0.0027924 0.00062562
0.00262455 0.00291447 0.000732433
0.0195621 0.00387579 0.000946059
0.0902419 0.0120394 0.00328069
0.270741 0.0309148 0.00961318
0.505745 0.0577554 0.018265
0.6065 0.0692607 0.0218204
0.6121 0.0699016 0.0220188
0.613169 0.0700236 0.0220493
0.0075227 0.0198825 0.00239567
0.00759899 0.0197452 0.00238041
0.0195315 0.0209201 0.00273136
0.0928206 0.0296025 0.00527962
0.26714 0.0315862 0.00952163
0.504509 0.0576181 0.0182193
0.60647 0.0692607 0.0218204
0.6121 0.0699016 0.0220188
0.613169 0.0700236 0.0220493
0.0420233 0.11281 0.0131991
0.0419471 0.112627 0.0131838
0.0418402 0.112322 0.013138
0.105638 0.119875 0.0153506
0.294896 0.125658 0.0199741
0.529763 0.129381 0.0253452
0.618418 0.100694 0.0247807
0.6121 0.0699016 0.0220188
0.613169 0.0700236 0.0220493
0.118425 0.318349 0.0371252
0.118379 0.318242 0.0371099
0.118318 0.318059 0.0370947
0.121782 0.318135 0.037171
0.344762 0.34313 0.04448
0.595376 0.354162 0.0509651
0.705837 0.340368 0.0520333
0.690639 0.281575 0.0453193
0.613169 0.0700236 0.0220493
0.231434 0.620386 0.0723735
0.231418 0.62034 0.0723583
0.231388 0.620264 0.0723583
0.231296 0.620035 0.0723278
0.297993 0.631205 0.0748913
0.676463 0.672679 0.0872053
0.830152 0.679286 0.0911421
0.83003 0.65713 0.0887922
0.801724 0.577539 0.080354
0.323064 0.855695 0.0998093
0.323064 0.855695 0.099794
0.323064 0.85568 0.099794
0.323049 0.85565 0.099794
0.323018 0.855558 0.099794
0.525429 0.885573 0.107271
0.91635 0.92549 0.119677
0.929046 0.923751 0.119753
0.927291 0.915541 0.118822
0.343816 0.908232 0.105882
0.343816 0.908232 0.105882
0.343816 0.908232 0.105882
0.343816 0.908232 0.105882
0.343816 0.908232 0.105882
0.343801 0.908217 0.105867
0.753582 0.95581 0.119539
0.948302 0.977005 0.125933
0.950103 0.976913 0.125963
0.347204 0.916732 0.106859
0.347204 0.916732 0.106859
0.347204 0.916732 0.106859
0.347204 0.916732 0.106859
0.347204 0.916732 0.106859
0.347204 0.916732 0.106859
0.347204 0.916732 0.106859
0.9337 0.982925 0.126268
0.953094 0.984939 0.126894
0.000518807 0.000320439 0.00271611
0.00318914 0.00062562 0.00244144
0.0210117 0.00251774 0.00230411
0.0931411 0.0120241 0.00392157
0.272618 0.0311284 0.00984207
0.506355 0.0578317 0.0182956
0.606516 0.0692607 0.0218204
0.6121 0.0699016 0.0220188
0.613169 0.0700236 0.0220493
0.00137331 0.002533 0.00280766
0.00347906 0.00350958 0.00352483
0.0186923 0.00369268 0.00218204
0.0898299 0.0117647 0.00378424
0.27039 0.0308843 0.00975052
0.505638 0.0577401 0.018265
0.6065 0.0692607 0.0218204
0.6121 0.0699016 0.0220188
0.613169 0.0700236 0.0220493
0.00720226 0.0188907 0.00328069
0.00724804 0.0187533 0.00318914
0.0187533 0.0198978 0.00309758
0.0916915 0.0285039 0.00535592
0.266712 0.0314031 0.00959792
0.504417 0.0576028 0.018204
0.60647 0.0692607 0.0218204
0.6121 0.0699016 0.0220188
0.613169 0.0700236 0.0220493
0.0415503 0.111528 0.0130922
0.041474 0.111345 0.0130617
0.0413825 0.111055 0.0130312
0.104524 0.118608 0.015198
0.294163 0.124437 0.0198215
0.529244 0.128145 0.0251926
0.617929 0.0993973 0.0246586
0.6121 0.0699016 0.0220188
0.613169 0.0700236 0.0220493
0.118181 0.317693 0.0370489
0.118151 0.317601 0.0370336
0.118074 0.317418 0.0370184
0.121065 0.317433 0.0370794
0.344137 0.342428 0.0443885
0.594995 0.353445 0.0508736
0.705577 0.339635 0.0519417
0.690333 0.280735 0.0452277
0.613169 0.0700236 0.0220493
0.231327 0.620111 0.072343
0.231312 0.620066 0.0723278
0.231281 0.619989 0.0723278
0.231189 0.61976 0.0722972
0.29723 0.630793 0.0748302
0.676219 0.672389 0.0871595
0.830045 0.678996 0.0911116
0.829908 0.656825 0.0887465
0.801587 0.577142 0.0803082
0.323049 0.855665 0.099794
0.323049 0.855665 0.099794
0.323049 0.85565 0.099794
0.323033 0.855619 0.099794
0.323003 0.855528 0.0997787
0.525032 0.885496 0.107256
0.91632 0.92546 0.119661
0.92903 0.92372 0.119738
0.927275 0.915496 0.118822
0.343816 0.908232 0.105882
0.343816 0.908232 0.105882
0.343816 0.908232 0.105882
0.343816 0.908232 0.105882
0.343816 0.908232 0.105867
0.343801 0.908217 0.105867
0.753414 0.955795 0.119524
0.948302 0.977005 0.125933
0.950103 0.976913 0.125963
0.347204 0.916732 0.106859
0.347204 0.916732 0.106859
0.347204 0.916732 0.106859
0.347204 0.916732 0.106859
0.347204 0.916732 0.106859
0.347204 0.916732 0.106859
0.347204 0.916732 0.106859
0.9337 0.982925 0.126268
0.953094 0.984939 0.126894
0.0018616 0.000457771 0.0193179
0.00509651 0.000808728 0.0188144
0.0201419 0.00250248 0.0185245
0.0972457 0.0112306 0.0175021
0.268788 0.0307622 0.016846
0.506233 0.0578164 0.0183566
0.606516 0.0692607 0.0218204
0.6121 0.0699016 0.0220188
0.613169 0.0700236 0.0220493
0.00204471 0.00146487 0.019028
0.00347906 0.00155642 0.0185855
0.0174258 0.00283818 0.0179446
0.0932784 0.0108186 0.0171817
0.266468 0.0305028 0.0166323
0.505516 0.0577401 0.0183261
0.6065 0.0692607 0.0218204
0.6121 0.0699016 0.0220188
0.613169 0.0700236 0.0220493
0.00746166 0.0171664 0.0198825
0.00755322 0.0170596 0.0193942
0.0212558 0.0212863 0.0212863
0.088426 0.0219272 0.016022
0.262913 0.0307774 0.0159304
0.504311 0.0575875 0.018265
0.606455 0.0692607 0.0218204
0.6121 0.0699016 0.0220188
0.613169 0.0700236 0.0220493
0.0403906 0.107149 0.0231785
0.0403449 0.107057 0.0227054
0.0402533 0.106905 0.0218204
0.100526 0.115282 0.0183108
0.292439 0.122011 0.0201419
0.528374 0.126055 0.0249485
0.617136 0.0973068 0.0244907
0.6121 0.0699016 0.0220188
0.613169 0.0700236 0.0220493
0.117647 0.316274 0.0368811
0.117617 0.316182 0.0368811
0.117571 0.316045 0.0368658
0.119722 0.31606 0.0369116
0.34316 0.341222 0.0442359
0.594385 0.352255 0.0507362
0.705135 0.338445 0.0518044
0.689815 0.279316 0.0450599
0.613169 0.0700236 0.0220493
0.231189 0.619593 0.072282
0.231174 0.619547 0.072282
0.231144 0.619486 0.0722667
0.231052 0.619272 0.0722362
0.295995 0.630121 0.0747234
0.675807 0.671916 0.0870985
0.829862 0.678538 0.0910658
0.829725 0.656321 0.0887007
0.801343 0.576501 0.0802472
0.323033 0.855604 0.099794
0.323033 0.855604 0.099794
0.323033 0.855589 0.099794
0.323018 0.855558 0.0997787
0.322972 0.855467 0.0997787
0.524392 0.885374 0.107225
0.916289 0.925399 0.119661
0.929015 0.923674 0.119738
0.92726 0.915434 0.118807
0.343816 0.908232 0.105882
0.343816 0.908232 0.105882
0.343816 0.908232 0.105882
0.343816 0.908232 0.105882
0.343816 0.908232 0.105867
0.343801 0.908217 0.105867
0.75314 0.955764 0.119524
0.948302 0.977005 0.125933
0.950103 0.976913 0.125963
0.347204 0.916732 0.106859
0.347204 0.916732 0.106859
0.347204 0.916732 0.106859
0.347204 0.916732 0.106859
0.347204 0.916732 0.106859
0.347204 0.916732 0.106859
0.347204 0.916732 0.106859
0.933684 0.982925 0.126268
0.953094 0.984939 0.126894
0.00695811 0.0015259 0.0956436
0.00936904 0.00180056 0.0951095
0.0274662 0.00386053 0.0946212
0.104524 0.012604 0.0894179
0.282353 0.0329137 0.0962234
0.503288 0.057908 0.0743725
0.6065 0.0692607 0.0218357
0.6121 0.0699016 0.0220188
0.613169 0.0700236 0.0220493
0.00689708 0.00154116 0.0954757
0.00819409 0.00167849 0.0949111
0.0241855 0.00349432 0.0946822
0.100481 0.0121309 0.0890822
0.280247 0.0326696 0.0959487
0.502556 0.0578317 0.0741588
0.606485 0.0692607 0.0218357
0.6121 0.0699016 0.0220188
0.613169 0.0700236 0.0220493
0.00819409 0.00791943 0.0979019
0.00825513 0.00781262 0.0972763
0.0188144 0.00759899 0.095964
0.0922103 0.0131075 0.0889448
0.276463 0.0322271 0.0952163
0.501411 0.0576944 0.0737469
0.606439 0.0692607 0.0218357
0.6121 0.0699016 0.0220188
0.613169 0.0700236 0.0220493
0.0386816 0.0893873 0.109834
0.0385748 0.0892042 0.109255
0.0384985 0.0889296 0.108278
0.102144 0.103517 0.103593
0.276341 0.115175 0.0942702
0.529274 0.108949 0.0806287
0.61474 0.0909285 0.0239261
0.6121 0.0699016 0.0220188
0.613169 0.0700236 0.0220493
0.117464 0.303746 0.128985
0.117403 0.3037 0.128405
0.117327 0.303609 0.127443
0.11899 0.303777 0.124575
0.32517 0.330388 0.109957
0.590219 0.343587 0.0757916
0.703777 0.334752 0.0513771
0.688212 0.275029 0.0445563
0.613169 0.0700236 0.0220493
0.235904 0.612512 0.137636
0.235798 0.612512 0.136858
0.235615 0.612512 0.135576
0.23508 0.612512 0.131716
0.292912 0.620295 0.120668
0.67538 0.669825 0.0873121
0.829297 0.677089 0.090898
0.82916 0.65478 0.0885176
0.80061 0.574517 0.0800488
0.324239 0.85301 0.121874
0.324193 0.85304 0.121309
0.324132 0.853101 0.120348
0.323919 0.853284 0.116823
0.3234 0.853895 0.108064
0.522683 0.884916 0.107149
0.916197 0.925231 0.119631
0.928954 0.923491 0.119722
0.927199 0.915251 0.118791
0.343816 0.908232 0.105867
0.343816 0.908232 0.105867
0.343816 0.908232 0.105867
0.343816 0.908232 0.105867
0.343801 0.908217 0.105867
0.343801 0.908217 0.105867
0.752316 0.955657 0.119493
0.948302 0.976989 0.125933
0.950103 0.976913 0.125963
0.347204 0.916732 0.106859
0.347204 0.916732 0.106859
0.347204 0.916732 0.106859
0.347204 0.916732 0.106859
0.347204 0.916732 0.106859
0.347204 0.916732 0.106859
0.347204 0.916732 0.106859
0.933654 0.982925 0.126268
0.953094 0.984939 0.126894
0.0224613 0.00466926 0.274495
0.0229038 0.00471504 0.274067
0.0353094 0.00610361 0.270588
0.114702 0.0151369 0.26685
0.274403 0.0332952 0.258854
0.505058 0.0595712 0.264027
0.613794 0.0716411 0.221897
0.6121 0.0699016 0.0220188
0.613169 0.0700236 0.0220493
0.0224613 0.00466926 0.274388
0.0224308 0.00466926 0.274083
0.0323186 0.00576791 0.271214
0.111009 0.014725 0.267292
0.272343 0.0330663 0.258671
0.504341 0.0594949 0.263859
0.613764 0.0716259 0.221775
0.6121 0.0699016 0.0220188
0.613169 0.0700236 0.0220493
0.0224308 0.00466926 0.274495
0.0224155 0.00466926 0.274174
0.0279393 0.00527962 0.272328
0.104768 0.0140078 0.268116
0.268956 0.0326848 0.258366
0.503166 0.0593576 0.2636
0.613718 0.0716259 0.221561
0.6121 0.0699016 0.0220188
0.613169 0.0700236 0.0220493
0.0386816 0.0665141 0.302159
0.0386053 0.0663462 0.301839
0.038468 0.0660563 0.301335
0.0905623 0.0676585 0.289937
0.278202 0.0874189 0.272633
0.51107 0.0910811 0.268223
0.614191 0.0736248 0.220539
0.6121 0.0699016 0.0220188
0.613169 0.0700236 0.0220493
0.12015 0.273487 0.317662
0.12015 0.273365 0.317296
0.120134 0.273182 0.316686
0.120668 0.27277 0.314824
0.306127 0.306569 0.307805
0.566613 0.325231 0.295491
0.699489 0.316472 0.239322
0.683253 0.261616 0.0429999
0.613169 0.0700236 0.0220493
0.236149 0.594461 0.350393
0.236133 0.594446 0.350088
0.236118 0.594415 0.349599
0.236057 0.594324 0.348058
0.280705 0.598856 0.343999
0.647395 0.64419 0.32639
0.828 0.663935 0.268788
0.82739 0.650034 0.0879835
0.798321 0.568368 0.0794385
0.336599 0.841382 0.366537
0.336599 0.841382 0.366125
0.336599 0.841398 0.365454
0.336583 0.841443 0.363409
0.336553 0.841611 0.357092
0.517876 0.865446 0.335546
0.917586 0.918791 0.25774
0.92874 0.922957 0.119661
0.92697 0.914672 0.118715
0.360616 0.908141 0.301808
0.360586 0.908141 0.301289
0.360525 0.908141 0.30042
0.360388 0.908141 0.297795
0.359915 0.908141 0.289693
0.358083 0.90811 0.263371
0.753109 0.955413 0.161883
0.948287 0.976974 0.125933
0.950103 0.976883 0.125948
0.347204 0.916732 0.106859
0.347204 0.916732 0.106859
0.347204 0.916732 0.106859
0.347204 0.916732 0.106859
0.347204 0.916732 0.106859
0.347204 0.916732 0.106859
0.347204 0.916732 0.106859
0.933532 0.98291 0.126253
0.953094 0.984939 0.126894
0.0422675 0.0089723 0.540566
0.0422522 0.0089723 0.540429
0.0425574 0.00900282 0.540169
0.105547 0.016144 0.534813
0.280613 0.0361181 0.533165
0.502358 0.061387 0.527108
0.613809 0.0739147 0.512825
0.621424 0.0742046 0.442573
0.613169 0.0700236 0.0220493
0.0422522 0.0089723 0.54052
0.0422522 0.0089723 0.540383
0.042237 0.0089723 0.540169
0.10132 0.0156558 0.534676
0.278584 0.035874 0.533227
0.501671 0.0612955 0.527047
0.613779 0.0739147 0.512779
0.621424 0.0742046 0.442512
0.613169 0.0700236 0.0220493
0.0422522 0.0089723 0.540444
0.042237 0.0089723 0.540322
0.0422217 0.0089723 0.540093
0.0942092 0.014847 0.534493
0.275196 0.0354925 0.533318
0.500526 0.0611734 0.526925
0.613718 0.0739147 0.512703
0.621424 0.0742046 0.44242
0.613169 0.0700236 0.0220493
0.0422065 0.00932326 0.545495
0.0421912 0.009308 0.545296
0.0421607 0.00927749 0.544976
0.073228 0.0125734 0.538552
0.264256 0.0342412 0.533837
0.496895 0.0607614 0.526467
0.613581 0.0738842 0.512474
0.621424 0.0742046 0.44213
0.613169 0.0700236 0.0220493
0.115114 0.23621 0.599527
0.115068 0.236103 0.599374
0.114992 0.235904 0.599115
0.114733 0.235325 0.598321
0.295201 0.2533 0.586206
0.567361 0.281895 0.576638
0.698466 0.274556 0.552666
0.681361 0.208484 0.467033
0.613169 0.0700236 0.0220493
0.236896 0.565209 0.632029
0.236866 0.565164 0.631876
0.236835 0.565087 0.631632
0.236713 0.564874 0.630869
0.244205 0.565606 0.628626
0.61941 0.617731 0.619959
0.819638 0.627054 0.606256
0.830198 0.606241 0.51931
0.791074 0.548821 0.0774395
0.332265 0.823377 0.649363
0.332265 0.823377 0.649226
0.33225 0.823362 0.648997
0.332219 0.823362 0.64828
0.332113 0.823331 0.646097
0.492866 0.841291 0.643915
0.894392 0.890517 0.619867
0.935271 0.893477 0.538369
0.926314 0.912886 0.118517
0.362676 0.904372 0.640543
0.362676 0.904372 0.640406
0.362676 0.904387 0.640177
0.362661 0.904387 0.63946
0.362646 0.904418 0.637263
0.36257 0.904509 0.630411
0.732799 0.946761 0.60705
0.963653 0.974182 0.521294
0.950072 0.976837 0.125948
0.369238 0.920409 0.573251
0.369238 0.920409 0.573083
0.369238 0.920409 0.572778
0.369253 0.920409 0.571893
0.369268 0.920409 0.569131
0.369345 0.920409 0.56051
0.369604 0.920409 0.531273
0.936873 0.984131 0.400504
0.953094 0.984939 0.126894
0.0578317 0.0124056 0.755001
0.0578317 0.0124056 0.754986
0.0578317 0.0124056 0.754955
0.0578164 0.0124056 0.754864
0.250599 0.0343938 0.758343
0.502693 0.0631266 0.753017
0.621408 0.0766461 0.751049
0.628016 0.0773327 0.741283
0.62739 0.0769055 0.695964
0.0578317 0.0124056 0.755001
0.0578317 0.0124056 0.754986
0.0578317 0.0124056 0.754955
0.0578164 0.0124056 0.754864
0.248035 0.0341039 0.758297
0.501976 0.0630503 0.753017
0.621378 0.0766461 0.751034
0.628016 0.0773327 0.741283
0.62739 0.0769055 0.695964
0.0578317 0.0124056 0.754986
0.0578317 0.0124056 0.754971
0.0578317 0.0124056 0.75494
0.0578164 0.0124056 0.754849
0.243793 0.0336156 0.758206
0.500786 0.0629129 0.753002
0.621332 0.0766461 0.751034
0.628 0.0773327 0.741268
0.62739 0.0769055 0.695933
0.0578317 0.0124056 0.754971
0.0578317 0.0124056 0.75494
0.0578164 0.0124056 0.75491
0.0578164 0.0124056 0.754833
0.230259 0.0320592 0.757626
0.497139 0.062501 0.752972
0.621195 0.0766308 0.751003
0.628 0.0773327 0.741238
0.62739 0.0769055 0.695872
0.0794385 0.0904097 0.779873
0.079408 0.0902419 0.779843
0.0793469 0.0899825 0.779782
0.0791943 0.0891585 0.779614
0.202808 0.101595 0.773831
0.50837 0.135454 0.766979
0.638911 0.122759 0.759106
0.627985 0.0773175 0.74107
0.627375 0.0769055 0.695674
0.228901 0.512566 0.861173
0.228885 0.51252 0.861158
0.22884 0.512428 0.861112
0.228748 0.512154 0.861021
0.228428 0.51133 0.860685
0.607919 0.564935 0.87219
0.813703 0.574319 0.8607
0.824445 0.548455 0.844144
0.7897 0.454185 0.778927
0.338094 0.808713 0.886198
0.338094 0.808713 0.886168
0.338079 0.808698 0.886137
0.338064 0.808667 0.886046
0.338018 0.80856 0.885725
0.426902 0.821363 0.889113
0.880995 0.884108 0.881971
0.930297 0.889097 0.872435
0.930816 0.878843 0.822248
0.371771 0.900008 0.891569
0.371771 0.900008 0.891554
0.371771 0.900008 0.891524
0.371771 0.900008 0.891417
0.371756 0.900008 0.891096
0.371695 0.900008 0.890089
0.709346 0.943999 0.893263
0.961852 0.974212 0.877974
0.967758 0.973693 0.824338
0.378103 0.918349 0.883604
0.378103 0.918349 0.883574
0.378103 0.918349 0.883543
0.378103 0.918349 0.883421
0.378088 0.918349 0.88307
0.378042 0.918379 0.882002
0.377905 0.918441 0.878584
0.907362 0.981979 0.864134
0.973693 0.988632 0.799527
0.0627604 0.0133364 0.803418
0.0627604 0.0133364 0.803418
0.0627604 0.0133364 0.803418
0.0627604 0.0133364 0.803418
0.0627604 0.0133364 0.803403
0.45034 0.0575875 0.81326
0.622965 0.0773327 0.816892
0.631373 0.0782788 0.816617
0.632502 0.0784009 0.81529
0.0627604 0.0133364 0.803418
0.0627604 0.0133364 0.803418
0.0627604 0.0133364 0.803418
0.0627604 0.0133364 0.803418
0.0627604 0.0133364 0.803403
0.449271 0.0574655 0.813245
0.62295 0.0773175 0.816892
0.631373 0.0782788 0.816617
0.632502 0.0784009 0.81529
0.0627604 0.0133364 0.803418
0.0627604 0.0133364 0.803418
0.0627604 0.0133364 0.803418
0.0627604 0.0133364 0.803418
0.0627604 0.0133364 0.803403
0.447501 0.0572671 0.81323
0.622889 0.0773175 0.816892
0.631373 0.0782788 0.816617
0.632502 0.0784009 0.81529
0.0627604 0.0133364 0.803418
0.0627604 0.0133364 0.803418
0.0627604 0.0133364 0.803418
0.0627604 0.0133364 0.803418
0.0627604 0.0133364 0.803403
0.442023 0.0566415 0.813169
0.622751 0.0773022 0.816892
0.631357 0.0782788 0.816617
0.632502 0.0784009 0.81529
0.0627604 0.0133364 0.803418
0.0627604 0.0133364 0.803418
0.0627604 0.0133364 0.803418
0.0627604 0.0133364 0.803418
0.0627604 0.0133364 0.803403
0.42385 0.0545663 0.813031
0.622309 0.0772564 0.816876
0.631357 0.0782788 0.816617
0.632502 0.0784009 0.815274
0.16199 0.327703 0.881895
0.161959 0.327611 0.88188
0.161898 0.327474 0.881849
0.16173 0.327016 0.881773
0.161196 0.325628 0.881498
0.45597 0.354406 0.88397
0.743542 0.376394 0.889906
0.745357 0.330129 0.879072
0.649516 0.120089 0.822858
0.33167 0.784146 0.940398
0.33167 0.784131 0.940398
0.331655 0.784115 0.940398
0.33164 0.784054 0.940383
0.331563 0.783886 0.940352
0.331365 0.783352 0.940246
0.868055 0.862013 0.953902
0.927504 0.862837 0.954772
0.928664 0.84622 0.952728
0.373754 0.897292 0.954467
0.373754 0.897292 0.954467
0.373754 0.897292 0.954467
0.373754 0.897292 0.954467
0.373754 0.897276 0.954452
0.373739 0.897261 0.954421
0.617563 0.931456 0.966354
0.974594 0.977005 0.975402
0.985809 0.978424 0.975296
0.381033 0.916899 0.956512
0.381033 0.916899 0.956512
0.381033 0.916899 0.956512
0.381033 0.916899 0.956497
0.381033 0.916915 0.956481
0.381033 0.916915 0.956451
0.381033 0.916915 0.956329
0.89279 0.981369 0.96698
0.994079 0.997482 0.977768
0.0635996 0.013489 0.81088
0.0635996 0.013489 0.81088
0.0635996 0.013489 0.81088
0.0635996 0.013489 0.81088
0.0635996 0.013489 0.81088
0.0635996 0.013489 0.81088
0.615213 0.076524 0.82771
0.631785 0.0784161 0.828275
0.633097 0.0785687 0.828321
0.0635996 0.013489 0.81088
0.0635996 0.013489 0.81088
0.0635996 0.013489 0.81088
0.0635996 0.013489 0.81088
0.0635996 0.013489 0.81088
0.0635996 0.013489 0.81088
0.615152 0.076524 0.82771
0.631785 0.0784161 0.828275
0.633097 0.0785687 0.828321
0.0635996 0.013489 0.81088
0.0635996 0.013489 0.81088
0.0635996 0.013489 0.81088
0.0635996 0.013489 0.81088
0.0635996 0.013489 0.81088
0.0635996 0.013489 0.81088
0.615076 0.0765087 0.82771
0.631785 0.0784161 0.828275
0.633097 0.0785687 0.828321
0.0635996 0.013489 0.81088
0.0635996 0.013489 0.81088
0.0635996 0.013489 0.81088
0.0635996 0.013489 0.81088
0.0635996 0.013489 0.81088
0.0635996 0.013489 0.81088
0.614801 0.0764782 0.82771
0.631785 0.0784161 0.828275
0.633097 0.0785687 0.828321
0.0635996 0.013489 0.81088
0.0635996 0.013489 0.81088
0.0635996 0.013489 0.81088
0.0635996 0.013489 0.81088
0.0635996 0.013489 0.81088
0.0635996 0.013489 0.81088
0.613916 0.0763714 0.827665
0.631769 0.0784161 0.828275
0.633097 0.0785687 0.828321
0.0635996 0.013489 0.81088
0.0635996 0.013489 0.81088
0.0635996 0.013489 0.81088
0.0635996 0.013489 0.81088
0.0635996 0.013489 0.81088
0.0635996 0.013489 0.81088
0.604913 0.075349 0.827344
0.631708 0.0784009 0.828275
0.633097 0.0785687 0.828321
0.276249 0.634012 0.929778
0.276234 0.633967 0.929778
0.276219 0.633921 0.929763
0.276158 0.633753 0.929747
0.275975 0.633265 0.929702
0.27541 0.631724 0.929534
0.772 0.697887 0.958389
0.880171 0.692241 0.959579
0.86276 0.6318 0.951308
0.372061 0.891478 0.96347
0.372061 0.891478 0.96347
0.372061 0.891478 0.96347
0.372061 0.891478 0.96347
0.372045 0.891463 0.96347
0.37203 0.891417 0.963455
0.371984 0.891279 0.963439
0.972488 0.972274 0.990967
0.987167 0.9738 0.994171
0.38143 0.916686 0.96672
0.38143 0.916686 0.96672
0.38143 0.916686 0.96672
0.38143 0.916686 0.96672
0.38143 0.916686 0.96672
0.38143 0.916686 0.96672
0.38143 0.916686 0.96672
0.815259 0.97203 0.979385
1 1 1
