LUTs/DJI_DLog_to_ACES2065_1.cube
TITLE "Generated by Resolve"
LUT_3D_SIZE 33
0 0 0
0 0 0
0 0 0
0 0 0
0 0 0
0.00267033 0 0
0.0075227 0 0
0.0139467 0 0
0.0224308 0 0
0.0336767 0 0
0.0485542 0 0
0.0682536 0 0
0.094316 0 0
0.128832 0 0
0.174502 0.00277714 0
0.234943 0.00856031 0
0.314961 0.0162356 0
0.420859 0.0263676 0
0.561028 0.0398108 0
0.746563 0.0575723 0
0.992142 0.0811017 0
1 0.112245 0
1 0.15346 0
1 0.208011 0
1 0.280201 0
1 0.375784 0
1 0.502266 0
1 0.669703 0
1 0.89131 0
1 1 0
1 1 0
1 1 0
1 1 0
0 0 0
0 0 0
0 0 0
0 0 0
3.0518e-05 0 0
0.00378424 0 0
0.00863661 0 0
0.0150454 0 0
0.0235447 0 0
0.0347906 0 0
0.0496681 0 0
0.0693675 0 0
0.0954299 0.000335698 0
0.129931 0.00364691 0
0.175601 0.00802625 0
0.236057 0.0138094 0
0.316075 0.0214694 0
0.421973 0.0316167 0
0.562142 0.0450446 0
0.747677 0.0628214 0
0.993255 0.0863508 0
1 0.117479 0
1 0.158694 0
1 0.213245 0
1 0.285451 0
1 0.381018 0
1 0.507515 0
1 0.674937 0
1 0.896544 0
1 1 0
1 1 0
1 1 0
1 1 0
0 0 0
0 0 0
0 0 0
0 0 0
0.00114443 0 0
0.00489815 0 0
0.00975052 0 0
0.0161593 0 0
0.0246586 0 0
0.0359045 0 0
0.050782 0.00120546 0
0.0704814 0.00308232 0
0.0965438 0.0055848 0
0.131044 0.00889601 0
0.176715 0.0132601 0
0.237171 0.0190585 0
0.317174 0.0267185 0
0.423087 0.0368658 0
0.563256 0.0502937 0
0.748791 0.0680705 0
0.994369 0.0915999 0
1 0.122728 0
1 0.163943 0
1 0.218494 0
1 0.2907 0
1 0.386267 0
1 0.512764 0
1 0.680186 0
1 0.901793 0
1 1 0
1 1 0
1 1 0
1 1 0
0 0.000320439 0
0 0.000656138 0
0 0.0010071 0
0 0.00134279 0
0.00225834 0.00169375 0
0.00601205 0.00205997 0
0.0108644 0.00251774 0
0.0172732 0.0031281 0
0.0257725 0.00395209 0
0.0370184 0.00502022 0
0.0518959 0.00645457 0
0.0715801 0.00833143 0
0.0976577 0.0108339 0
0.132158 0.0141451 0
0.177829 0.0185092 0
0.238285 0.0243076 0
0.318288 0.0319677 0
0.424201 0.0421149 0
0.56437 0.0555428 0
0.749905 0.0733196 0
0.995468 0.0968338 0
1 0.127977 0
1 0.169192 0
1 0.223743 0
1 0.295949 0
1 0.391516 0
1 0.518013 0
1 0.685435 0
1 0.907042 0
1 1 0
1 1 0
1 1 0
1 1 0
0 0.00556954 0
0 0.00590524 0
0 0.0062562 0
0 0.0065919 0
0.00337224 0.00694286 0
0.00712596 0.00729381 0
0.0119631 0.00776684 0
0.0183871 0.0083772 0
0.0268864 0.00918593 0
0.038117 0.0102693 0
0.0530098 0.0116884 0
0.072694 0.0135805 0
0.0987716 0.016083 0
0.133272 0.019379 0
0.178943 0.0237583 0
0.239399 0.0295567 0
0.319402 0.0372168 0
0.425315 0.047364 0
0.565484 0.0607919 0
0.751019 0.0785687 0
0.996582 0.102083 0
1 0.133227 0
1 0.174441 0
1 0.228992 0
1 0.301198 0
1 0.396765 0
1 0.523262 0
1 0.690684 0
1 0.912291 0
1 1 0
1 1 0
1 1 0
1 1 0
0 0.0110628 0
0 0.0113985 0
0 0.0117494 0
0.000946059 0.0120851 0
0.00453193 0.0124361 0
0.00828565 0.0127871 0
0.013138 0.0132601 0
0.0195468 0.0138705 0
0.0280461 0.0146792 0
0.039292 0.0157626 0
0.0541695 0.0171817 0
0.0738689 0.0190738 0
0.0999313 0.0215763 0
0.134432 0.0248722 0
0.180102 0.0292515 0
0.240558 0.03505 0
0.320562 0.04271 0
0.426474 0.0528573 0
0.566644 0.0662852 0
0.752178 0.084062 0
0.997757 0.107576 0
1 0.13872 0
1 0.179934 0
1 0.234485 0
1 0.306691 0
1 0.402258 0
1 0.528756 0
1 0.696178 0
1 0.917784 0
1 1 0
1 1 0
1 1 0
1 1 0
0 0.0181582 0
0 0.0184939 0
0 0.0188449 0
0.0024567 0.0191806 0
0.00604257 0.0195315 0
0.00979629 0.0198825 0
0.0146334 0.0203555 0
0.0210575 0.0209659 0
0.0295415 0.0217746 0
0.0407874 0.022858 0
0.0556649 0.0242771 0
0.0753643 0.0261692 0
0.101442 0.0286717 0
0.135943 0.0319677 0
0.181613 0.036347 0
0.242054 0.0421454 0
0.322072 0.0498054 0
0.42797 0.0599527 0
0.568154 0.0733806 0
0.753689 0.0911574 0
0.999252 0.114672 0
1 0.145815 0
1 0.18703 0
1 0.241581 0
1 0.313787 0
1 0.409354 0
1 0.535851 0
1 0.703273 0
1 0.92488 0
1 1 0
1 1 0
1 1 0
1 1 0
0 0.0275425 0
0 0.0278935 0
0.000854505 0.0282292 0
0.00444038 0.0285801 0
0.00802625 0.0289158 0
0.01178 0.0292821 0
0.0166323 0.0297398 0
0.0230411 0.0303502 0
0.0315404 0.0311742 0
0.0427863 0.0322423 0
0.0576638 0.0336767 0
0.0773632 0.0355535 0
0.103426 0.038056 0
0.137926 0.0413672 0
0.183597 0.0457313 0
0.244053 0.0515297 0
0.324056 0.0591897 0
0.429969 0.069337 0
0.570138 0.0827649 0
0.755673 0.100542 0
1 0.124071 0
1 0.1552 0
1 0.196414 0
1 0.250965 0
1 0.323171 0
1 0.418738 0
1 0.545235 0
1 0.712657 0
1 0.934264 0
1 1 0
1 1 0
1 1 0
1 1 0
0 0.0399786 0
0 0.0403143 0
0.00349432 0.0406653 0
0.00708019 0.041001 0
0.0106661 0.0413519 0
0.0144198 0.0417029 0
0.0192569 0.0421759 0
0.0256809 0.0427863 0
0.0341802 0.043595 0
0.0454108 0.0446784 0
0.0602884 0.0460975 0
0.0799878 0.0479896 0
0.106065 0.0504921 0
0.140566 0.0537881 0
0.186236 0.0581674 0
0.246693 0.0639658 0
0.326696 0.0716259 0
0.432593 0.0817731 0
0.572778 0.095201 0
0.758312 0.112978 0
1 0.136492 0
1 0.167636 0
1 0.20885 0
1 0.263401 0
1 0.335607 0
1 0.431174 0
1 0.557671 0
1 0.725093 0
1 0.9467 0
1 1 0
1 1 0
1 1 0
1 1 0
0 0.0564279 0
0.0033875 0.0567636 0
0.00697337 0.0571145 0
0.0105592 0.0574502 0
0.0141451 0.0578012 0
0.0178988 0.0581674 0
0.0227512 0.0586252 0
0.02916 0.0592355 0
0.0376593 0.0600595 0
0.0489052 0.0611276 0
0.0637827 0.062562 0
0.0834821 0.0644388 0
0.109545 0.0669413 0
0.144045 0.0702373 0
0.189715 0.0746166 0
0.250172 0.080415 0
0.33019 0.0880751 0
0.436088 0.0982223 0
0.576257 0.11165 0
0.761791 0.129427 0
1 0.152941 0
1 0.184085 0
1 0.225299 0
1 0.27985 0
1 0.352056 0
1 0.447623 0
1 0.574121 0
1 0.741543 0
1 0.963149 0
1 1 0
1 1 0
1 1 0
1 1 0
0.00442512 0.0782025 0
0.00801099 0.0785382 0
0.0115969 0.0788891 0
0.0151827 0.0792401 0
0.0187686 0.0795758 0
0.0225223 0.079942 0
0.0273594 0.0803998 0
0.0337835 0.0810101 0
0.0422675 0.0818341 0
0.0535134 0.0829023 0
0.0683909 0.0843366 0
0.0880903 0.0862135 0
0.114168 0.088716 0
0.148669 0.0920272 0
0.194339 0.0963912 0
0.25478 0.10219 0
0.334798 0.10985 0
0.440696 0.119997 0
0.58088 0.133425 0
0.766415 0.151202 0
1 0.174716 0
1 0.205859 0
1 0.247074 0
1 0.301625 0
1 0.373831 0
1 0.469398 0
1 0.595895 0
1 0.763317 0
1 0.984924 0
1 1 0
1 1 0
1 1 0
1 1 0
0.0105287 0.107027 0
0.0141146 0.107362 0
0.0177005 0.107713 0
0.0212863 0.108049 0
0.0248722 0.1084 0
0.0286259 0.108751 0
0.0334783 0.109224 0
0.0398871 0.109834 0
0.0483864 0.110643 0
0.059617 0.111727 0
0.0745098 0.113146 0
0.0941939 0.115038 0
0.120272 0.11754 0
0.154772 0.120836 0
0.200443 0.125216 0
0.260899 0.131014 0
0.340902 0.138674 0
0.446815 0.148821 0
0.586984 0.162249 0
0.772519 0.180026 0
1 0.20354 0
1 0.234684 0
1 0.275898 0
1 0.330449 0
1 0.402655 0
1 0.498222 0
1 0.62472 0
1 0.792142 0
1 1 0
1 1 0
1 1 0
1 1 0
1 1 0
0.018616 0.145174 0
0.0222019 0.14551 0
0.0257877 0.145861 0
0.0293736 0.146197 0
0.0329595 0.146548 0
0.0367132 0.146914 0
0.0415503 0.147372 0
0.0479744 0.147982 0
0.0564736 0.148806 0
0.0677043 0.149874 0
0.0825818 0.151308 0
0.102281 0.153185 0
0.128359 0.155688 0
0.16286 0.158999 0
0.20853 0.163363 0
0.268986 0.169162 0
0.348989 0.176822 0
0.454887 0.186969 0
0.595071 0.200397 0
0.780606 0.218173 0
1 0.241688 0
1 0.272831 0
1 0.314046 0
1 0.368597 0
1 0.440803 0
1 0.53637 0
1 0.662867 0
1 0.830289 0
1 1 0
1 1 0
1 1 0
1 1 0
1 1 0
0.0293126 0.195666 0
0.0328985 0.196017 0
0.0364843 0.196353 0
0.0400702 0.196704 0
0.0436561 0.19704 0
0.0474098 0.197406 0
0.0522621 0.197864 0
0.0586709 0.198474 0
0.0671702 0.199298 0
0.0784161 0.200366 0
0.0932937 0.201801 0
0.112993 0.203677 0
0.139055 0.20618 0
0.173556 0.209491 0
0.219226 0.213855 0
0.279683 0.219654 0
0.359686 0.227314 0
0.465599 0.237461 0
0.605768 0.250889 0
0.791302 0.268666 0
1 0.292195 0
1 0.323323 0
1 0.364538 0
1 0.419089 0
1 0.491295 0
1 0.586862 0
1 0.713359 0
1 0.880781 0
1 1 0
1 1 0
1 1 0
1 1 0
1 1 0
0.043473 0.262501 0
0.0470588 0.262852 0
0.0506447 0.263188 0
0.0542306 0.263539 0
0.0578164 0.263874 0
0.0615702 0.26424 0
0.0664225 0.264698 0
0.0728313 0.265309 0
0.0813306 0.266133 0
0.0925765 0.267201 0
0.107454 0.268635 0
0.127153 0.270512 0
0.153216 0.273014 0
0.187716 0.276326 0
0.233387 0.28069 0
0.293843 0.286488 0
0.373861 0.294148 0
0.479759 0.304295 0
0.619928 0.317723 0
0.805463 0.3355 0
1 0.35903 0
1 0.390158 0
1 0.431373 0
1 0.485924 0
1 0.558129 0
1 0.653696 0
1 0.780194 0
1 0.947616 0
1 1 0
1 1 0
1 1 0
1 1 0
1 1 0
0.0622263 0.350958 0
0.0658122 0.351308 0
0.069398 0.351644 0
0.0729839 0.351995 0
0.0765698 0.352346 0
0.0803235 0.352697 0
0.0851606 0.353155 0
0.0915847 0.35378 0
0.100084 0.354589 0
0.111315 0.355673 0
0.126207 0.357092 0
0.145892 0.358984 0
0.171969 0.361471 0
0.20647 0.364782 0
0.25214 0.369162 0
0.312596 0.374945 0
0.392599 0.38262 0
0.498512 0.392752 0
0.638682 0.40618 0
0.824216 0.423957 0
1 0.447486 0
1 0.47863 0
1 0.519844 0
1 0.574395 0
1 0.646586 0
1 0.742153 0
1 0.86865 0
1 1 0
1 1 0
1 1 0
1 1 0
1 1 0
1 1 0
0.0870375 0.468055 0
0.0906233 0.468391 0
0.0942092 0.468742 0
0.0977951 0.469078 0
0.101381 0.469429 0
0.105135 0.46978 0
0.109987 0.470253 0
0.116396 0.470863 0
0.124895 0.471687 0
0.136141 0.472755 0
0.151019 0.474174 0
0.170703 0.476066 0
0.19678 0.478569 0
0.231281 0.481865 0
0.276951 0.486244 0
0.337407 0.492042 0
0.417411 0.499702 0
0.523323 0.50985 0
0.663493 0.523278 0
0.849027 0.541054 0
1 0.564569 0
1 0.595712 0
1 0.636927 0
1 0.691478 0
1 0.763684 0
1 0.859251 0
1 0.985748 0
1 1 0
1 1 0
1 1 0
1 1 0
1 1 0
1 1 0
0.119875 0.623026 0
0.123461 0.623377 0
0.127047 0.623713 0
0.130632 0.624063 0
0.134218 0.624399 0
0.137972 0.624765 0
0.142824 0.625223 0
0.149248 0.625849 0
0.157733 0.626657 0
0.168978 0.627741 0
0.183856 0.62916 0
0.203555 0.631052 0
0.229618 0.633539 0
0.264134 0.636851 0
0.309804 0.64123 0
0.370245 0.647013 0
0.450263 0.654673 0
0.556161 0.66482 0
0.69633 0.678248 0
0.881865 0.696025 0
1 0.719554 0
1 0.750683 0
1 0.791897 0
1 0.846448 0
1 0.918654 0
1 1 0
1 1 0
1 1 0
1 1 0
1 1 0
1 1 0
1 1 0
1 1 0
0.163348 0.828153 0
0.166934 0.828504 0
0.17052 0.828855 0
0.174105 0.82919 0
0.177691 0.829541 0
0.181445 0.829892 0
0.186297 0.830365 0
0.192706 0.830976 0
0.201205 0.831785 0
0.212451 0.832868 0
0.227329 0.834287 0
0.247028 0.836179 0
0.273091 0.838666 0
0.307591 0.841978 0
0.353262 0.846357 0
0.413718 0.85214 0
0.493736 0.859815 0
0.599634 0.869947 0
0.739803 0.883391 0
0.925338 0.901152 0
1 0.924681 0
1 0.955825 0
1 0.99704 0
1 1 0
1 1 0
1 1 0
1 1 0
1 1 0
1 1 0
1 1 0
1 1 0
1 1 0
1 1 0
0.22089 1 0
0.224475 1 0
0.228061 1 0
0.231647 1 0
0.235233 1 0
0.238987 1 0
0.243839 1 0
0.250248 1 0
0.258747 1 0
0.269993 1 0
0.284871 1 0
0.304555 1 0
0.330632 1 0
0.365133 1 0
0.410803 1 0
0.47126 1 0
0.551263 1 0
0.657176 1 0
0.797345 1 0
0.982879 1 0
1 1 0
1 1 0
1 1 0
1 1 0
1 1 0
1 1 0
1 1 0
1 1 0
1 1 0
1 1 0
1 1 0
1 1 0
1 1 0
0.297047 1 0
0.300633 1 0
0.304219 1 0
0.307805 1 0
0.311391 1 0
0.315145 1 0
0.319997 1 0
0.326406 1 0
0.334905 1 0
0.346151 1 0
0.361028 1 0
0.380713 1 0
0.40679 1 0
0.441291 1 0
0.486961 1 0
0.547417 1 0
0.62742 1 0
0.733333 1 0
0.873503 1 0
1 1 0
1 1 0
1 1 0
1 1 0
1 1 0
1 1 0
1 1 0
1 1 0
1 1 0
1 1 0
1 1 0
1 1 0
1 1 0
1 1 0
0.397848 1 0
0.401434 1 0
0.40502 1 0
0.408606 1 0
0.412192 1 0
0.415946 1 0
0.420798 1 0
0.427207 1 0
0.435706 1 0
0.446952 1 0
0.46183 1 0
0.481529 1 0
0.507591 1 0
0.542092 1 0
0.587762 1 0
0.648219 1 0
0.728222 1 0
0.834134 1 0
0.974304 1 0
1 1 0
1 1 0
1 1 0
1 1 0
1 1 0
1 1 0
1 1 0
1 1 0
1 1 0
1 1 0
1 1 0
1 1 0
1 1 0
1 1 0
0.531273 1 0
0.534859 1 0
0.538445 1 0
0.542031 1 0
0.545617 1 0
0.549371 1 0
0.554223 1 0
0.560632 1 0
0.569131 1 0
0.580362 1 0
0.595254 1 0
0.614939 1 0
0.641016 1 0
0.675517 1 0
0.721187 1 0
0.781643 1 0
0.861646 1 0
0.967559 1 0
1 1 0
1 1 0
1 1 0
1 1 0
1 1 0
1 1 0
1 1 0
1 1 0
1 1 0
1 1 0
1 1 0
1 1 0
1 1 0
1 1 0
1 1 0
0.707866 1 0
0.711452 1 0
0.715038 1 0
0.718624 1 0
0.72221 1 0
0.725963 1 0
0.730816 1 0
0.737224 1 0
0.745724 1 0
0.75697 1 0
0.771847 1 0
0.791547 1 0
0.817609 1 0
0.85211 1 0
0.897795 1 0
0.958236 1 0
1 1 0
1 1 0
1 1 0
1 1 0
1 1 0
1 1 0
1 1 0
1 1 0
1 1 0
1 1 0
1 1 0
1 1 0
1 1 0
1 1 0
1 1 0
1 1 0
1 1 0
0.941619 1 0
0.945205 1 0
0.948791 1 0
0.952377 1 0
0.955962 1 0
0.959716 1 0
0.964553 1 0
0.970977 1 0
0.979477 1 0
0.990707 1 0
1 1 0
1 1 0
1 1 0
1 1 0
1 1 0
1 1 0
1 1 0
1 1 0
1 1 0
1 1 0
1 1 0
1 1 0
1 1 0
1 1 0
1 1 0
1 1 0
1 1 0
1 1 0
1 1 0
1 1 0
1 1 0
1 1 0
1 1 0
1 1 0
1 1 0
1 1 0
1 1 0
1 1 0
1 1 0
1 1 0
1 1 0
1 1 0
1 1 0
1 1 0
1 1 0
1 1 0
1 1 0
1 1 0
1 1 0
1 1 0
1 1 0
1 1 0
1 1 0
1 1 0
1 1 0
1 1 0
1 1 0
1 1 0
1 1 0
1 1 0
1 1 0
1 1 0
1 1 0
1 1 0
1 1 0
1 1 0
1 1 0
1 1 0
1 1 0
1 1 0
1 1 0
1 1 0
1 1 0
1 1 0
1 1 0
1 1 0
1 1 0
1 1 0
1 1 0
1 1 0
1 1 0
1 1 0
1 1 0
1 1 0
1 1 0
1 1 0
1 1 0
1 1 0
1 1 0
1 1 0
1 1 0
1 1 0
1 1 0
1 1 0
1 1 0
1 1 0
1 1 0
1 1 0
1 1 0
1 1 0
1 1 0
1 1 0
1 1 0
1 1 0
1 1 0
1 1 0
1 1 0
1 1 0
