LUTs/DJI_DLog_to_ACES2065_1.cube
TITLE "Generated by Resolve"
LUT_3D_SIZE 9
0 0 0
0 0 0
0.0224308 0 0
0.094316 0 0
0.314961 0.0162356 0
0.992142 0.0811017 0
1 0.280201 0
1 0.89131 0
1 1 0
0 0.00556954 0
0.00337224 0.00694286 0
0.0268864 0.00918593 0
0.0987716 0.016083 0
0.319402 0.0372168 0
0.996582 0.102083 0
1 0.301198 0
1 0.912291 0
1 1 0
0 0.0399786 0
0.0106661 0.0413519 0
0.0341802 0.043595 0
0.106065 0.0504921 0
0.326696 0.0716259 0
1 0.136492 0
1 0.335607 0
1 0.9467 0
1 1 0
0.018616 0.145174 0
0.0329595 0.146548 0
0.0564736 0.148806 0
0.128359 0.155688 0
0.348989 0.176822 0
1 0.241688 0
1 0.440803 0
1 1 0
1 1 0
0.0870375 0.468055 0
0.101381 0.469429 0
0.124895 0.471687 0
0.19678 0.478569 0
0.417411 0.499702 0
1 0.564569 0
1 0.763684 0
1 1 0
1 1 0
0.297047 1 0
0.311391 1 0
0.334905 1 0
0.40679 1 0
0.62742 1 0
1 1 0
1 1 0
1 1 0
1 1 0
0.941619 1 0
0.955962 1 0
0.979477 1 0
1 1 0
1 1 0
1 1 0
1 1 0
1 1 0
1 1 0
1 1 0
1 1 0
1 1 0
1 1 0
1 1 0
1 1 0
1 1 0
1 1 0
1 1 0
1 1 0
1 1 0
1 1 0
1 1 0
1 1 0
1 1 0
1 1 0
1 1 0
1 1 0
0 0 0.00729381
0.000885023 0 0.0069276
0.0243839 0 0.00634775
0.0962844 0 0.00454719
0.316915 0.0146181 0
0.994095 0.0794842 0
1 0.278599 0
1 0.889693 0
1 1 0
0 0.00395209 0.00569162
0.0053254 0.0053254 0.0053254
0.0288396 0.00758373 0.0047303
0.100725 0.0144656 0.00294499
0.321355 0.0355993 0
0.99855 0.100465 0
1 0.29958 0
1 0.910674 0
1 1 0
0 0.0383612 0.0030518
0.0126192 0.0397345 0.00270085
0.0361334 0.0419928 0.00210575
0.108019 0.0488746 0.00030518
0.328649 0.0700084 0
1 0.134874 0
1 0.333989 0
1 0.945083 0
1 1 0
0.0205692 0.143557 0
0.0349126 0.14493 0
0.0584268 0.147189 0
0.130312 0.15407 0
0.350942 0.175204 0
1 0.240085 0
1 0.439185 0
1 1 0
1 1 0
0.0889906 0.466438 0
0.103334 0.467811 0
0.126848 0.470069 0
0.198734 0.476951 0
0.419379 0.498085 0
1 0.562966 0
1 0.762066 0
1 1 0
1 1 0
0.299001 1 0
0.313344 1 0
0.336858 1 0
0.408743 1 0
0.629389 1 0
1 1 0
1 1 0
1 1 0
1 1 0
0.943572 1 0
0.957916 1 0
0.98143 1 0
1 1 0
1 1 0
1 1 0
1 1 0
1 1 0
1 1 0
1 1 0
1 1 0
1 1 0
1 1 0
1 1 0
1 1 0
1 1 0
1 1 0
1 1 0
1 1 0
1 1 0
1 1 0
1 1 0
1 1 0
1 1 0
1 1 0
1 1 0
1 1 0
0 0 0.0445258
0.00408942 0 0.0441596
0.0276036 0 0.0435798
0.0994888 0 0.0417792
0.320119 0.0119631 0.0362554
0.997299 0.0768444 0.0193027
1 0.275944 0
1 0.887037 0
1 1 0
0 0.00129702 0.0429236
0.00852979 0.00268559 0.0425574
0.0320439 0.00492866 0.0419776
0.103929 0.0118105 0.040177
0.324575 0.0329595 0.0346532
1 0.0978256 0.0177005
1 0.296925 0
1 0.908034 0
1 1 0
0.00148013 0.0357061 0.0402838
0.0158236 0.0370794 0.0399329
0.0393378 0.0393378 0.0393378
0.111223 0.0462196 0.0375372
0.331868 0.0673686 0.0320134
1 0.132235 0.0150759
1 0.331334 0
1 0.942443 0
1 1 0
0.0237736 0.140917 0.0322423
0.038117 0.14229 0.0318761
0.0616312 0.144533 0.0312963
0.133516 0.151431 0.0294957
0.354162 0.172564 0.0239719
1 0.23743 0.00701915
1 0.436545 0
1 1 0
1 1 0
0.0922103 0.463798 0.00753796
0.106538 0.465171 0.007187
0.130053 0.467414 0.0065919
0.201938 0.474296 0.00479133
0.422583 0.495445 0
1 0.560311 0
1 0.759411 0
1 1 0
1 1 0
0.30222 1 0
0.316548 1 0
0.340063 1 0
0.411948 1 0
0.632593 1 0
1 1 0
1 1 0
1 1 0
1 1 0
0.946777 1 0
0.96112 1 0
0.984634 1 0
1 1 0
1 1 0
1 1 0
1 1 0
1 1 0
1 1 0
1 1 0
1 1 0
1 1 0
1 1 0
1 1 0
1 1 0
1 1 0
1 1 0
1 1 0
1 1 0
1 1 0
1 1 0
1 1 0
1 1 0
1 1 0
1 1 0
1 1 0
1 1 0
0 0 0.158358
0.013901 0 0.158007
0.0374151 0 0.157412
0.1093 0 0.155612
0.329931 0.00387579 0.150088
1 0.0687419 0.13315
1 0.267857 0.0811322
1 0.87895 0
1 1 0
0.00399786 0 0.156756
0.0183413 0 0.15639
0.0418555 0 0.15581
0.113741 0.0037232 0.154009
0.334386 0.0248569 0.148486
1 0.0897383 0.131548
1 0.288838 0.07953
1 0.899931 0
1 1 0
0.0112917 0.0276188 0.154116
0.0256352 0.0289921 0.153765
0.0491493 0.0312505 0.15317
0.121035 0.0381323 0.151369
0.34168 0.059266 0.145861
1 0.124132 0.128908
1 0.323247 0.0769055
1 0.93434 0
1 1 0
0.0335851 0.132815 0.146075
0.0479286 0.134188 0.145724
0.0714427 0.136446 0.145129
0.143328 0.143328 0.143328
0.363973 0.164462 0.137804
1 0.229343 0.120867
1 0.428443 0.0688487
1 1 0
1 1 0
0.102022 0.455695 0.121386
0.11635 0.457069 0.121019
0.139864 0.459327 0.120424
0.211749 0.466209 0.118639
0.432395 0.487343 0.113115
1 0.552224 0.0961624
1 0.751324 0.0441596
1 1 0
1 1 0
0.312032 1 0.0455787
0.32636 1 0.0452125
0.349874 1 0.0446326
0.421759 1 0.0428321
0.642405 1 0.0373083
1 1 0.0203708
1 1 0
1 1 0
1 1 0
0.956588 1 0
0.970932 1 0
0.994446 1 0
1 1 0
1 1 0
1 1 0
1 1 0
1 1 0
1 1 0
1 1 0
1 1 0
1 1 0
1 1 0
1 1 0
1 1 0
1 1 0
1 1 0
1 1 0
1 1 0
1 1 0
1 1 0
1 1 0
1 1 0
1 1 0
1 1 0
1 1 0
1 1 0
0.0296635 0 0.507744
0.044007 0 0.507393
0.0675212 0 0.506798
0.139406 0 0.504997
0.360037 0 0.499489
1 0.0439002 0.482536
1 0.243 0.430533
1 0.854109 0.270893
1 1 0
0.0341192 0 0.506142
0.0484474 0 0.505791
0.0719615 0 0.505196
0.143847 0 0.503395
0.364492 1.5259e-05 0.497871
1 0.0648814 0.480934
1 0.263996 0.428916
1 0.87509 0.269291
1 1 0
0.041413 0.00277714 0.503517
0.0557412 0.00415045 0.503151
0.0792554 0.00639353 0.502571
0.151141 0.0132906 0.500771
0.371786 0.0344244 0.495247
1 0.0992905 0.478294
1 0.298405 0.426291
1 0.909499 0.266651
1 1 0
0.0637064 0.107973 0.49546
0.0780346 0.109346 0.495109
0.101549 0.111604 0.494514
0.173434 0.118486 0.492714
0.39408 0.13962 0.487205
1 0.204501 0.470253
1 0.403601 0.41825
1 1 0.25861
1 1 0
0.132128 0.430854 0.470771
0.146471 0.432227 0.470405
0.16997 0.434485 0.469825
0.241871 0.441367 0.468025
0.462501 0.462501 0.462501
1 0.527367 0.445563
1 0.726482 0.393545
1 1 0.233921
1 1 0
0.342138 1 0.394965
0.356481 1 0.394614
0.379995 1 0.394018
0.451881 1 0.392218
0.672511 1 0.386694
1 1 0.369757
1 1 0.317739
1 1 0.158114
1 1 0
0.986709 1 0.162325
1 1 0.161959
1 1 0.161364
1 1 0.159579
1 1 0.154055
1 1 0.137102
1 1 0.0850996
1 1 0
1 1 0
1 1 0
1 1 0
1 1 0
1 1 0
1 1 0
1 1 0
1 1 0
1 1 0
1 1 0
1 1 0
1 1 0
1 1 0
1 1 0
1 1 0
1 1 0
1 1 0
1 1 0
1 1 0
0.122087 0 1
0.136416 0 1
0.15993 0 1
0.231815 0 1
0.452461 0 1
1 0 1
1 0.166751 1
1 0.777859 1
1 1 0.853315
0.126528 0 1
0.140871 0 1
0.164385 0 1
0.236271 0 1
0.456901 0 1
1 0 1
1 0.187747 1
1 0.79884 1
1 1 0.851698
0.133822 0 1
0.148165 0 1
0.171679 0 1
0.243565 0 1
0.464195 0 1
1 0.0230411 1
1 0.222156 1
1 0.833249 1
1 1 0.849073
0.156115 0.0317235 1
0.170459 0.0330968 1
0.193973 0.0353552 1
0.265858 0.042237 1
0.486488 0.0633707 1
1 0.128237 1
1 0.327352 1
1 0.938445 1
1 1 0.841031
0.224537 0.354604 1
0.23888 0.355978 1
0.262394 0.358221 1
0.334279 0.365118 1
0.55491 0.386252 1
1 0.451118 1
1 0.650233 1
1 1 1
1 1 0.816327
0.434546 1 1
0.44889 1 1
0.472404 1 1
0.544289 1 1
0.76492 1 1
1 1 1
1 1 1
1 1 1
1 1 0.74052
1 1 1
1 1 1
1 1 1
1 1 1
1 1 1
1 1 1
1 1 1
1 1 0.997818
1 1 0.507881
1 1 0.520623
1 1 0.520256
1 1 0.519677
1 1 0.517876
1 1 0.512352
1 1 0.495415
1 1 0.443397
1 1 0.283772
1 1 0
1 1 0
1 1 0
1 1 0
1 1 0
1 1 0
1 1 0
1 1 0
1 1 0
1 1 0
0.405722 0 1
0.420066 0 1
0.44358 0 1
0.515465 0 1
0.736095 0 1
1 0 1
1 0 1
1 0.543816 1
1 1 1
0.410163 0 1
0.424506 0 1
0.44802 0 1
0.519905 0 1
0.740551 0 1
1 0 1
1 0 1
1 0.564813 1
1 1 1
0.417456 0 1
0.4318 0 1
0.455314 0 1
0.527199 0 1
0.747829 0 1
1 0 1
1 0 1
1 0.599222 1
1 1 1
0.43975 0 1
0.454093 0 1
0.477607 0 1
0.549493 0 1
0.770138 0 1
1 0 1
1 0.0933242 1
1 0.704417 1
1 1 1
0.508171 0.120577 1
0.522515 0.12195 1
0.546029 0.124193 1
0.617914 0.13109 1
0.83856 0.152224 1
1 0.21709 1
1 0.41619 1
1 1 1
1 1 1
0.718196 1 1
0.732525 1 1
0.756039 1 1
0.827924 1 1
1 1 1
1 1 1
1 1 1
1 1 1
1 1 1
1 1 1
1 1 1
1 1 1
1 1 1
1 1 1
1 1 1
1 1 1
1 1 1
1 1 1
1 1 1
1 1 1
1 1 1
1 1 1
1 1 1
1 1 1
1 1 1
1 1 1
1 1 1
1 1 1
1 1 1
1 1 1
1 1 1
1 1 1
1 1 1
1 1 1
1 1 1
1 1 0.893538
1 0 1
1 0 1
1 0 1
1 0 1
1 0 1
1 0 1
1 0 1
1 0 1
1 1 1
1 0 1
1 0 1
1 0 1
1 0 1
1 0 1
1 0 1
1 0 1
1 0 1
1 1 1
1 0 1
1 0 1
1 0 1
1 0 1
1 0 1
1 0 1
1 0 1
1 0 1
1 1 1
1 0 1
1 0 1
1 0 1
1 0 1
1 0 1
1 0 1
1 0 1
1 0 1
1 1 1
1 0 1
1 0 1
1 0 1
1 0 1
1 0 1
1 0 1
1 0 1
1 0.30901 1
1 1 1
1 0.393271 1
1 0.394644 1
1 0.396887 1
1 0.403784 1
1 0.424918 1
1 0.489784 1
1 0.688884 1
1 1 1
1 1 1
1 1 1
1 1 1
1 1 1
1 1 1
1 1 1
1 1 1
1 1 1
1 1 1
1 1 1
1 1 1
1 1 1
1 1 1
1 1 1
1 1 1
1 1 1
1 1 1
1 1 1
1 1 1
1 1 1
1 1 1
1 1 1
1 1 1
1 1 1
1 1 1
1 1 1
1 1 1
1 1 1
1 0 1
1 0 1
1 0 1
1 0 1
1 0 1
1 0 1
1 0 1
1 0 1
1 0 1
1 0 1
1 0 1
1 0 1
1 0 1
1 0 1
1 0 1
1 0 1
1 0 1
1 0 1
1 0 1
1 0 1
1 0 1
1 0 1
1 0 1
1 0 1
1 0 1
1 0 1
1 0 1
1 0 1
1 0 1
1 0 1
1 0 1
1 0 1
1 0 1
1 0 1
1 0 1
1 0 1
1 0 1
1 0 1
1 0 1
1 0 1
1 0 1
1 0 1
1 0 1
1 0 1
1 0 1
1 0 1
1 0 1
1 0 1
1 0 1
1 0 1
1 0 1
1 0 1
1 0 1
1 0.970993 1
1 1 1
1 1 1
1 1 1
1 1 1
1 1 1
1 1 1
1 1 1
1 1 1
1 1 1
1 1 1
1 1 1
1 1 1
1 1 1
1 1 1
1 1 1
1 1 1
1 1 1
1 1 1
1 1 1
1 1 1
1 1 1
1 1 1
1 1 1
1 1 1
1 1 1
1 1 1
1 1 1
